;FLAVOR:Marlin
;TIME:2205
;Filament used: 1.65346m
;Layer height: 0.16
;MINX:78.26
;MINY:67.911
;MINZ:0.2
;MAXX:121.736
;MAXY:132.091
;MAXZ:9.96
;Generated with Cura_SteamEngine 4.7.1
M140 S60
M105
M190 S60
M104 S200
M105
M109 S200
M82 ;absolute extrusion mode
G21 ;metric values
 G90 ;absolute positioning
 M82 ;set extruder to absolute mode
 M107 ;start with the fan off
 G28 X0 Y0 ;move X/Y to min endstops
 G28 Z0 ;move Z to min endstops
 G1 Z15.0 F120 ;move the platform down 15mm
 G92 E0 ;zero the extruded length
 G1 F200 E6 ;extrude 6 mm of feed stock
 G92 E0 ;zero the extruded length again
 G1 F120 
 ;Put printing message on LCD screen
 M117 Printing...
G92 E0
G92 E0
G1 F2400 E-2.5
;LAYER_COUNT:62
;LAYER:0
M107
G0 F3600 X79.116 Y76.062 Z0.2
;TYPE:SKIRT
G1 F2400 E0
G1 F1200 X79.423 Y75.744 E0.0147
G1 X79.89 Y75.316 E0.03577
G1 X80.823 Y74.487 E0.07728
G1 X82.82 Y72.608 E0.16848
G1 X85.66 Y69.747 E0.30256
G1 X85.719 Y69.685 E0.30541
G1 X86.116 Y69.324 E0.32326
G1 X86.791 Y68.909 E0.34961
G1 X87.645 Y68.506 E0.38102
G1 X88.296 Y68.221 E0.40465
G1 X88.802 Y68.043 E0.42249
G1 X89.329 Y67.943 E0.44034
G1 X89.685 Y67.919 E0.4522
G1 X90.213 Y67.911 E0.46977
G1 X90.317 Y67.911 E0.47323
G1 X90.949 Y67.925 E0.49425
G1 X91.329 Y67.96 E0.50694
G1 X93.481 Y68.128 E0.57874
G1 X93.758 Y68.171 E0.58806
G1 X94.733 Y68.246 E0.62058
G1 X94.957 Y68.27 E0.62808
G1 X96.182 Y68.443 E0.66923
G1 X98.485 Y68.815 E0.74682
G1 X99.127 Y68.928 E0.7685
G1 X99.918 Y69.16 E0.79591
G1 X100.406 Y69.366 E0.81353
G1 X100.51 Y69.412 E0.81731
G1 X101.424 Y69.832 E0.85077
G1 X104.147 Y71.033 E0.94976
G1 X105.002 Y71.395 E0.98064
G1 X105.097 Y71.437 E0.98409
G1 X105.634 Y71.683 E1.00374
G1 X106.208 Y72.013 E1.02576
G1 X106.789 Y72.448 E1.0499
G1 X109.048 Y74.216 E1.14531
G1 X109.604 Y74.664 E1.16906
G1 X109.858 Y74.887 E1.1803
G1 X110.278 Y75.289 E1.19964
G1 X111.44 Y76.434 E1.2539
G1 X112.549 Y77.479 E1.30458
G1 X112.758 Y77.693 E1.31453
G1 X113.514 Y78.535 E1.35216
G1 X115.049 Y80.315 E1.43034
G1 X115.499 Y80.852 E1.45364
G1 X115.898 Y81.414 E1.47657
G1 X115.981 Y81.546 E1.48175
G1 X116.472 Y82.366 E1.51354
G1 X117.936 Y84.733 E1.60611
G1 X118.042 Y84.896 E1.61258
G1 X118.656 Y85.871 E1.6509
G1 X119.032 Y86.496 E1.67516
G1 X119.273 Y86.975 E1.69299
G1 X119.46 Y87.518 E1.71209
G1 X119.557 Y87.842 E1.72334
G1 X120.383 Y90.715 E1.82277
G1 X120.575 Y91.424 E1.8472
G1 X120.642 Y91.723 E1.85739
G1 X120.765 Y92.402 E1.88034
G1 X120.999 Y93.791 E1.92719
G1 X121.325 Y95.541 E1.9864
G1 X121.397 Y96.056 E2.00369
G1 X121.422 Y96.301 E2.01189
G1 X121.679 Y99.035 E2.10322
G1 X121.732 Y99.7 E2.12541
G1 X121.736 Y100.238 E2.1433
G1 X121.697 Y100.776 E2.16124
G1 X121.443 Y103.479 E2.25154
G1 X121.366 Y104.183 E2.2751
G1 X121.259 Y104.798 E2.29586
G1 X120.789 Y107.389 E2.38344
G1 X120.644 Y108.255 E2.41265
G1 X120.495 Y108.89 E2.43434
G1 X120.468 Y108.99 E2.43779
G1 X119.588 Y112.049 E2.54365
G1 X119.4 Y112.668 E2.56517
G1 X119.06 Y113.458 E2.59378
G1 X118.747 Y113.982 E2.61408
G1 X118.703 Y114.053 E2.61686
G1 X118.066 Y115.052 E2.65626
G1 X116.69 Y117.276 E2.74325
G1 X116.087 Y118.28 E2.7822
G1 X115.788 Y118.752 E2.80078
G1 X115.351 Y119.331 E2.82491
G1 X115.223 Y119.483 E2.83152
G1 X113.337 Y121.671 E2.9276
G1 X112.871 Y122.197 E2.95097
G1 X112.659 Y122.417 E2.96113
G1 X111.741 Y123.291 E3.00329
G1 X111.595 Y123.426 E3.0099
G1 X110.838 Y124.17 E3.04521
G1 X109.863 Y125.107 E3.09018
G1 X109.633 Y125.31 E3.10038
G1 X108.992 Y125.828 E3.1278
G1 X106.876 Y127.486 E3.21721
G1 X106.315 Y127.911 E3.24061
G1 X105.725 Y128.274 E3.26365
G1 X105.105 Y128.562 E3.28639
G1 X105.028 Y128.596 E3.28919
G1 X103.495 Y129.248 E3.3446
G1 X100.375 Y130.641 E3.45824
G1 X99.931 Y130.837 E3.47439
G1 X99.161 Y131.064 E3.50109
G1 X98.368 Y131.204 E3.52787
G1 X95.789 Y131.62 E3.61476
G1 X95.147 Y131.714 E3.63634
G1 X94.949 Y131.737 E3.64297
G1 X94.186 Y131.806 E3.66845
G1 X92.037 Y131.974 E3.74014
G1 X91.058 Y132.067 E3.77285
G1 X90.337 Y132.091 E3.79684
G1 X90.239 Y132.091 E3.8001
G1 X89.697 Y132.083 E3.81813
G1 X89.163 Y132.035 E3.83596
G1 X88.642 Y131.908 E3.8538
G1 X88.309 Y131.782 E3.86564
G1 X87.546 Y131.448 E3.89335
G1 X87.39 Y131.377 E3.89905
G1 X86.828 Y131.112 E3.91971
G1 X86.381 Y130.862 E3.93675
G1 X85.953 Y130.54 E3.95456
G1 X85.55 Y130.139 E3.97347
G1 X83.635 Y128.191 E4.06432
G1 X81.678 Y126.309 E4.15463
G1 X80.49 Y125.245 E4.20767
G1 X80.355 Y125.105 E4.21414
G1 X79.436 Y124.268 E4.25549
G1 X79.068 Y123.878 E4.27332
G1 X78.761 Y123.438 E4.29116
G1 X78.523 Y122.957 E4.30901
G1 X78.36 Y122.447 E4.32682
G1 X78.273 Y121.917 E4.34469
G1 X78.267 Y121.381 E4.36251
G1 X78.323 Y120.935 E4.37746
G1 X78.487 Y120.072 E4.40668
G1 X78.59 Y119.577 E4.4235
G1 X79.103 Y116.913 E4.51373
G1 X79.547 Y114.202 E4.6051
G1 X79.91 Y111.504 E4.69564
G1 X80.198 Y108.787 E4.78652
G1 X80.406 Y106.098 E4.87622
G1 X80.54 Y103.335 E4.96823
G1 X80.597 Y100.641 E5.05785
G1 X80.575 Y97.91 E5.14869
G1 X80.478 Y95.178 E5.23961
G1 X80.302 Y92.452 E5.33047
G1 X80.05 Y89.734 E5.42126
G1 X79.722 Y87.029 E5.51188
G1 X79.319 Y84.341 E5.60229
G1 X78.59 Y80.42 E5.73493
G1 X78.442 Y79.705 E5.75922
G1 X78.321 Y79.073 E5.78062
G1 X78.26 Y78.54 E5.79846
G1 X78.278 Y78.004 E5.8163
G1 X78.376 Y77.477 E5.83413
G1 X78.551 Y76.97 E5.85197
G1 X78.8 Y76.495 E5.86981
G1 X79.116 Y76.062 E5.88764
G0 F3600 X79.219 Y76.585
G1 F1200 X79.693 Y76.038 E5.91171
G1 X80.118 Y75.648 E5.9309
G1 X81.099 Y74.777 E5.97453
G1 X83.095 Y72.899 E6.06568
G1 X85.929 Y70.044 E6.19948
G1 X86.009 Y69.96 E6.20334
G1 X86.385 Y69.622 E6.22015
G1 X86.962 Y69.27 E6.24263
G1 X87.721 Y68.911 E6.27056
G1 X88.457 Y68.588 E6.29729
G1 X88.934 Y68.422 E6.31409
G1 X89.432 Y68.334 E6.33091
G1 X89.692 Y68.319 E6.33957
G1 X90.22 Y68.311 E6.35714
G1 X90.311 Y68.311 E6.36016
G1 X90.923 Y68.324 E6.38052
G1 X91.303 Y68.359 E6.39321
G1 X93.45 Y68.527 E6.46484
G1 X93.702 Y68.567 E6.47333
G1 X94.702 Y68.644 E6.50669
G1 X94.901 Y68.666 E6.51335
G1 X96.118 Y68.838 E6.55423
G1 X98.416 Y69.208 E6.63164
G1 X99.058 Y69.321 E6.65332
G1 X99.762 Y69.529 E6.67774
G1 X100.343 Y69.775 E6.69872
G1 X101.261 Y70.197 E6.73233
G1 X103.991 Y71.401 E6.83157
G1 X104.846 Y71.763 E6.86245
G1 X105.468 Y72.047 E6.88519
G1 X105.978 Y72.34 E6.90475
G1 X106.546 Y72.765 E6.92835
G1 X108.797 Y74.527 E7.02343
G1 X109.353 Y74.975 E7.04718
G1 X109.582 Y75.176 E7.05731
G1 X109.963 Y75.54 E7.07484
G1 X111.168 Y76.727 E7.13109
G1 X112.274 Y77.77 E7.18166
G1 X112.46 Y77.96 E7.1905
G1 X113.258 Y78.85 E7.23026
G1 X114.743 Y80.572 E7.30589
G1 X115.193 Y81.109 E7.32919
G1 X115.564 Y81.634 E7.35057
G1 X115.638 Y81.751 E7.35518
G1 X116.132 Y82.576 E7.38716
G1 X117.594 Y84.94 E7.47961
G1 X117.704 Y85.11 E7.48634
G1 X118.313 Y86.077 E7.52435
G1 X118.689 Y86.702 E7.54861
G1 X118.991 Y87.364 E7.57281
G1 X119.164 Y87.924 E7.59231
G1 X119.997 Y90.82 E7.69253
G1 X120.189 Y91.529 E7.71696
G1 X120.249 Y91.795 E7.72603
G1 X120.371 Y92.469 E7.74881
G1 X120.61 Y93.891 E7.79677
G1 X120.673 Y94.223 E7.80801
G1 X120.932 Y95.614 E7.85507
G1 X121.021 Y96.311 E7.87844
G1 X121.28 Y99.067 E7.97051
G1 X121.333 Y99.732 E7.9927
G1 X121.32 Y100.481 E8.01762
G1 X121.299 Y100.738 E8.02619
G1 X121.045 Y103.436 E8.11633
G1 X120.968 Y104.14 E8.13988
G1 X120.874 Y104.682 E8.15818
G1 X120.396 Y107.318 E8.24728
G1 X120.25 Y108.189 E8.27665
G1 X120.107 Y108.791 E8.29723
G1 X120.083 Y108.879 E8.30027
G1 X119.205 Y111.933 E8.40596
G1 X119.017 Y112.552 E8.42747
G1 X118.714 Y113.256 E8.45297
G1 X118.405 Y113.775 E8.47306
G1 X117.752 Y114.8 E8.51348
G1 X116.325 Y117.106 E8.60367
G1 X115.703 Y118.141 E8.64384
G1 X115.236 Y118.837 E8.67171
G1 X114.92 Y119.222 E8.68828
G1 X113.037 Y121.406 E8.78419
G1 X112.571 Y121.932 E8.80756
G1 X112.383 Y122.127 E8.81657
G1 X111.469 Y122.997 E8.85854
G1 X111.343 Y123.114 E8.86426
G1 X110.588 Y123.856 E8.89947
G1 X109.586 Y124.818 E8.94567
G1 X109.382 Y124.999 E8.95474
G1 X108.746 Y125.513 E8.98194
G1 X106.634 Y127.167 E9.07116
G1 X106.073 Y127.592 E9.09457
G1 X105.549 Y127.915 E9.11504
G1 X104.94 Y128.198 E9.13738
G1 X103.338 Y128.88 E9.19529
G1 X100.199 Y130.281 E9.30962
G1 X99.775 Y130.468 E9.32503
G1 X99.092 Y130.67 E9.34872
G1 X98.304 Y130.809 E9.37534
G1 X95.731 Y131.224 E9.46202
G1 X95.089 Y131.318 E9.4836
G1 X94.913 Y131.339 E9.4895
G1 X94.155 Y131.407 E9.51481
G1 X92.022 Y131.574 E9.58597
G1 X91.02 Y131.669 E9.61945
G1 X90.332 Y131.691 E9.64234
G1 X90.245 Y131.691 E9.64523
G1 X89.703 Y131.683 E9.66326
G1 X89.199 Y131.635 E9.6801
G1 X88.71 Y131.509 E9.6969
G1 X88.469 Y131.416 E9.70549
G1 X87.711 Y131.084 E9.73301
G1 X87.56 Y131.015 E9.73853
G1 X86.998 Y130.75 E9.7592
G1 X86.597 Y130.525 E9.77449
G1 X86.194 Y130.219 E9.79132
G1 X85.839 Y129.862 E9.80807
G1 X83.914 Y127.905 E9.89937
G1 X81.954 Y126.02 E9.98982
G1 X80.757 Y124.947 E10.04328
G1 X80.634 Y124.818 E10.04921
G1 X79.705 Y123.972 E10.091
G1 X79.36 Y123.603 E10.1078
G1 X79.076 Y123.184 E10.12464
G1 X78.862 Y122.726 E10.14145
G1 X78.723 Y122.24 E10.15827
G1 X78.663 Y121.738 E10.17508
G1 X78.716 Y121.009 E10.19939
G1 X78.879 Y120.153 E10.22837
G1 X78.982 Y119.658 E10.24519
G1 X79.497 Y116.982 E10.33583
G1 X79.944 Y114.254 E10.42777
G1 X80.306 Y111.562 E10.51811
G1 X80.596 Y108.823 E10.60972
G1 X80.806 Y106.113 E10.70013
G1 X80.94 Y103.364 E10.79167
G1 X80.997 Y100.646 E10.88209
G1 X80.975 Y97.891 E10.97372
G1 X80.877 Y95.144 E11.06515
G1 X80.702 Y92.425 E11.15577
G1 X80.451 Y89.721 E11.24609
G1 X80.12 Y86.988 E11.33765
G1 X79.712 Y84.27 E11.42907
G1 X78.969 Y80.274 E11.56425
G1 X78.835 Y79.63 E11.58613
G1 X78.714 Y78.998 E11.60753
G1 X78.659 Y78.495 E11.62436
G1 X78.683 Y77.99 E11.64118
G1 X78.786 Y77.495 E11.658
G1 X78.967 Y77.023 E11.67481
G1 X79.219 Y76.585 E11.69162
G1 F2400 E9.19162
;MESH:Alesis_Wire_Holder.STL
G0 F3600 X83.335 Y117.176
G0 X83.13 Y118.438
G0 X87.33 Y122.765
G0 X87.251 Y122.826
;TYPE:WALL-INNER
G1 F2400 E11.69162
G1 F1200 X87.025 Y122.689 E11.70041
G1 X85.721 Y122.005 E11.74938
G1 X84.222 Y121.56 E11.80139
G1 X84.075 Y121.555 E11.80628
G1 X82.87 Y121.681 E11.84658
G1 X82.507 Y121.378 E11.86231
G1 X83.119 Y118.422 E11.96271
G1 X87.573 Y119.148 E12.1128
G1 X91.583 Y119.148 E12.24618
G1 X95.52 Y118.311 E12.38005
G1 X99.197 Y116.673 E12.51393
G1 X102.454 Y114.308 E12.64781
G1 X105.147 Y111.316 E12.78169
G1 X107.159 Y107.832 E12.91551
G1 X108.403 Y104.004 E13.04938
G1 X108.823 Y100 E13.18328
G1 X108.403 Y95.996 E13.31719
G1 X107.159 Y92.168 E13.45106
G1 X105.147 Y88.684 E13.58488
G1 X102.454 Y85.692 E13.71876
G1 X99.197 Y83.327 E13.85264
G1 X95.52 Y81.689 E13.98652
G1 X91.583 Y80.852 E14.12039
G1 X87.573 Y80.852 E14.25377
G1 X83.119 Y81.578 E14.40386
G1 X82.507 Y78.622 E14.50426
G1 X82.87 Y78.319 E14.51999
G1 X84.011 Y78.438 E14.55815
G1 X84.138 Y78.465 E14.56247
G1 X85.721 Y77.995 E14.61739
G1 X87.025 Y77.311 E14.66636
G1 X87.251 Y77.174 E14.67515
G1 X87.779 Y75.42 E14.73608
G1 X87.672 Y74.63 E14.76259
G1 X88.045 Y73.386 E14.80579
G1 X88.695 Y72.643 E14.83862
G1 X89.742 Y72.166 E14.87689
G1 X89.873 Y72.107 E14.88167
G1 X90.095 Y72.107 E14.88905
G1 X90.09 Y72.25 E14.89291
G1 X90.04 Y73.598 E14.93778
G1 X89.603 Y74.631 E14.97508
G1 X89.518 Y75.598 E15.00737
G1 X89.772 Y76.546 E15.04001
G1 X90.335 Y77.351 E15.07268
G1 X91.139 Y77.913 E15.10531
G1 X92.086 Y78.168 E15.13793
G1 X93.065 Y78.082 E15.17062
G1 X93.954 Y77.667 E15.20325
G1 X94.649 Y76.974 E15.23589
G1 X95.063 Y76.083 E15.26857
G1 X95.135 Y75.261 E15.29601
G1 X95.157 Y75.164 E15.29932
G1 X94.916 Y74.026 E15.33801
G1 X95.093 Y72.729 E15.38155
G1 X95.12 Y72.526 E15.38836
G1 X95.322 Y72.558 E15.39272
G1 X98.294 Y73.039 E15.49286
G1 X98.355 Y73.048 E15.49491
G1 X98.631 Y73.17 E15.50494
G1 X98.608 Y73.227 E15.50679
G1 X98.088 Y74.504 E15.55265
G1 X97.32 Y75.33 E15.59016
G1 X96.911 Y76.21 E15.62244
G1 X96.839 Y77.035 E15.64998
G1 X96.814 Y77.146 E15.65377
G1 X97.079 Y78.136 E15.68785
G1 X97.642 Y78.939 E15.72047
G1 X98.445 Y79.502 E15.75309
G1 X99.393 Y79.756 E15.78573
G1 X100.292 Y79.679 E15.81574
G1 X100.405 Y79.655 E15.81959
G1 X101.262 Y79.256 E15.85103
G1 X101.955 Y78.561 E15.88367
G1 X102.364 Y77.688 E15.91574
G1 X102.52 Y76.579 E15.95298
G1 X103.242 Y75.207 E16.00455
G1 X103.839 Y75.471 E16.02626
G1 X106.316 Y77.411 E16.13091
G1 X106.484 Y77.542 E16.13799
G1 X106.341 Y77.7 E16.14248
G1 X105.472 Y78.659 E16.18553
G1 X104.47 Y79.172 E16.22297
G1 X103.784 Y79.859 E16.25526
G1 X103.37 Y80.747 E16.28785
G1 X103.284 Y81.725 E16.3205
G1 X103.538 Y82.673 E16.35314
G1 X104.1 Y83.478 E16.3858
G1 X104.905 Y84.04 E16.41845
G1 X105.852 Y84.295 E16.45107
G1 X106.831 Y84.209 E16.48376
G1 X107.721 Y83.794 E16.51642
G1 X108.402 Y83.112 E16.54847
G1 X108.928 Y82.126 E16.58564
G1 X109.976 Y81.173 E16.63276
G1 X110.127 Y81.036 E16.63954
G1 X110.259 Y81.19 E16.64386
G1 X110.26 Y81.191 E16.6439
G1 X112.179 Y83.416 E16.74163
G1 X112.266 Y83.517 E16.74606
G1 X112.363 Y83.676 E16.75226
G1 X112.353 Y83.681
G1 X112.235 Y83.743 E16.75576
G1 X111.348 Y84.212 E16.78913
G1 X110.234 Y84.35 E16.82647
G1 X109.355 Y84.76 E16.85872
G1 X108.66 Y85.455 E16.89142
G1 X108.246 Y86.345 E16.92406
G1 X108.16 Y87.322 E16.95668
G1 X108.414 Y88.27 E16.98933
G1 X108.977 Y89.074 E17.02197
G1 X109.78 Y89.637 E17.05459
G1 X110.729 Y89.891 E17.08727
G1 X111.706 Y89.805 E17.11989
G1 X112.581 Y89.399 E17.15197
G1 X113.416 Y88.65 E17.18928
G1 X115.028 Y87.989 E17.24722
G1 X115.405 Y88.597 E17.27102
G1 X116.296 Y91.697 E17.3783
G1 X116.354 Y91.899 E17.38529
G1 X116.149 Y91.945 E17.38974
G1 X114.719 Y92.271 E17.43852
G1 X113.748 Y92.138 E17.47112
G1 X113.64 Y92.111 E17.47482
G1 X112.651 Y92.284 E17.50822
G1 X111.801 Y92.775 E17.54086
G1 X111.17 Y93.528 E17.57354
G1 X110.886 Y94.311 E17.60124
G1 X110.834 Y94.415 E17.60511
G1 X110.834 Y95.431 E17.6389
G1 X111.142 Y96.278 E17.66888
G1 X111.193 Y96.381 E17.6727
G1 X111.801 Y97.106 E17.70417
G1 X112.65 Y97.597 E17.73679
G1 X113.618 Y97.767 E17.76948
G1 X114.568 Y97.6 E17.80156
G1 X115.565 Y97.091 E17.83879
G1 X117.054 Y96.901 E17.88872
G1 X117.258 Y96.876 E17.89556
G1 X117.277 Y97.081 E17.89994
G1 X117.552 Y100 E17.99746
G1 X117.277 Y102.919 E18.09497
G1 X117.258 Y103.124 E18.10182
G1 X117.054 Y103.099 E18.1062
G1 X115.565 Y102.909 E18.15612
G1 X114.568 Y102.4 E18.19336
G1 X113.618 Y102.233 E18.22544
G1 X112.65 Y102.403 E18.25813
G1 X111.801 Y102.894 E18.29075
G1 X111.219 Y103.589 E18.3209
G1 X111.153 Y103.692 E18.32496
G1 X110.834 Y104.568 E18.35597
G1 X110.834 Y105.585 E18.3898
G1 X110.886 Y105.689 E18.39366
G1 X111.17 Y106.472 E18.42137
G1 X111.801 Y107.225 E18.45404
G1 X112.651 Y107.716 E18.48669
G1 X113.64 Y107.889 E18.52009
G1 X113.748 Y107.862 E18.52379
G1 X114.719 Y107.729 E18.55639
G1 X116.149 Y108.055 E18.60517
G1 X116.354 Y108.101 E18.61216
G1 X116.296 Y108.303 E18.61661
G1 X115.405 Y111.403 E18.72389
G1 X115.028 Y112.011 E18.74768
G1 X113.416 Y111.35 E18.80563
G1 X112.581 Y110.601 E18.84294
G1 X111.706 Y110.195 E18.87502
G1 X110.729 Y110.109 E18.90764
G1 X109.78 Y110.363 E18.94032
G1 X108.977 Y110.926 E18.97294
G1 X108.414 Y111.73 E19.00558
G1 X108.16 Y112.678 E19.03822
G1 X108.246 Y113.655 E19.07084
G1 X108.66 Y114.545 E19.10349
G1 X109.355 Y115.24 E19.13618
G1 X110.234 Y115.65 E19.16844
G1 X111.348 Y115.788 E19.20578
G1 X112.227 Y116.252 E19.23884
G1 X112.353 Y116.318 E19.24357
G1 X112.364 Y116.324 E19.24398
G1 X112.273 Y116.471 E19.24745
G1 X112.18 Y116.579 E19.25114
G1 X110.259 Y118.808 E19.34901
G1 X110.258 Y118.809 E19.34905
G1 X110.126 Y118.963 E19.3558
G1 X109.975 Y118.826 E19.36015
G1 X108.928 Y117.874 E19.40722
G1 X108.402 Y116.888 E19.44439
G1 X107.721 Y116.206 E19.47644
G1 X106.831 Y115.791 E19.5091
G1 X105.852 Y115.705 E19.54179
G1 X104.905 Y115.96 E19.57441
G1 X104.1 Y116.522 E19.60706
G1 X103.538 Y117.327 E19.63972
G1 X103.284 Y118.275 E19.67236
G1 X103.37 Y119.253 E19.70501
G1 X103.784 Y120.141 E19.7376
G1 X104.47 Y120.828 E19.76989
G1 X105.472 Y121.341 E19.80733
G1 X106.341 Y122.3 E19.85038
G1 X106.484 Y122.458 E19.85746
G1 X106.316 Y122.589 E19.86195
G1 X103.839 Y124.529 E19.9666
G1 X103.242 Y124.793 E19.98831
G1 X102.52 Y123.421 E20.03988
G1 X102.364 Y122.312 E20.07713
G1 X101.955 Y121.439 E20.10919
G1 X101.262 Y120.744 E20.14183
