;FLAVOR:Marlin
;TIME:3548
;Filament used: 2.55219m
;Layer height: 0.16
;MINX:72.015
;MINY:80.219
;MINZ:0.24
;MAXX:135.992
;MAXY:121.299
;MAXZ:55.87
;Generated with Cura_SteamEngine 4.7.1
M140 S60
M105
M190 S60
M104 S200
M105
M109 S200
M82 ;absolute extrusion mode
G21 ;metric values
 G90 ;absolute positioning
 M82 ;set extruder to absolute mode
 M107 ;start with the fan off
 G28 X0 Y0 ;move X/Y to min endstops
 G28 Z0 ;move Z to min endstops
 G1 Z15.0 F120 ;move the platform down 15mm
 G92 E0 ;zero the extruded length
 G1 F200 E6 ;extrude 6 mm of feed stock
 G92 E0 ;zero the extruded length again
 G1 F120 
 ;Put printing message on LCD screen
 M117 Printing...
G92 E0
G92 E0
G1 F2400 E-2.5
;LAYER_COUNT:343
;LAYER:-6
M107
G0 F7200 X80.207 Y87.675 Z0.24
;TYPE:SUPPORT-INTERFACE
G1 F2400 E0
G1 F900 X80.919 Y87.065 E0.07484
G1 X81.012 Y86.99 E0.08438
G1 X81.492 Y86.626 E0.13246
G1 X82.903 Y85.599 E0.27177
G1 X82.993 Y85.535 E0.28059
G1 X83.781 Y85.005 E0.35639
G1 X83.899 Y84.931 E0.36751
G1 X84.702 Y84.472 E0.44134
G1 X84.829 Y84.406 E0.45277
G1 X85.636 Y84.019 E0.52421
G1 X85.819 Y83.939 E0.54015
G1 X86.646 Y83.615 E0.61105
G1 X86.782 Y83.567 E0.62257
G1 X87.649 Y83.298 E0.69503
G1 X87.824 Y83.25 E0.70951
G1 X88.685 Y83.05 E0.78007
G1 X88.863 Y83.015 E0.79455
G1 X89.739 Y82.88 E0.8653
G1 X89.916 Y82.86 E0.87952
G1 X90.81 Y82.786 E0.95113
G1 X90.969 Y82.778 E0.96384
G1 X91.812 Y82.767 E1.03114
G1 X95.932 Y82.847 E1.36007
G1 X96.166 Y82.846 E1.37875
G1 X97.4 Y82.815 E1.47729
G1 X98.068 Y82.755 E1.53083
G1 X98.735 Y82.609 E1.58533
G1 X99.375 Y82.382 E1.63953
G1 X99.428 Y82.356 E1.64425
G1 X99.434 Y82.369 E1.64539
G1 X100.03 Y82.056 E1.69913
G1 X100.848 Y81.664 E1.77153
G1 X100.993 Y81.601 E1.78415
G1 X101.814 Y81.279 E1.85455
G1 X102 Y81.213 E1.8703
G1 X102.852 Y80.95 E1.94148
G1 X103.004 Y80.909 E1.95405
G1 X103.874 Y80.708 E2.02532
G1 X104.064 Y80.671 E2.04078
G1 X104.93 Y80.535 E2.11075
G1 X105.109 Y80.514 E2.12514
G1 X105.998 Y80.441 E2.19634
G1 X106.157 Y80.433 E2.20905
G1 X106.787 Y80.42 E2.25935
G1 X109.39 Y80.421 E2.46713
G1 X110.391 Y80.457 E2.54709
G1 X110.514 Y80.466 E2.55693
G1 X111.431 Y80.568 E2.63058
G1 X111.606 Y80.593 E2.64469
G1 X112.495 Y80.757 E2.71685
G1 X112.618 Y80.785 E2.72692
G1 X113.512 Y81.019 E2.80069
G1 X113.675 Y81.068 E2.81428
G1 X114.517 Y81.354 E2.88526
G1 X114.683 Y81.418 E2.89946
G1 X115.486 Y81.759 E2.9691
G1 X115.675 Y81.847 E2.98574
G1 X116.469 Y82.255 E3.057
G1 X116.586 Y82.322 E3.06776
G1 X117.388 Y82.81 E3.1427
G1 X117.504 Y82.885 E3.15373
G1 X117.936 Y83.186 E3.19576
G1 X118.026 Y83.249 E3.20453
G1 X120.092 Y84.754 E3.40856
G1 X120.153 Y84.8 E3.41466
G1 X120.894 Y85.383 E3.48992
G1 X121.03 Y85.497 E3.50409
G1 X121.643 Y86.055 E3.57026
G1 X122.165 Y86.474 E3.62369
G1 X122.638 Y86.771 E3.66827
G1 X123.03 Y86.988 E3.70404
G1 X123.217 Y87.102 E3.72152
G1 X124.1 Y87.689 E3.80616
G1 X124.24 Y87.785 E3.81971
G1 X124.965 Y88.313 E3.8913
G1 X125.103 Y88.418 E3.90515
G1 X125.822 Y88.981 E3.97804
G1 X125.943 Y89.083 E3.99067
G1 X126.618 Y89.697 E4.06351
G1 X126.718 Y89.795 E4.07469
G1 X127.356 Y90.466 E4.1486
G1 X127.46 Y90.584 E4.16115
G1 X128.057 Y91.314 E4.23643
G1 X128.375 Y91.699 E4.27629
G1 X128.386 Y91.688 E4.27753
G1 X128.491 Y91.808 E4.29026
G1 X128.97 Y92.236 E4.34154
G1 X129.119 Y92.353 E4.35666
G1 X129.788 Y92.917 E4.42651
G1 X130.957 Y93.969 E4.55204
G1 X131.689 Y94.677 E4.63333
G1 X131.772 Y94.763 E4.64287
G1 X132.384 Y95.45 E4.71632
G1 X132.501 Y95.591 E4.73094
G1 X133.028 Y96.276 E4.79993
G1 X133.148 Y96.445 E4.81648
G1 X133.62 Y97.16 E4.88487
G1 X133.733 Y97.348 E4.90238
G1 X134.157 Y98.105 E4.97164
G1 X134.225 Y98.239 E4.98363
G1 X134.614 Y99.073 E5.05709
G1 X134.68 Y99.229 E5.07061
G1 X134.997 Y100.062 E5.14176
G1 X135.049 Y100.215 E5.15466
G1 X135.31 Y101.085 E5.22716
G1 X135.35 Y101.243 E5.24017
G1 X135.551 Y102.149 E5.31425
G1 X135.573 Y102.272 E5.32422
G1 X135.702 Y103.165 E5.39625
G1 X135.723 Y103.359 E5.41182
G1 X135.785 Y104.223 E5.48097
G1 X135.792 Y104.423 E5.49694
G1 X135.79 Y105.309 E5.56767
G1 X135.785 Y105.459 E5.57965
G1 X135.718 Y106.353 E5.65121
G1 X135.698 Y106.535 E5.66583
G1 X135.565 Y107.43 E5.73806
G1 X135.537 Y107.585 E5.75063
G1 X135.342 Y108.454 E5.82172
G1 X135.295 Y108.63 E5.83626
G1 X134.975 Y109.667 E5.92289
G1 X134.947 Y109.751 E5.92996
G1 X134.864 Y109.987 E5.94993
G1 X134.804 Y110.147 E5.96357
G1 X134.462 Y111.014 E6.03797
G1 X134.389 Y111.179 E6.05237
G1 X134.001 Y111.985 E6.12377
G1 X133.931 Y112.116 E6.13563
G1 X133.471 Y112.914 E6.20916
G1 X133.388 Y113.048 E6.22174
G1 X132.887 Y113.788 E6.29307
G1 X132.784 Y113.929 E6.30701
G1 X132.238 Y114.62 E6.37731
G1 X132.107 Y114.774 E6.39345
G1 X131.524 Y115.41 E6.46232
G1 X131.385 Y115.551 E6.47813
G1 X130.752 Y116.147 E6.54753
G1 X130.597 Y116.283 E6.56399
G1 X129.923 Y116.832 E6.63338
G1 X129.782 Y116.938 E6.64746
G1 X129.044 Y117.454 E6.71934
G1 X128.905 Y117.543 E6.73252
G1 X128.73 Y117.647 E6.74877
G1 X128.115 Y118.074 E6.80853
G1 X128.001 Y118.167 E6.82027
G1 X127.865 Y118.267 E6.83375
G1 X127.153 Y118.757 E6.90274
G1 X126.969 Y118.874 E6.92015
G1 X126.213 Y119.317 E6.99009
G1 X126.071 Y119.394 E7.00299
G1 X125.243 Y119.801 E7.07664
G1 X125.126 Y119.853 E7.08686
G1 X124.271 Y120.198 E7.16045
G1 X124.108 Y120.256 E7.17426
G1 X123.265 Y120.527 E7.24495
G1 X123.101 Y120.573 E7.25854
G1 X122.229 Y120.785 E7.33018
G1 X122.067 Y120.818 E7.34337
G1 X121.174 Y120.966 E7.41563
G1 X120.997 Y120.989 E7.42988
G1 X120.103 Y121.072 E7.50155
G1 X119.961 Y121.079 E7.5129
G1 X119.22 Y121.1 E7.57207
G1 X88.77 Y121.099 E10.00272
G1 X87.769 Y121.063 E10.08268
G1 X87.646 Y121.054 E10.09252
G1 X86.729 Y120.952 E10.16617
G1 X86.554 Y120.927 E10.18028
G1 X85.665 Y120.763 E10.25244
G1 X85.542 Y120.735 E10.26251
G1 X84.648 Y120.501 E10.33628
G1 X84.485 Y120.452 E10.34987
G1 X83.643 Y120.166 E10.42085
G1 X83.477 Y120.102 E10.43505
G1 X82.674 Y119.761 E10.50469
G1 X82.485 Y119.673 E10.52133
G1 X81.691 Y119.265 E10.59259
G1 X81.574 Y119.198 E10.60335
G1 X80.795 Y118.724 E10.67614
G1 X80.644 Y118.624 E10.6906
G1 X79.93 Y118.113 E10.76069
G1 X79.782 Y118 E10.77555
G1 X79.075 Y117.411 E10.84901
G1 X78.981 Y117.328 E10.85902
G1 X78.982 Y117.327 E10.85913
G1 X78.471 Y116.844 E10.91526
G1 X78.47 Y116.845 E10.91537
G1 X78.314 Y116.688 E10.93304
G1 X77.666 Y115.99 E11.00906
G1 X77.549 Y115.853 E11.02344
G1 X76.999 Y115.168 E11.09357
G1 X76.899 Y115.034 E11.10691
G1 X76.762 Y114.834 E11.12627
G1 X76.252 Y114.203 E11.19103
G1 X76.122 Y114.066 E11.20611
G1 X75.552 Y113.415 E11.27518
G1 X75.432 Y113.268 E11.29032
G1 X74.9 Y112.564 E11.36076
G1 X74.798 Y112.417 E11.37504
G1 X74.317 Y111.673 E11.44576
G1 X74.224 Y111.518 E11.46019
G1 X73.788 Y110.722 E11.53264
G1 X73.724 Y110.593 E11.54413
G1 X73.346 Y109.765 E11.61679
G1 X73.285 Y109.614 E11.62979
G1 X72.975 Y108.779 E11.70089
G1 X72.915 Y108.595 E11.71634
G1 X72.672 Y107.756 E11.78606
G1 X72.626 Y107.571 E11.80128
G1 X72.449 Y106.738 E11.86926
G1 X72.411 Y106.52 E11.88692
G1 X72.291 Y105.641 E11.95774
G1 X72.277 Y105.491 E11.96976
G1 X72.221 Y104.594 E12.04151
G1 X72.216 Y104.439 E12.05389
G1 X72.225 Y103.531 E12.12637
G1 X72.233 Y103.361 E12.13995
G1 X72.308 Y102.468 E12.21149
G1 X72.329 Y102.291 E12.22572
G1 X72.466 Y101.423 E12.29586
G1 X72.5 Y101.248 E12.31009
G1 X72.701 Y100.385 E12.38082
G1 X72.753 Y100.193 E12.3967
G1 X73.027 Y99.317 E12.46997
G1 X73.075 Y99.174 E12.48201
G1 X73.147 Y98.969 E12.49935
G1 X73.207 Y98.809 E12.513
G1 X73.549 Y97.942 E12.58739
G1 X73.622 Y97.777 E12.6018
G1 X74.01 Y96.971 E12.6732
G1 X74.08 Y96.84 E12.68506
G1 X74.54 Y96.042 E12.75858
G1 X74.623 Y95.908 E12.77116
G1 X75.123 Y95.17 E12.84232
G1 X75.231 Y95.024 E12.85682
G1 X75.71 Y94.416 E12.9186
G1 X76.094 Y93.861 E12.97248
G1 X76.274 Y93.495 E13.00503
G1 X76.302 Y93.509 E13.00753
G1 X76.576 Y92.844 E13.06495
G1 X76.937 Y92.046 E13.13486
G1 X77.015 Y91.888 E13.14893
G1 X77.439 Y91.104 E13.22007
G1 X77.528 Y90.954 E13.234
G1 X78.016 Y90.194 E13.30609
G1 X78.099 Y90.073 E13.31781
G1 X78.647 Y89.342 E13.39073
G1 X78.749 Y89.216 E13.40367
G1 X79.346 Y88.531 E13.47621
G1 X79.452 Y88.418 E13.48857
G1 X80.099 Y87.775 E13.56139
G1 X80.207 Y87.675 E13.57314
G0 F7200 X80 Y87.873
G1 F900 X80 Y118.163 E15.99101
G0 F7200 X81.6 Y119.212
G1 F900 X81.6 Y86.547 E18.59848
G0 F7200 X83.2 Y85.395
G1 F900 X83.2 Y119.984 E21.35952
G0 F7200 X84.8 Y120.54
G1 F900 X84.8 Y84.421 E24.24269
G0 F7200 X86.4 Y83.711
G1 F900 X86.4 Y120.898 E27.21112
G0 F7200 X88 Y121.071
G1 F900 X88 Y83.209 E30.23343
G0 F7200 X89.6 Y82.901
G1 F900 X89.6 Y121.099 E33.28256
G0 F7200 X91.2 Y121.099
G1 F900 X91.2 Y82.774 E36.34183
G0 F7200 X92.8 Y82.787
G1 F900 X92.8 Y121.099 E39.40006
G0 F7200 X94.4 Y121.099
G1 F900 X94.4 Y82.818 E42.45581
G0 F7200 X96 Y82.846
G1 F900 X96 Y121.099 E45.50933
G0 F7200 X97.6 Y121.099
G1 F900 X97.6 Y82.797 E48.56676
G0 F7200 X99.2 Y82.444
G1 F900 X99.2 Y121.099 E51.65237
G0 F7200 X100.8 Y121.099
G1 F900 X100.8 Y81.687 E54.79841
G0 F7200 X102.4 Y81.089
G1 F900 X102.4 Y121.099 E57.99218
G0 F7200 X104 Y121.099
G1 F900 X104 Y80.683 E61.21836
G0 F7200 X105.6 Y80.473
G1 F900 X105.6 Y121.099 E64.4613
G0 F7200 X107.2 Y121.099
G1 F900 X107.2 Y80.421 E67.7084
G0 F7200 X108.8 Y80.421
G1 F900 X108.8 Y121.099 E70.95549
G0 F7200 X110.4 Y121.099
G1 F900 X110.4 Y80.458 E74.19963
G0 F7200 X112 Y80.666
G1 F900 X112 Y121.099 E77.42717
G0 F7200 X113.6 Y121.099
G1 F900 X113.6 Y81.046 E80.62437
G0 F7200 X115.2 Y81.638
G1 F900 X115.2 Y121.099 E83.77432
G0 F7200 X116.8 Y121.099
G1 F900 X116.8 Y82.453 E86.85921
G0 F7200 X118.4 Y83.522
G1 F900 X118.4 Y121.099 E89.85877
G0 F7200 X120 Y121.078
G1 F900 X120 Y84.687 E92.76365
G0 F7200 X121.6 Y86.016
G1 F900 X121.6 Y120.896 E95.54793
G0 F7200 X123.2 Y120.546
G1 F900 X123.2 Y87.092 E98.21837
G0 F7200 X124.8 Y88.193
G1 F900 X124.8 Y119.985 E100.75614
G0 F7200 X126.4 Y119.208
G1 F900 X126.4 Y89.499 E103.12765
G0 F7200 X128 Y91.245
G1 F900 X128 Y118.168 E105.27676
G0 F7200 X129.6 Y117.066
G1 F900 X129.6 Y92.759 E107.21705
G0 F7200 X131.2 Y94.205
G1 F900 X131.2 Y115.726 E108.93495
G0 F7200 X132.8 Y113.908
G1 F900 X132.8 Y95.98 E110.36604
G0 F7200 X134.4 Y98.615
G1 F900 X134.4 Y111.155 E111.36703
G0 F7200 X78.4 Y116.774
G1 F900 X78.4 Y89.671 E113.53051
G0 F7200 X76.8 Y92.348
G1 F900 X76.8 Y114.889 E115.32983
G0 F7200 X75.2 Y112.96
G1 F900 X75.2 Y95.065 E116.75829
G0 F7200 X73.6 Y97.826
G1 F900 X73.6 Y110.321 E117.75569
G0 F600 X73.6 Y110.321 Z0.48
G0 F7200 X77.061 Y115.245
;TIME_ELAPSED:103.652669
;LAYER:-5
;TYPE:SUPPORT
G1 F900 X79.923 Y118.107 E118.07878
G1 X79.781 Y117.999 E118.09302
G1 X79.075 Y117.41 E118.16641
G1 X78.98 Y117.327 E118.17648
G0 F7200 X78.981 Y117.326
G1 F900 X78.471 Y116.843 E118.23255
G0 F7200 X78.469 Y116.844
G1 F900 X78.314 Y116.687 E118.25016
G1 X77.665 Y115.989 E118.32625
G1 X77.548 Y115.852 E118.34063
G0 F7200 X79.923 Y118.107
G1 F900 X79.929 Y118.112 E118.34125
G1 X80.644 Y118.622 E118.41136
G1 X80.795 Y118.723 E118.42586
G1 X81.573 Y119.197 E118.49858
G1 X81.691 Y119.264 E118.50941
G1 X82.485 Y119.672 E118.58067
G1 X82.674 Y119.76 E118.59731
G1 X83.224 Y119.993 E118.64499
G1 X73.64 Y110.409 E119.72692
G1 X73.346 Y109.764 E119.7835
G1 X73.285 Y109.613 E119.7965
G1 X72.974 Y108.778 E119.86763
G1 X72.914 Y108.593 E119.88315
G1 X72.781 Y108.137 E119.92107
G1 X85.32 Y120.676 E121.33658
G1 X85.541 Y120.734 E121.35482
G1 X85.664 Y120.762 E121.36489
G1 X86.554 Y120.926 E121.43713
G1 X86.728 Y120.951 E121.45116
G1 X87.045 Y120.986 E121.47662
G1 X72.384 Y106.325 E123.13168
G1 X72.29 Y105.64 E123.18687
G1 X72.276 Y105.489 E123.19897
G1 X72.23 Y104.757 E123.25752
G1 X88.563 Y121.09 E125.10133
G1 X88.769 Y121.098 E125.11779
G1 X89.985 Y121.098 E125.21485
G1 X72.233 Y103.346 E127.21885
G1 X72.308 Y102.467 E127.28927
G1 X72.328 Y102.29 E127.30349
G1 X72.364 Y102.063 E127.32184
G1 X91.399 Y121.098 E129.47067
G1 X92.814 Y121.098 E129.58362
G1 X72.587 Y100.871 E131.86702
G1 X72.701 Y100.384 E131.90695
G1 X72.752 Y100.192 E131.92281
G1 X72.888 Y99.758 E131.95911
G1 X94.228 Y121.098 E134.36815
G1 X95.642 Y121.098 E134.48103
G1 X73.247 Y98.703 E137.00917
G1 X73.549 Y97.941 E137.0746
G1 X73.621 Y97.776 E137.08897
G1 X73.657 Y97.699 E137.09575
G1 X97.056 Y121.098 E139.73723
G1 X98.47 Y121.098 E139.8501
G1 X74.127 Y96.754 E142.59821
G1 X74.539 Y96.041 E142.66394
G1 X74.623 Y95.907 E142.67657
G1 X74.651 Y95.864 E142.68066
G1 X99.885 Y121.098 E145.5293
G1 X101.299 Y121.098 E145.64217
G1 X75.227 Y95.026 E148.5854
G1 X75.231 Y95.023 E148.5858
G1 X75.709 Y94.415 E148.64753
G1 X75.84 Y94.225 E148.66596
G1 X102.713 Y121.098 E151.69961
G1 X104.127 Y121.098 E151.81249
G1 X76.37 Y93.34 E154.94599
G1 X76.576 Y92.843 E154.98894
G1 X76.797 Y92.353 E155.03185
G1 X105.542 Y121.098 E158.27683
G1 X106.956 Y121.098 E158.3897
G1 X77.27 Y91.412 E161.74091
G1 X77.438 Y91.102 E161.76906
G1 X77.527 Y90.953 E161.78291
G1 X77.8 Y90.528 E161.82323
G1 X108.37 Y121.098 E165.27424
G1 X109.784 Y121.098 E165.38711
G1 X78.381 Y89.695 E168.93215
G1 X78.647 Y89.341 E168.9675
G1 X78.749 Y89.215 E168.98044
G1 X79.012 Y88.912 E169.01247
G1 X111.198 Y121.098 E172.6459
G1 X112.613 Y121.098 E172.75885
G1 X79.693 Y88.178 E176.47515
G1 X80.098 Y87.773 E176.52087
G1 X80.207 Y87.674 E176.53262
G1 X80.42 Y87.491 E176.55504
G1 X114.027 Y121.098 E180.34889
G1 X115.441 Y121.098 E180.46176
G1 X81.194 Y86.851 E184.32785
G1 X81.491 Y86.625 E184.35765
G1 X82.008 Y86.25 E184.40863
G1 X116.855 Y121.098 E188.34251
G1 X118.269 Y121.098 E188.45539
G1 X82.826 Y85.654 E192.45655
G1 X82.902 Y85.598 E192.46409
G1 X82.993 Y85.534 E192.47297
G1 X83.666 Y85.081 E192.53773
G1 X119.672 Y121.086 E196.60234
G1 X119.961 Y121.078 E196.62542
G1 X120.102 Y121.071 E196.63669
G1 X120.988 Y120.988 E196.70772
G1 X84.555 Y84.555 E200.82059
G1 X84.701 Y84.472 E200.834
G1 X84.828 Y84.405 E200.84546
G1 X85.499 Y84.084 E200.90484
G1 X122.203 Y120.789 E205.04836
G1 X122.228 Y120.784 E205.05039
G1 X123.1 Y120.573 E205.12201
G1 X123.264 Y120.526 E205.13563
G1 X123.332 Y120.503 E205.14136
G1 X86.5 Y83.671 E209.29927
G1 X86.645 Y83.614 E209.31171
G1 X86.781 Y83.566 E209.32322
G1 X87.565 Y83.323 E209.38874
G1 X124.391 Y120.148 E213.54592
G1 X125.125 Y119.853 E213.60907
G1 X125.242 Y119.8 E213.61932
G1 X125.386 Y119.729 E213.63214
G1 X88.703 Y83.046 E217.77323
G1 X88.862 Y83.015 E217.78616
G1 X89.738 Y82.879 E217.85693
G1 X89.915 Y82.86 E217.87114
G1 X89.93 Y82.859 E217.87234
G1 X126.322 Y119.251 E221.98058
G1 X126.968 Y118.873 E222.04033
G1 X127.151 Y118.757 E222.05762
G1 X127.204 Y118.719 E222.06283
G1 X91.259 Y82.774 E226.12061
G1 X91.81 Y82.766 E226.1646
G1 X92.683 Y82.783 E226.2343
G1 X128.036 Y118.137 E230.2253
G1 X128.114 Y118.073 E230.23336
G1 X128.728 Y117.647 E230.29301
G1 X128.874 Y117.56 E230.30658
G1 X94.125 Y82.812 E234.22929
G1 X95.568 Y82.84 E234.3445
G1 X129.713 Y116.985 E238.19908
G1 X129.781 Y116.937 E238.20572
G1 X129.922 Y116.832 E238.21976
G1 X130.501 Y116.359 E238.27944
G1 X96.968 Y82.826 E242.06493
G1 X97.399 Y82.814 E242.09935
G1 X98.067 Y82.755 E242.15288
G1 X98.268 Y82.711 E242.16931
G1 X131.241 Y115.684 E245.89158
G1 X131.384 Y115.551 E245.90717
G1 X131.523 Y115.409 E245.92303
G1 X131.933 Y114.962 E245.97145
G1 X99.358 Y82.387 E249.6488
G1 X99.373 Y82.382 E249.65006
G1 X99.426 Y82.356 E249.65477
G1 X99.433 Y82.369 E249.65595
G1 X100.029 Y82.056 E249.70969
G1 X100.308 Y81.923 E249.73436
G1 X132.576 Y114.191 E253.37705
G1 X132.783 Y113.929 E253.4037
G1 X132.886 Y113.787 E253.41771
G1 X133.169 Y113.37 E253.45794
G1 X101.285 Y81.486 E257.05728
G1 X101.813 Y81.279 E257.10255
G1 X101.999 Y81.213 E257.1183
G1 X102.326 Y81.112 E257.14562
G1 X133.711 Y112.497 E260.68863
G1 X133.93 Y112.116 E260.72371
G1 X134 Y111.985 E260.73557
G1 X134.199 Y111.572 E260.77216
G1 X103.436 Y80.809 E264.24496
G1 X103.873 Y80.708 E264.28076
G1 X104.063 Y80.67 E264.29623
G1 X104.624 Y80.583 E264.34154
G1 X134.629 Y110.587 E267.72871
G1 X134.803 Y110.146 E267.76655
G1 X134.862 Y109.986 E267.78017
G1 X134.946 Y109.75 E267.80016
G1 X134.974 Y109.667 E267.80715
G1 X135.01 Y109.554 E267.81662
G1 X105.904 Y80.448 E271.10236
G1 X105.997 Y80.441 E271.1098
