;FLAVOR:Marlin
;TIME:5089
;Filament used: 1.71613m
;Layer height: 0.12
;MINX:60.902
;MINY:81.563
;MINZ:0.2
;MAXX:139.097
;MAXY:155.099
;MAXZ:5.96
;Generated with Cura_SteamEngine 4.4.1
M140 S60
M105
M190 S60
M104 S200
M105
M109 S200
M82 ;absolute extrusion mode
; START CODE
G21 ;metric values
G90 ;absolute positioning
M82 ;set extruder to absolute mode
M107 ;start with the fan off
G28 X0 Y0 ;move X/Y to min endstops
G28 Z0 ;move Z to min endstops
G1 Z15.0 F120 ;move the platform down 15mm
G92 E0 ;zero the extruded length
G1 F200 E6 ;extrude 6 mm of feed stock
G92 E0 ;zero the extruded length again
G1 F120
;Put printing message on LCD screen
M117 Printing...
G92 E0
G92 E0
G1 F2400 E-2.5
;LAYER_COUNT:49
;LAYER:0
M107
G0 F3600 X86.809 Y87.117 Z0.2
;TYPE:SKIRT
G1 F2400 E0
G1 F900 X87.192 Y86.737 E0.01794
G1 X87.267 Y86.666 E0.02138
G1 X87.615 Y86.34 E0.03724
G1 X87.721 Y86.244 E0.042
G1 X88.105 Y85.912 E0.05888
G1 X88.192 Y85.839 E0.06266
G1 X88.6 Y85.508 E0.08013
G1 X88.707 Y85.425 E0.08464
G1 X89.168 Y85.079 E0.10381
G1 X89.272 Y85.004 E0.10807
G1 X89.575 Y84.793 E0.12035
G1 X89.671 Y84.728 E0.12421
G1 X90.27 Y84.339 E0.14796
G1 X90.39 Y84.264 E0.15267
G1 X90.748 Y84.051 E0.16653
G1 X90.843 Y83.997 E0.17016
G1 X91.283 Y83.753 E0.18689
G1 X91.396 Y83.693 E0.19115
G1 X91.891 Y83.441 E0.20962
G1 X92.011 Y83.382 E0.21407
G1 X92.471 Y83.169 E0.23093
G1 X92.581 Y83.121 E0.23492
G1 X92.985 Y82.95 E0.24951
G1 X93.104 Y82.902 E0.25378
G1 X93.777 Y82.645 E0.27774
G1 X93.892 Y82.603 E0.28181
G1 X94.157 Y82.512 E0.29113
G1 X94.275 Y82.474 E0.29526
G1 X94.937 Y82.272 E0.31828
G1 X95.066 Y82.235 E0.32274
G1 X95.485 Y82.124 E0.33716
G1 X95.602 Y82.095 E0.34117
G1 X96.138 Y81.972 E0.35946
G1 X96.252 Y81.948 E0.36333
G1 X96.799 Y81.841 E0.38187
G1 X96.947 Y81.815 E0.38687
G1 X97.334 Y81.756 E0.39989
G1 X97.443 Y81.741 E0.40355
G1 X98.102 Y81.661 E0.42563
G1 X98.231 Y81.648 E0.42994
G1 X98.678 Y81.61 E0.44486
G1 X98.801 Y81.602 E0.44896
G1 X99.354 Y81.574 E0.46738
G1 X99.475 Y81.57 E0.4714
G1 X99.889 Y81.563 E0.48518
G1 X100.018 Y81.563 E0.48947
G1 X100.599 Y81.574 E0.50879
G1 X100.728 Y81.578 E0.51309
G1 X101.331 Y81.611 E0.53317
G1 X101.453 Y81.62 E0.53724
G1 X101.858 Y81.656 E0.55076
G1 X101.988 Y81.67 E0.55511
G1 X102.521 Y81.737 E0.57298
G1 X102.639 Y81.754 E0.57695
G1 X103.166 Y81.838 E0.59469
G1 X103.292 Y81.86 E0.59895
G1 X103.873 Y81.974 E0.61864
G1 X104.002 Y82.002 E0.62303
G1 X104.39 Y82.093 E0.63629
G1 X104.505 Y82.122 E0.64023
G1 X105.069 Y82.274 E0.65966
G1 X105.19 Y82.309 E0.66385
G1 X105.652 Y82.451 E0.67992
G1 X105.776 Y82.491 E0.68426
G1 X106.343 Y82.688 E0.70422
G1 X106.457 Y82.73 E0.70826
G1 X106.794 Y82.86 E0.72028
G1 X106.918 Y82.911 E0.72474
G1 X107.505 Y83.163 E0.74598
G1 X107.607 Y83.209 E0.74971
G1 X108.087 Y83.433 E0.76732
G1 X108.205 Y83.49 E0.77168
G1 X108.629 Y83.707 E0.78752
G1 X108.747 Y83.77 E0.79197
G1 X109.142 Y83.991 E0.80703
G1 X109.243 Y84.05 E0.81092
G1 X109.82 Y84.398 E0.83333
G1 X109.93 Y84.467 E0.83765
G1 X110.282 Y84.697 E0.85163
G1 X110.382 Y84.765 E0.85565
G1 X110.822 Y85.074 E0.87354
G1 X110.93 Y85.153 E0.87799
G1 X111.312 Y85.443 E0.89394
G1 X111.404 Y85.515 E0.89783
G1 X111.866 Y85.89 E0.91762
G1 X111.969 Y85.977 E0.9221
G1 X112.316 Y86.281 E0.93744
G1 X112.398 Y86.355 E0.94112
G1 X112.749 Y86.682 E0.95707
G1 X112.854 Y86.784 E0.96194
G1 X113.327 Y87.262 E0.98431
G1 X113.405 Y87.343 E0.98805
G1 X113.642 Y87.598 E0.99963
G1 X113.728 Y87.695 E1.00394
G1 X114.117 Y88.145 E1.02372
G1 X114.196 Y88.239 E1.02781
G1 X114.525 Y88.647 E1.04524
G1 X114.604 Y88.748 E1.0495
G1 X114.903 Y89.147 E1.06609
G1 X114.981 Y89.256 E1.07055
G1 X115.265 Y89.666 E1.08713
G1 X115.33 Y89.763 E1.09102
G1 X115.711 Y90.353 E1.11438
G1 X115.83 Y90.551 E1.12206
G1 X116.324 Y91.436 E1.15577
G1 X116.393 Y91.564 E1.16061
G1 X116.549 Y91.872 E1.17209
G1 X116.606 Y91.991 E1.17648
G1 X116.863 Y92.548 E1.19688
G1 X116.911 Y92.656 E1.20081
G1 X117.049 Y92.983 E1.21262
G1 X117.096 Y93.102 E1.21687
G1 X117.443 Y94.013 E1.2493
G1 X118.463 Y96.587 E1.34139
G1 X119.549 Y99.114 E1.43287
G1 X120.685 Y101.566 E1.52275
G1 X121.907 Y104.015 E1.61378
G1 X123.186 Y106.411 E1.70411
G1 X124.546 Y108.793 E1.79534
G1 X125.965 Y111.123 E1.88608
G1 X127.429 Y113.38 E1.97556
G1 X128.992 Y115.646 E2.06711
G1 X130.605 Y117.849 E2.15793
G1 X132.287 Y120.014 E2.24911
G1 X133.995 Y122.088 E2.33848
G1 X134.645 Y122.832 E2.37134
G1 X134.678 Y122.87 E2.37301
G1 X135.423 Y123.747 E2.41128
G1 X135.481 Y123.818 E2.41433
G1 X136.048 Y124.521 E2.44437
G1 X136.235 Y124.774 E2.45483
G1 X136.687 Y125.447 E2.4818
G1 X136.848 Y125.711 E2.49208
G1 X137.238 Y126.416 E2.51888
G1 X137.31 Y126.554 E2.52406
G1 X137.449 Y126.833 E2.53442
G1 X137.538 Y127.024 E2.54143
G1 X137.711 Y127.429 E2.55608
G1 X137.751 Y127.528 E2.55963
G1 X137.862 Y127.811 E2.56974
G1 X137.903 Y127.919 E2.57359
G1 X138.097 Y128.464 E2.59283
G1 X138.158 Y128.652 E2.5994
G1 X138.307 Y129.157 E2.61691
G1 X138.339 Y129.275 E2.62098
G1 X138.469 Y129.778 E2.63826
G1 X138.508 Y129.945 E2.64396
G1 X138.674 Y130.742 E2.67104
G1 X138.696 Y130.855 E2.67487
G1 X138.762 Y131.232 E2.6876
G1 X138.788 Y131.404 E2.69338
G1 X138.933 Y132.557 E2.73204
G1 X138.944 Y132.662 E2.73555
G1 X138.993 Y133.172 E2.75259
G1 X139.001 Y133.261 E2.75556
G1 X139.03 Y133.669 E2.76916
G1 X139.034 Y133.734 E2.77133
G1 X139.064 Y134.302 E2.79025
G1 X139.067 Y134.381 E2.79288
G1 X139.087 Y135.031 E2.81451
G1 X139.097 Y135.809 E2.84039
G1 X139.097 Y135.882 E2.84281
G1 X139.089 Y136.949 E2.8783
G1 X139.087 Y137.033 E2.8811
G1 X139.072 Y137.519 E2.89727
G1 X139.07 Y137.584 E2.89943
G1 X139.042 Y138.155 E2.91845
G1 X139.037 Y138.229 E2.92091
G1 X138.999 Y138.775 E2.93912
G1 X138.993 Y138.857 E2.94185
G1 X138.942 Y139.407 E2.96022
G1 X138.932 Y139.496 E2.9632
G1 X138.881 Y139.929 E2.9777
G1 X138.869 Y140.025 E2.98092
G1 X138.766 Y140.735 E3.00478
G1 X138.749 Y140.841 E3.00835
G1 X138.668 Y141.302 E3.02392
G1 X138.649 Y141.398 E3.02718
G1 X138.546 Y141.903 E3.04432
G1 X138.509 Y142.069 E3.04998
G1 X138.352 Y142.688 E3.07122
G1 X138.326 Y142.783 E3.07449
G1 X138.257 Y143.027 E3.08293
G1 X138.227 Y143.126 E3.08637
G1 X138.123 Y143.457 E3.09791
G1 X138.095 Y143.545 E3.10098
G1 X137.998 Y143.828 E3.11093
G1 X137.962 Y143.927 E3.11443
G1 X137.802 Y144.353 E3.12957
G1 X137.738 Y144.511 E3.13524
G1 X137.573 Y144.894 E3.14911
G1 X137.533 Y144.985 E3.15241
G1 X137.373 Y145.33 E3.16506
G1 X137.269 Y145.537 E3.17277
G1 X136.957 Y146.11 E3.19447
G1 X136.811 Y146.353 E3.2039
G1 X136.336 Y147.082 E3.23283
G1 X136.137 Y147.358 E3.24415
G1 X135.585 Y148.052 E3.27365
G1 X135.347 Y148.323 E3.28564
G1 X134.749 Y148.937 E3.31415
G1 X134.652 Y149.033 E3.31869
G1 X134.465 Y149.211 E3.32727
G1 X134.33 Y149.333 E3.33333
G1 X134.116 Y149.517 E3.34271
G1 X133.954 Y149.648 E3.34964
G1 X133.306 Y150.143 E3.37676
G1 X133.128 Y150.271 E3.38406
G1 X132.553 Y150.657 E3.40709
G1 X132.354 Y150.781 E3.41489
G1 X131.796 Y151.105 E3.43635
G1 X131.694 Y151.162 E3.44024
G1 X131.302 Y151.373 E3.45504
G1 X131.131 Y151.459 E3.46141
G1 X130.412 Y151.798 E3.48785
G1 X130.296 Y151.851 E3.49209
G1 X129.825 Y152.053 E3.50914
G1 X129.729 Y152.092 E3.51258
G1 X129.261 Y152.277 E3.52932
G1 X129.159 Y152.316 E3.53295
G1 X128.571 Y152.528 E3.55374
G1 X128.476 Y152.56 E3.55707
G1 X128.057 Y152.698 E3.57175
G1 X127.971 Y152.725 E3.57475
G1 X127.179 Y152.964 E3.60226
G1 X127.097 Y152.988 E3.6051
G1 X126.666 Y153.107 E3.61997
G1 X126.587 Y153.128 E3.62269
G1 X125.932 Y153.293 E3.64516
G1 X125.862 Y153.31 E3.64755
G1 X125.203 Y153.462 E3.67005
G1 X125.133 Y153.477 E3.67243
G1 X124.442 Y153.622 E3.69591
G1 X124.368 Y153.637 E3.69842
G1 X123.629 Y153.776 E3.72343
G1 X123.578 Y153.785 E3.72516
G1 X123.006 Y153.884 E3.74446
G1 X122.952 Y153.893 E3.74629
G1 X122.069 Y154.032 E3.77602
G1 X122.012 Y154.041 E3.77793
G1 X121.304 Y154.141 E3.80172
G1 X121.259 Y154.147 E3.80323
G1 X120.511 Y154.243 E3.82831
G1 X120.464 Y154.248 E3.82988
G1 X119.447 Y154.365 E3.86393
G1 X119.387 Y154.372 E3.86594
G1 X117.754 Y154.532 E3.92051
G1 X117.682 Y154.538 E3.92292
G1 X115.844 Y154.681 E3.98423
G1 X115.798 Y154.684 E3.98577
G1 X114.656 Y154.758 E4.02383
G1 X114.619 Y154.761 E4.02506
G1 X113.374 Y154.829 E4.06653
G1 X113.333 Y154.831 E4.0679
G1 X110.973 Y154.933 E4.14647
G1 X110.934 Y154.934 E4.14776
G1 X109.878 Y154.968 E4.18291
G1 X109.84 Y154.969 E4.18417
G1 X105.517 Y155.063 E4.32799
G1 X105.475 Y155.064 E4.32938
G1 X102.434 Y155.094 E4.43053
G1 X102.403 Y155.094 E4.43156
G1 X98.822 Y155.099 E4.55067
G1 X98.786 Y155.099 E4.55187
G1 X93.898 Y155.057 E4.71445
G1 X93.85 Y155.056 E4.71604
G1 X90.793 Y154.989 E4.81775
G1 X90.75 Y154.988 E4.81918
G1 X88.042 Y154.896 E4.9093
G1 X87.986 Y154.894 E4.91116
G1 X85.681 Y154.78 E4.98792
G1 X85.646 Y154.778 E4.98908
G1 X84.904 Y154.734 E5.01381
G1 X84.854 Y154.73 E5.01548
G1 X82.7 Y154.572 E5.08731
G1 X82.637 Y154.567 E5.08941
G1 X81.393 Y154.454 E5.13096
G1 X81.336 Y154.449 E5.13286
G1 X79.981 Y154.304 E5.17819
G1 X79.924 Y154.297 E5.1801
G1 X79.015 Y154.185 E5.21056
G1 X78.959 Y154.178 E5.21244
G1 X78.096 Y154.058 E5.24141
G1 X78.043 Y154.05 E5.2432
G1 X77.265 Y153.93 E5.26938
G1 X77.213 Y153.922 E5.27113
G1 X76.557 Y153.811 E5.29326
G1 X76.495 Y153.799 E5.29536
G1 X75.71 Y153.652 E5.32192
G1 X75.648 Y153.64 E5.32402
G1 X74.982 Y153.503 E5.34664
G1 X74.908 Y153.487 E5.34916
G1 X74.262 Y153.34 E5.37119
G1 X74.194 Y153.324 E5.37351
G1 X73.549 Y153.164 E5.39562
G1 X73.475 Y153.145 E5.39816
G1 X72.936 Y152.999 E5.41673
G1 X72.847 Y152.973 E5.41982
G1 X72.164 Y152.769 E5.44352
G1 X72.085 Y152.745 E5.44627
G1 X71.625 Y152.596 E5.46235
G1 X71.528 Y152.563 E5.46576
G1 X70.971 Y152.365 E5.48542
G1 X70.874 Y152.329 E5.48886
G1 X70.359 Y152.129 E5.50724
G1 X70.245 Y152.082 E5.51134
G1 X69.736 Y151.864 E5.52976
G1 X69.635 Y151.819 E5.53343
G1 X69.132 Y151.585 E5.55189
G1 X69.02 Y151.531 E5.55602
G1 X68.433 Y151.233 E5.57792
G1 X68.236 Y151.125 E5.58539
G1 X67.669 Y150.791 E5.60728
G1 X67.588 Y150.742 E5.61042
G1 X67.3 Y150.562 E5.62172
G1 X67.19 Y150.49 E5.62609
G1 X66.927 Y150.312 E5.63666
G1 X66.753 Y150.187 E5.64378
G1 X66.052 Y149.649 E5.67317
G1 X65.824 Y149.459 E5.68304
G1 X65.261 Y148.948 E5.70833
G1 X65.026 Y148.713 E5.71939
G1 X64.374 Y148.001 E5.7515
G1 X64.146 Y147.726 E5.76338
G1 X63.669 Y147.088 E5.78987
G1 X63.487 Y146.82 E5.80065
G1 X63.028 Y146.075 E5.82975
G1 X62.868 Y145.786 E5.84074
G1 X62.503 Y145.05 E5.86806
G1 X62.432 Y144.898 E5.87364
G1 X62.295 Y144.586 E5.88498
G1 X62.228 Y144.424 E5.89081
G1 X62.092 Y144.068 E5.90348
G1 X62.055 Y143.966 E5.90709
G1 X61.889 Y143.489 E5.92389
G1 X61.844 Y143.349 E5.92878
G1 X61.705 Y142.89 E5.94473
G1 X61.661 Y142.733 E5.95015
G1 X61.533 Y142.229 E5.96745
G1 X61.508 Y142.127 E5.97094
G1 X61.39 Y141.598 E5.98897
G1 X61.359 Y141.439 E5.99436
G1 X61.237 Y140.747 E6.01773
G1 X61.219 Y140.64 E6.02134
G1 X61.137 Y140.076 E6.04029
G1 X61.124 Y139.974 E6.04371
G1 X61.077 Y139.57 E6.05724
G1 X61.069 Y139.492 E6.05985
G1 X61.009 Y138.855 E6.08113
G1 X61.002 Y138.773 E6.08387
G1 X60.963 Y138.227 E6.10207
G1 X60.958 Y138.148 E6.10471
G1 X60.939 Y137.761 E6.11759
G1 X60.937 Y137.704 E6.11949
G1 X60.915 Y137.042 E6.14152
G1 X60.913 Y136.98 E6.14358
G1 X60.902 Y136.292 E6.16647
G1 X60.902 Y135.709 E6.18586
G1 X60.91 Y135.104 E6.20598
G1 X60.912 Y135.045 E6.20795
G1 X60.93 Y134.441 E6.22805
G1 X60.933 Y134.366 E6.23054
G1 X60.964 Y133.754 E6.25092
G1 X60.968 Y133.685 E6.25322
G1 X60.993 Y133.328 E6.26512
G1 X60.999 Y133.247 E6.26783
G1 X61.071 Y132.469 E6.29381
G1 X61.082 Y132.369 E6.29716
G1 X61.123 Y132.03 E6.30852
G1 X61.134 Y131.95 E6.3112
G1 X61.216 Y131.379 E6.33039
G1 X61.232 Y131.273 E6.33395
G1 X61.327 Y130.728 E6.35235
G1 X61.346 Y130.631 E6.35564
G1 X61.451 Y130.113 E6.37322
G1 X61.489 Y129.943 E6.37901
G1 X61.67 Y129.229 E6.40351
G1 X61.714 Y129.072 E6.40894
G1 X61.825 Y128.705 E6.42169
G1 X61.863 Y128.586 E6.42584
G1 X62.017 Y128.134 E6.44173
G1 X62.052 Y128.038 E6.44513
G1 X62.15 Y127.775 E6.45446
G1 X62.195 Y127.659 E6.4586
G1 X62.36 Y127.259 E6.47299
G1 X62.45 Y127.059 E6.48028
G1 X62.787 Y126.365 E6.50594
G1 X62.918 Y126.119 E6.51521
G1 X63.302 Y125.463 E6.5405
G1 X63.385 Y125.329 E6.54574
G1 X63.498 Y125.154 E6.55267
G1 X63.627 Y124.967 E6.56022
G1 X64.084 Y124.349 E6.58579
G1 X64.26 Y124.13 E6.59513
G1 X65.883 Y122.26 E6.67749
G1 X67.638 Y120.131 E6.76926
G1 X69.307 Y117.986 E6.85965
G1 X70.91 Y115.801 E6.94978
G1 X72.482 Y113.525 E7.04179
G1 X73.96 Y111.255 E7.13188
G1 X75.385 Y108.92 E7.22286
G1 X76.722 Y106.584 E7.31238
G1 X78.028 Y104.145 E7.4044
G1 X79.229 Y101.74 E7.49381
G1 X80.387 Y99.248 E7.58521
G1 X81.464 Y96.747 E7.67578
G1 X82.404 Y94.39 E7.76018
G1 X82.858 Y93.21 E7.80223
G1 X82.905 Y93.093 E7.80642
G1 X83.134 Y92.554 E7.8259
G1 X83.183 Y92.443 E7.82993
G1 X83.399 Y91.979 E7.84696
G1 X83.455 Y91.864 E7.85121
G1 X83.723 Y91.338 E7.87085
G1 X83.785 Y91.222 E7.87522
G1 X84.002 Y90.832 E7.89007
G1 X84.065 Y90.722 E7.89428
G1 X84.325 Y90.291 E7.91102
G1 X84.388 Y90.191 E7.91495
G1 X84.708 Y89.698 E7.9345
G1 X84.785 Y89.585 E7.93905
G1 X85.035 Y89.23 E7.95349
G1 X85.1 Y89.141 E7.95716
G1 X85.423 Y88.711 E7.97504
G1 X85.506 Y88.605 E7.97952
G1 X85.915 Y88.101 E8.00111
G1 X86.004 Y87.995 E8.00571
G1 X86.204 Y87.767 E8.0158
G1 X86.273 Y87.69 E8.01924
G1 X86.708 Y87.222 E8.04049
G1 X86.809 Y87.117 E8.04534
G0 F3600 X87.091 Y87.401
G1 F900 X87.474 Y87.021 E8.06328
G1 X87.54 Y86.958 E8.06632
G1 X87.888 Y86.632 E8.08218
G1 X87.983 Y86.546 E8.08644
G1 X88.367 Y86.214 E8.10332
G1 X88.444 Y86.15 E8.10665
G1 X88.852 Y85.819 E8.12413
G1 X88.947 Y85.745 E8.12813
G1 X89.408 Y85.399 E8.1473
G1 X89.5 Y85.332 E8.15109
G1 X89.803 Y85.121 E8.16337
G1 X89.889 Y85.063 E8.16682
G1 X90.488 Y84.674 E8.19057
G1 X90.595 Y84.608 E8.19476
G1 X90.953 Y84.395 E8.20861
G1 X91.037 Y84.346 E8.21185
G1 X91.477 Y84.102 E8.22858
G1 X91.577 Y84.049 E8.23234
G1 X92.072 Y83.797 E8.25082
G1 X92.179 Y83.745 E8.25478
G1 X92.639 Y83.532 E8.27164
G1 X92.737 Y83.489 E8.2752
G1 X93.141 Y83.318 E8.28979
G1 X93.246 Y83.276 E8.29355
G1 X93.919 Y83.019 E8.31751
G1 X94.022 Y82.981 E8.32116
G1 X94.287 Y82.89 E8.33048
G1 X94.392 Y82.856 E8.33415
G1 X95.054 Y82.654 E8.35717
G1 X95.169 Y82.622 E8.36114
G1 X95.588 Y82.511 E8.37556
G1 X95.691 Y82.485 E8.37909
G1 X96.227 Y82.362 E8.39738
G1 X96.329 Y82.341 E8.40084
G1 X96.876 Y82.234 E8.41938
G1 X97.008 Y82.211 E8.42384
G1 X97.395 Y82.152 E8.43686
G1 X97.491 Y82.138 E8.44009
G1 X98.15 Y82.058 E8.46217
G1 X98.265 Y82.047 E8.46601
G1 X98.712 Y82.009 E8.48093
G1 X98.821 Y82.001 E8.48456
G1 X99.374 Y81.973 E8.50298
G1 X99.482 Y81.969 E8.50658
G1 X99.896 Y81.962 E8.52035
G1 X100.011 Y81.963 E8.52417
G1 X100.592 Y81.974 E8.5435
G1 X100.706 Y81.978 E8.54729
G1 X101.309 Y82.011 E8.56738
G1 X101.417 Y82.019 E8.57098
G1 X101.822 Y82.055 E8.5845
G1 X101.938 Y82.067 E8.58838
G1 X102.471 Y82.134 E8.60625
G1 X102.576 Y82.149 E8.60978
G1 X103.103 Y82.233 E8.62753
G1 X103.215 Y82.253 E8.63131
G1 X103.796 Y82.367 E8.651
G1 X103.911 Y82.392 E8.65492
G1 X104.299 Y82.483 E8.66817
G1 X104.401 Y82.508 E8.67167
G1 X104.965 Y82.66 E8.69109
G1 X105.072 Y82.691 E8.6948
G1 X105.534 Y82.833 E8.71088
G1 X105.644 Y82.869 E8.71473
G1 X106.211 Y83.066 E8.73469
G1 X106.313 Y83.103 E8.7383
G1 X106.65 Y83.233 E8.75031
G1 X106.76 Y83.279 E8.75428
G1 X107.347 Y83.531 E8.77552
G1 X107.438 Y83.571 E8.77883
G1 X107.918 Y83.795 E8.79645
G1 X108.023 Y83.846 E8.80033
G1 X108.447 Y84.063 E8.81617
G1 X108.551 Y84.119 E8.8201
G1 X108.946 Y84.34 E8.83516
G1 X109.037 Y84.393 E8.83866
G1 X109.614 Y84.741 E8.86107
G1 X109.711 Y84.802 E8.86488
G1 X110.063 Y85.032 E8.87887
G1 X110.152 Y85.092 E8.88244
G1 X110.592 Y85.401 E8.90032
G1 X110.688 Y85.471 E8.90427
G1 X111.07 Y85.761 E8.92022
G1 X111.152 Y85.825 E8.92368
G1 X111.614 Y86.2 E8.94347
G1 X111.706 Y86.278 E8.94748
G1 X112.053 Y86.582 E8.96283
G1 X112.125 Y86.648 E8.96608
G1 X112.476 Y86.975 E8.98203
G1 X112.57 Y87.065 E8.98636
G1 X113.043 Y87.543 E9.00873
G1 X113.112 Y87.615 E9.01204
G1 X113.349 Y87.87 E9.02362
G1 X113.426 Y87.956 E9.02746
G1 X113.815 Y88.406 E9.04725
G1 X113.885 Y88.49 E9.05088
