;FLAVOR:Marlin
;TIME:4971
;Filament used: 2.17688m
;Layer height: 0.12
;MINX:85.4
;MINY:74.688
;MINZ:0.2
;MAXX:114.58
;MAXY:125.312
;MAXZ:17
;Generated with Cura_SteamEngine 4.7.1
M140 S60
M105
M190 S60
M104 S200
M105
M109 S200
M82 ;absolute extrusion mode
G21 ;metric values
 G90 ;absolute positioning
 M82 ;set extruder to absolute mode
 M107 ;start with the fan off
 G28 X0 Y0 ;move X/Y to min endstops
 G28 Z0 ;move Z to min endstops
 G1 Z15.0 F120 ;move the platform down 15mm
 G92 E0 ;zero the extruded length
 G1 F200 E6 ;extrude 6 mm of feed stock
 G92 E0 ;zero the extruded length again
 G1 F120 
 ;Put printing message on LCD screen
 M117 Printing...
G92 E0
G92 E0
G1 F2400 E-2.5
;LAYER_COUNT:141
;LAYER:0
M107
G0 F3600 X87.124 Y77.271 Z0.2
;TYPE:SKIRT
G1 F2400 E0
G1 F900 X87.512 Y76.867 E0.01863
G1 X87.873 Y76.516 E0.03538
G1 X88.331 Y76.14 E0.05509
G1 X88.802 Y75.83 E0.07384
G1 X89.211 Y75.582 E0.08975
G1 X89.733 Y75.321 E0.10916
G1 X90.211 Y75.142 E0.12614
G1 X90.701 Y74.977 E0.14333
G1 X91.195 Y74.85 E0.1603
G1 X91.769 Y74.769 E0.17958
G1 X92.317 Y74.714 E0.1979
G1 X92.622 Y74.697 E0.20806
G1 X93.313 Y74.688 E0.23104
G1 X103.816 Y74.688 E0.58037
G1 X104.514 Y74.698 E0.60359
G1 X105.228 Y74.753 E0.62741
G1 X105.8 Y74.825 E0.64658
G1 X106.49 Y74.982 E0.67012
G1 X107.016 Y75.16 E0.68859
G1 X107.411 Y75.304 E0.70257
G1 X107.977 Y75.568 E0.72335
G1 X108.474 Y75.87 E0.74269
G1 X108.879 Y76.131 E0.75871
G1 X109.431 Y76.569 E0.78215
G1 X109.814 Y76.941 E0.79991
G1 X110.138 Y77.275 E0.81539
G1 X110.493 Y77.702 E0.83385
G1 X110.793 Y78.157 E0.85198
G1 X111.099 Y78.658 E0.87151
G1 X111.403 Y79.287 E0.89474
G1 X111.595 Y79.814 E0.9134
G1 X111.736 Y80.239 E0.92829
G1 X111.875 Y80.812 E0.9479
G1 X111.949 Y81.376 E0.96682
G1 X112.001 Y81.916 E0.98487
G1 X112.018 Y82.21 E0.99466
G1 X112.028 Y82.911 E1.01798
G1 X112.028 Y98.798 E1.54638
G1 X112.067 Y101.579 E1.63889
G1 X112.183 Y104.308 E1.72974
G1 X112.377 Y107.037 E1.82073
G1 X112.642 Y109.712 E1.91014
G1 X112.992 Y112.452 E2.00201
G1 X113.413 Y115.129 E2.09214
G1 X113.91 Y117.802 E2.18257
G1 X114.398 Y120.095 E2.26054
G1 X114.528 Y120.781 E2.28377
G1 X114.58 Y121.473 E2.30685
G1 X114.571 Y122.009 E2.32468
G1 X114.483 Y122.538 E2.34251
G1 X114.317 Y123.048 E2.36035
G1 X114.077 Y123.528 E2.3782
G1 X113.769 Y123.967 E2.39604
G1 X113.399 Y124.355 E2.41387
G1 X112.975 Y124.684 E2.43172
G1 X112.507 Y124.946 E2.44956
G1 X112.006 Y125.136 E2.46738
G1 X111.462 Y125.251 E2.48587
G1 X110.978 Y125.292 E2.50203
G1 X109.897 Y125.312 E2.53799
G1 X89.655 Y125.312 E3.21124
G1 X88.957 Y125.302 E3.23446
G1 X88.423 Y125.254 E3.25229
G1 X87.902 Y125.128 E3.27012
G1 X87.405 Y124.925 E3.28798
G1 X86.944 Y124.651 E3.30581
G1 X86.529 Y124.312 E3.32364
G1 X86.169 Y123.914 E3.34149
G1 X85.872 Y123.468 E3.35931
G1 X85.644 Y122.982 E3.37716
G1 X85.492 Y122.468 E3.39499
G1 X85.41 Y121.794 E3.41757
G1 X85.4 Y121.349 E3.43238
G1 X85.401 Y82.597 E4.72127
G1 X85.411 Y81.89 E4.74479
G1 X85.464 Y81.222 E4.76708
G1 X85.532 Y80.673 E4.78548
G1 X85.69 Y79.982 E4.80905
G1 X85.994 Y79.12 E4.83945
G1 X86.3 Y78.486 E4.86287
G1 X86.567 Y78.051 E4.87985
G1 X86.786 Y77.713 E4.89324
G1 X87.124 Y77.271 E4.91175
G0 F3600 X87.439 Y77.518
G1 F900 X87.798 Y77.147 E4.92892
G1 X88.151 Y76.803 E4.94531
G1 X88.558 Y76.469 E4.96282
G1 X89.01 Y76.172 E4.98081
G1 X89.419 Y75.924 E4.99672
G1 X89.882 Y75.692 E5.01395
G1 X90.419 Y75.494 E5.03298
G1 X91.267 Y75.243 E5.0624
G1 X91.818 Y75.166 E5.0809
G1 X92.356 Y75.112 E5.09888
G1 X92.627 Y75.097 E5.10791
G1 X93.318 Y75.088 E5.1309
G1 X103.81 Y75.088 E5.47986
G1 X104.508 Y75.098 E5.50308
G1 X105.188 Y75.151 E5.52577
G1 X105.75 Y75.221 E5.5446
G1 X106.363 Y75.362 E5.56552
G1 X106.879 Y75.536 E5.58363
G1 X107.274 Y75.68 E5.59762
G1 X107.777 Y75.914 E5.61607
G1 X108.257 Y76.206 E5.63476
G1 X108.662 Y76.467 E5.65078
G1 X109.153 Y76.856 E5.67162
G1 X109.527 Y77.22 E5.68897
G1 X110.166 Y77.933 E5.72082
G1 X110.457 Y78.374 E5.73839
G1 X110.758 Y78.866 E5.75758
G1 X111.028 Y79.425 E5.77822
G1 X111.215 Y79.94 E5.79645
G1 X111.356 Y80.365 E5.81134
G1 X111.48 Y80.874 E5.82876
G1 X111.551 Y81.414 E5.84688
G1 X111.603 Y81.954 E5.86492
G1 X111.618 Y82.215 E5.87362
G1 X111.628 Y82.916 E5.89694
G1 X111.628 Y98.804 E6.42537
G1 X111.668 Y101.602 E6.51844
G1 X111.783 Y104.319 E6.60889
G1 X111.978 Y107.065 E6.70046
G1 X112.246 Y109.769 E6.79083
G1 X112.594 Y112.493 E6.88217
G1 X113.019 Y115.193 E6.97308
G1 X113.518 Y117.88 E7.06397
G1 X114.008 Y120.182 E7.14225
G1 X114.131 Y120.824 E7.164
G1 X114.181 Y121.497 E7.18644
G1 X114.17 Y122.002 E7.20324
G1 X114.08 Y122.5 E7.22007
G1 X113.913 Y122.977 E7.23688
G1 X113.673 Y123.421 E7.25367
G1 X113.365 Y123.823 E7.27051
G1 X112.999 Y124.171 E7.28731
G1 X112.582 Y124.457 E7.30413
G1 X112.125 Y124.674 E7.32096
G1 X111.409 Y124.855 E7.34552
G1 X110.971 Y124.892 E7.36014
G1 X109.897 Y124.912 E7.39587
G1 X89.661 Y124.912 E8.06892
G1 X88.963 Y124.902 E8.09214
G1 X88.46 Y124.855 E8.10894
G1 X87.97 Y124.729 E8.12577
G1 X87.506 Y124.527 E8.1426
G1 X87.08 Y124.255 E8.15941
G1 X86.702 Y123.92 E8.17621
G1 X86.382 Y123.529 E8.19301
G1 X86.127 Y123.092 E8.20984
G1 X85.944 Y122.621 E8.22665
G1 X85.837 Y122.127 E8.24346
G1 X85.801 Y121.431 E8.26664
G1 X85.801 Y82.603 E9.55806
G1 X85.811 Y81.896 E9.58158
G1 X85.862 Y81.261 E9.60277
G1 X85.928 Y80.724 E9.62076
G1 X86.069 Y80.11 E9.64172
G1 X86.37 Y79.258 E9.67177
G1 X86.642 Y78.694 E9.6926
G1 X87.121 Y77.931 E9.72256
G1 X87.439 Y77.518 E9.7399
G1 F2400 E7.2399
;MESH:desk_light_clip.stl
G0 F3600 X88.342 Y81.854
G0 X89.42 Y81.974
G0 X91.494 Y103.502
;TYPE:WALL-INNER
G1 F2400 E9.7399
G1 F900 X91.808 Y103.885 E9.75637
G1 X92.219 Y104.086 E9.77159
G1 X92.466 Y104.113 E9.77985
G1 X105.493 Y104.113 E10.21313
G1 X105.702 Y104.138 E10.22013
G1 X105.878 Y104.199 E10.22633
G1 X106.023 Y104.29 E10.23202
G1 X106.151 Y104.418 E10.23804
G1 X106.242 Y104.563 E10.24374
G1 X106.3 Y104.729 E10.24959
G1 X106.328 Y105.107 E10.26219
G1 X106.327 Y113.474 E10.54048
G1 X106.254 Y114.826 E10.58551
G1 X106.396 Y115.922 E10.62227
G1 X106.664 Y116.626 E10.64733
G1 X107.018 Y117.151 E10.66839
G1 X107.436 Y117.568 E10.68802
G1 X108.715 Y118.571 E10.74208
G1 X109.459 Y119.333 E10.77751
G1 X109.982 Y120.113 E10.80874
G1 X110.242 Y120.759 E10.8319
G1 X110.282 Y120.859 E10.83548
G1 X110.334 Y121.112 E10.84407
G1 X110.282 Y121.112
G1 X110.174 Y121.112 E10.84712
G1 X89.8 Y121.112 E11.52476
G1 X89.6 Y121.112 E11.53142
G1 X89.6 Y120.912 E11.53572
G1 X89.601 Y81.982 E12.83054
G1 X89.681 Y81.267 E12.85447
G1 X89.907 Y80.622 E12.8772
G1 X90.275 Y80.037 E12.90019
G1 X90.756 Y79.558 E12.92277
G1 X91.337 Y79.194 E12.94557
G1 X91.984 Y78.968 E12.96836
G1 X92.699 Y78.888 E12.99229
G1 X104.432 Y78.888 E13.38253
G1 X105.215 Y78.974 E13.40873
G1 X105.926 Y79.224 E13.4338
G1 X106.559 Y79.621 E13.45865
G1 X107.092 Y80.155 E13.48375
G1 X107.491 Y80.79 E13.50869
G1 X107.741 Y81.507 E13.53395
G1 X107.828 Y82.276 E13.55969
G1 X107.828 Y103.004 E14.2491
G1 X107.828 Y103.006 E14.24917
G1 X107.828 Y103.486 E14.26513
G1 X107.488 Y103.146 E14.27374
G1 X106.172 Y101.83 E14.33564
G1 X106.064 Y101.669 E14.34209
G1 X106.028 Y101.486 E14.34829
G1 X106.028 Y83.479 E14.94721
G1 X105.959 Y82.881 E14.96723
G1 X105.748 Y82.284 E14.98829
G1 X105.412 Y81.749 E15.0093
G1 X104.963 Y81.299 E15.03044
G1 X104.424 Y80.963 E15.05157
G1 X103.824 Y80.754 E15.0727
G1 X103.175 Y80.688 E15.0944
G1 X93.856 Y80.688 E15.40435
G1 X93.335 Y80.749 E15.42179
G1 X92.808 Y80.933 E15.44036
G1 X92.334 Y81.231 E15.45898
G1 X91.939 Y81.628 E15.47761
G1 X91.643 Y82.101 E15.49617
G1 X91.456 Y82.635 E15.51499
G1 X91.4 Y83.272 E15.53625
G1 X91.4 Y103.08 E16.19507
G1 X91.494 Y103.502 E16.20945
G0 F3600 X91.69 Y114.501
G1 F900 X91.434 Y115.038 E16.22924
G1 X91.4 Y115.364 E16.24014
G1 X91.4 Y118.02 E16.32848
G1 X91.522 Y118.549 E16.34653
G1 X91.903 Y119.028 E16.36689
G1 X92.425 Y119.278 E16.38614
G1 X92.741 Y119.312 E16.39671
G1 X94.72 Y119.312 E16.46253
G1 X95.194 Y119.203 E16.47871
G1 X95.626 Y118.857 E16.49712
G1 X95.85 Y118.387 E16.51444
G1 X95.88 Y118.097 E16.52413
G1 X95.88 Y115.258 E16.61856
G1 X95.761 Y114.737 E16.63633
G1 X95.384 Y114.264 E16.65645
G1 X94.871 Y114.019 E16.67536
G1 X94.562 Y113.985 E16.6857
G1 X92.724 Y113.985 E16.74683
G1 X92.182 Y114.111 E16.76534
G1 X91.69 Y114.501 E16.78622
G0 F3600 X92.011 Y114.757
;TYPE:WALL-OUTER
G1 F900 X91.825 Y115.148 E16.80062
G1 X91.8 Y115.385 E16.80855
G1 X91.8 Y117.975 E16.89469
G1 X91.891 Y118.371 E16.90821
G1 X92.159 Y118.707 E16.9225
G1 X92.536 Y118.888 E16.93641
G1 X92.762 Y118.912 E16.94397
G1 X94.675 Y118.912 E17.0076
G1 X95.015 Y118.834 E17.0192
G1 X95.304 Y118.602 E17.03152
G1 X95.459 Y118.277 E17.0435
G1 X95.48 Y118.076 E17.05022
G1 X95.48 Y115.303 E17.14245
G1 X95.391 Y114.915 E17.15569
G1 X95.128 Y114.585 E17.16973
G1 X94.76 Y114.409 E17.1833
G1 X94.54 Y114.385 E17.19066
G1 X92.77 Y114.385 E17.24953
G1 X92.36 Y114.48 E17.26352
G1 X92.011 Y114.757 E17.27834
G0 F3600 X91.925 Y114.938
G0 X91.655 Y114.808
G0 X91.631 Y103.511
G0 X91.864 Y103.322
G1 F900 X92.062 Y103.564 E17.28874
G1 X92.332 Y103.696 E17.29874
G1 X92.488 Y103.713 E17.30396
G1 X105.514 Y103.713 E17.73721
G1 X105.795 Y103.746 E17.74662
G1 X106.05 Y103.835 E17.7556
G1 X106.275 Y103.976 E17.76443
G1 X106.465 Y104.166 E17.77337
G1 X106.606 Y104.391 E17.7822
G1 X106.695 Y104.646 E17.79118
G1 X106.728 Y105.091 E17.80602
G1 X106.727 Y113.474 E18.08484
G1 X106.655 Y114.811 E18.12938
G1 X106.787 Y115.824 E18.16335
G1 X107.021 Y116.441 E18.1853
G1 X107.328 Y116.895 E18.20353
G1 X107.702 Y117.268 E18.2211
G1 X108.978 Y118.269 E18.27504
G1 X109.772 Y119.082 E18.31284
G1 X110.337 Y119.924 E18.34656
G1 X110.667 Y120.745 E18.37599
G1 X110.751 Y121.148 E18.38968
G1 X110.761 Y121.198 E18.39138
G1 X110.783 Y121.512 E18.40185
G1 X110.761 Y121.512
G1 X110.709 Y121.512 E18.40344
G1 X89.4 Y121.512 E19.11218
G1 X89.2 Y121.512 E19.11883
G1 X89.2 Y121.312 E19.12314
G1 X89.201 Y81.956 E20.43212
G1 X89.288 Y81.178 E20.45816
G1 X89.544 Y80.447 E20.48392
G1 X89.958 Y79.789 E20.50978
G1 X90.507 Y79.242 E20.53555
G1 X91.165 Y78.83 E20.56138
G1 X91.895 Y78.575 E20.58709
G1 X92.672 Y78.488 E20.6131
G1 X104.458 Y78.488 E21.0051
G1 X105.3 Y78.581 E21.03328
G1 X106.104 Y78.863 E21.06162
G1 X106.81 Y79.306 E21.08934
G1 X107.407 Y79.904 E21.11744
G1 X107.854 Y80.615 E21.14538
G1 X108.133 Y81.414 E21.17352
G1 X108.228 Y82.258 E21.20177
G1 X108.228 Y103.862 E21.92032
G1 X108.228 Y103.891 E21.92129
G1 X108.204 Y103.989 E21.92465
G1 X108.199 Y104.011 E21.9254
G1 X108.133 Y104.088 E21.92877
G1 X108.037 Y104.128 E21.93223
G1 X107.94 Y104.12 E21.93546
G1 X107.916 Y104.105 E21.93641
G1 X107.827 Y104.051 E21.93987
G1 X107.811 Y104.035 E21.94062
G1 X105.861 Y102.085 E22.03234
G1 X105.688 Y101.826 E22.0427
G1 X105.628 Y101.522 E22.05301
G1 X105.628 Y83.502 E22.65236
G1 X105.567 Y82.972 E22.6701
G1 X105.386 Y82.459 E22.68819
G1 X105.097 Y82 E22.70623
G1 X104.712 Y81.614 E22.72437
G1 X104.25 Y81.326 E22.74247
G1 X103.737 Y81.147 E22.76055
G1 X103.155 Y81.088 E22.78
G1 X93.879 Y81.088 E23.08852
G1 X93.425 Y81.141 E23.10373
G1 X92.983 Y81.296 E23.1193
G1 X92.585 Y81.546 E23.13494
G1 X92.254 Y81.878 E23.15053
G1 X92.006 Y82.275 E23.1661
G1 X91.85 Y82.72 E23.18178
G1 X91.8 Y83.29 E23.20081
G1 X91.8 Y103.036 E23.85757
G1 X91.864 Y103.322 E23.86732
G0 F3600 X91.99 Y103.477
G0 X91.56 Y104.199
;TYPE:SKIN
G1 F900 X92.109 Y104.466 E23.88762
G1 X92.445 Y104.503 E23.89886
G1 X105.462 Y104.503 E24.33181
G1 X105.616 Y104.522 E24.33697
G1 X105.712 Y104.554 E24.34034
G1 X105.781 Y104.598 E24.34306
G1 X105.843 Y104.66 E24.34598
G1 X105.887 Y104.731 E24.34875
G1 X105.916 Y104.812 E24.35162
G1 X105.938 Y105.107 E24.36145
G1 X105.937 Y113.453 E24.63904
G1 X105.862 Y114.841 E24.68528
G1 X106.015 Y116.018 E24.72475
G1 X106.315 Y116.807 E24.75283
G1 X106.716 Y117.401 E24.77666
G1 X107.177 Y117.861 E24.79833
G1 X108.451 Y118.859 E24.85215
G1 X109.157 Y119.581 E24.88574
G1 X109.634 Y120.294 E24.91427
G1 X109.806 Y120.722 E24.92961
G1 X89.99 Y120.722 E25.5887
G1 X89.991 Y82.007 E26.87636
G1 X90.064 Y81.353 E26.89825
G1 X90.262 Y80.791 E26.91807
G1 X90.579 Y80.285 E26.93793
G1 X91.003 Y79.863 E26.95782
G1 X91.505 Y79.549 E26.97752
G1 X92.07 Y79.351 E26.99743
G1 X92.724 Y79.278 E27.01932
G1 X104.407 Y79.278 E27.40789
G1 X105.129 Y79.358 E27.43206
G1 X105.758 Y79.579 E27.45423
G1 X106.314 Y79.927 E27.47605
G1 X106.785 Y80.399 E27.49822
G1 X107.136 Y80.958 E27.52018
G1 X107.358 Y81.593 E27.54255
G1 X107.438 Y82.301 E27.56625
G1 X107.438 Y102.546 E28.2396
G1 X106.478 Y101.586 E28.28476
G1 X106.432 Y101.517 E28.28751
G1 X106.418 Y101.447 E28.28989
G1 X106.418 Y83.456 E28.88827
G1 X106.341 Y82.793 E28.91047
G1 X106.101 Y82.113 E28.93446
G1 X105.719 Y81.505 E28.95834
G1 X105.207 Y80.991 E28.98247
G1 X104.594 Y80.609 E29.00649
G1 X103.909 Y80.37 E29.03062
G1 X103.195 Y80.298 E29.05449
G1 X93.833 Y80.298 E29.36587
G1 X93.247 Y80.367 E29.3855
G1 X92.638 Y80.58 E29.40695
G1 X92.089 Y80.925 E29.42852
G1 X91.631 Y81.384 E29.45009
G1 X91.29 Y81.931 E29.47153
G1 X91.072 Y82.553 E29.49345
G1 X91.01 Y83.255 E29.51689
G1 X91.01 Y103.123 E30.1777
G1 X91.133 Y103.677 E30.19657
G1 X91.56 Y104.199 E30.219
G0 F3600 X92.679 Y113.595
G1 F900 X92.008 Y113.751 E30.24192
G1 X91.376 Y114.252 E30.26874
G1 X91.053 Y114.931 E30.29375
G1 X91.01 Y115.344 E30.30756
G1 X91.01 Y118.065 E30.39806
G1 X91.161 Y118.723 E30.42052
G1 X91.654 Y119.342 E30.44684
G1 X92.317 Y119.658 E30.47126
G1 X92.72 Y119.702 E30.48475
G1 X94.765 Y119.702 E30.55276
G1 X95.368 Y119.563 E30.57335
G1 X95.94 Y119.105 E30.59772
G1 X96.231 Y118.494 E30.62023
G1 X96.27 Y118.117 E30.63283
G1 X96.27 Y115.214 E30.72939
G1 X96.122 Y114.564 E30.75156
G1 X95.633 Y113.95 E30.77767
G1 X94.98 Y113.639 E30.80172
G1 X94.583 Y113.595 E30.81501
G1 X92.679 Y113.595 E30.87834
G0 F3600 X91.82 Y114.604
G0 X90.559 Y120.541
G1 F900 X90.169 Y120.15 E30.8967
G0 F3600 X90.169 Y119.585
G1 F900 X91.125 Y120.541 E30.94167
G0 F3600 X91.691 Y120.541
G1 F900 X90.169 Y119.019 E31.01326
G0 F3600 X90.169 Y118.453
G1 F900 X92.256 Y120.541 E31.11145
G0 F3600 X92.822 Y120.541
G1 F900 X91.974 Y119.693 E31.15134
G0 F3600 X92.728 Y119.881
G1 F900 X93.388 Y120.541 E31.18238
G0 F3600 X93.953 Y120.541
G1 F900 X93.294 Y119.881 E31.2134
G0 F3600 X93.859 Y119.881
G1 F900 X94.519 Y120.541 E31.24445
G0 F3600 X95.085 Y120.541
G1 F900 X94.425 Y119.881 E31.27549
G0 F3600 X94.953 Y119.843
G1 F900 X95.651 Y120.541 E31.30832
G0 F3600 X96.216 Y120.541
G1 F900 X95.414 Y119.738 E31.34607
G0 F3600 X95.738 Y119.496
G1 F900 X96.782 Y120.541 E31.3952
G0 F3600 X97.348 Y120.541
G1 F900 X96.051 Y119.245 E31.45618
G0 F3600 X96.247 Y118.874
G1 F900 X97.913 Y120.541 E31.53457
G0 F3600 X98.479 Y120.541
G1 F900 X96.412 Y118.474 E31.6318
G0 F3600 X96.45 Y117.946
G1 F900 X99.045 Y120.541 E31.75386
G0 F3600 X99.61 Y120.541
G1 F900 X96.45 Y117.38 E31.90252
G0 F3600 X96.45 Y116.814
G1 F900 X100.176 Y120.541 E32.0778
G0 F3600 X100.742 Y120.541
G1 F900 X96.45 Y116.249 E32.27968
G0 F3600 X96.45 Y115.683
G1 F900 X101.307 Y120.541 E32.50817
G0 F3600 X101.873 Y120.541
G1 F900 X96.426 Y115.094 E32.76438
G1 X96.356 Y115.024
G0 F3600 X95.926 Y114.028
G1 F900 X102.439 Y120.541 E33.07073
G0 F3600 X103.004 Y120.541
G1 F900 X90.169 Y107.705 E33.67447
G0 F3600 X90.169 Y107.14
G1 F900 X103.57 Y120.541 E34.30481
G0 F3600 X104.136 Y120.541
G1 F900 X90.169 Y106.574 E34.96178
G0 F3600 X90.169 Y106.008
G1 F900 X104.702 Y120.541 E35.64536
G0 F3600 X105.267 Y120.541
G1 F900 X90.169 Y105.443 E36.35553
G0 F3600 X90.169 Y104.877
G1 F900 X105.833 Y120.541 E37.09231
G0 F3600 X106.399 Y120.541
G1 F900 X90.169 Y104.311 E37.85572
G0 F3600 X90.169 Y103.745
G1 F900 X106.964 Y120.541 E38.64573
G0 F3600 X107.53 Y120.541
G1 F900 X90.169 Y103.18 E39.46234
G0 F3600 X90.169 Y102.614
G1 F900 X90.868 Y103.313 E39.49522
G0 F3600 X90.829 Y102.709
G1 F900 X90.169 Y102.048 E39.52629
G0 F3600 X90.169 Y101.483
G1 F900 X90.829 Y102.143 E39.55733
G0 F3600 X90.829 Y101.578
G1 F900 X90.169 Y100.917 E39.5884
G0 F3600 X90.169 Y100.351
G1 F900 X90.829 Y101.012 E39.61947
G0 F3600 X90.829 Y100.446
G1 F900 X90.169 Y99.786 E39.65051
