;FLAVOR:Marlin
;TIME:924
;Filament used: 0.607643m
;Layer height: 0.16
;MINX:85.637
;MINY:85.637
;MINZ:0.2
;MAXX:114.364
;MAXY:114.364
;MAXZ:8.36
;Generated with Cura_SteamEngine 4.7.1
M140 S60
M105
M190 S60
M104 S200
M105
M109 S200
M82 ;absolute extrusion mode
G21 ;metric values
 G90 ;absolute positioning
 M82 ;set extruder to absolute mode
 M107 ;start with the fan off
 G28 X0 Y0 ;move X/Y to min endstops
 G28 Z0 ;move Z to min endstops
 G1 Z15.0 F120 ;move the platform down 15mm
 G92 E0 ;zero the extruded length
 G1 F200 E6 ;extrude 6 mm of feed stock
 G92 E0 ;zero the extruded length again
 G1 F120 
 ;Put printing message on LCD screen
 M117 Printing...
G92 E0
G92 E0
G1 F2400 E-2.5
;LAYER_COUNT:53
;LAYER:0
M107
G0 F3600 X89.732 Y89.956 Z0.2
;TYPE:SKIRT
G1 F2400 E0
G1 F1200 X90.106 Y89.588 E0.01745
G1 X90.351 Y89.365 E0.02847
G1 X90.78 Y88.986 E0.04751
G1 X91.193 Y88.654 E0.06513
G1 X91.377 Y88.516 E0.07278
G1 X91.916 Y88.127 E0.09489
G1 X92.347 Y87.846 E0.112
G1 X92.599 Y87.695 E0.12178
G1 X93.094 Y87.406 E0.14084
G1 X93.556 Y87.165 E0.15817
G1 X93.85 Y87.024 E0.16902
G1 X94.395 Y86.776 E0.18893
G1 X95.096 Y86.504 E0.21394
G1 X95.694 Y86.297 E0.23499
G1 X96.215 Y86.143 E0.25306
G1 X96.381 Y86.101 E0.25875
G1 X96.903 Y85.979 E0.27658
G1 X97.145 Y85.93 E0.28479
G1 X98.03 Y85.78 E0.31465
G1 X98.516 Y85.72 E0.33094
G1 X99.449 Y85.654 E0.36205
G1 X100.084 Y85.637 E0.38317
G1 X100.565 Y85.65 E0.39918
G1 X101.272 Y85.694 E0.42274
G1 X101.789 Y85.749 E0.44003
G1 X102.044 Y85.786 E0.4486
G1 X102.668 Y85.887 E0.46963
G1 X103.198 Y85.997 E0.48763
G1 X103.358 Y86.036 E0.49311
G1 X104.037 Y86.215 E0.51646
G1 X104.592 Y86.392 E0.53584
G1 X104.803 Y86.467 E0.54329
G1 X105.383 Y86.684 E0.56388
G1 X106.069 Y86.987 E0.58882
G1 X106.641 Y87.265 E0.60998
G1 X107.341 Y87.659 E0.63669
G1 X107.859 Y87.977 E0.65691
G1 X108.383 Y88.339 E0.67809
G1 X108.479 Y88.41 E0.68206
G1 X108.981 Y88.791 E0.70303
G1 X109.386 Y89.129 E0.72057
G1 X109.636 Y89.354 E0.73176
G1 X110.044 Y89.732 E0.75026
G1 X110.41 Y90.104 E0.76761
G1 X110.632 Y90.348 E0.77859
G1 X111.002 Y90.766 E0.79715
G1 X111.339 Y91.184 E0.81501
G1 X111.481 Y91.373 E0.82287
G1 X111.871 Y91.914 E0.84506
G1 X112.151 Y92.342 E0.86207
G1 X112.308 Y92.604 E0.87223
G1 X112.596 Y93.099 E0.89127
G1 X112.94 Y93.774 E0.91647
G1 X113.219 Y94.384 E0.93878
G1 X113.496 Y95.097 E0.96422
G1 X113.698 Y95.677 E0.98465
G1 X113.846 Y96.175 E1.00193
G1 X113.89 Y96.344 E1.00774
G1 X114.017 Y96.881 E1.02609
G1 X114.067 Y97.131 E1.03457
G1 X114.217 Y98.012 E1.06429
G1 X114.28 Y98.514 E1.08112
G1 X114.346 Y99.449 E1.1123
G1 X114.364 Y100.099 E1.13392
G1 X114.351 Y100.556 E1.14913
G1 X114.308 Y101.261 E1.17262
G1 X114.253 Y101.765 E1.18949
G1 X114.214 Y102.043 E1.19882
G1 X114.114 Y102.662 E1.21968
G1 X114.003 Y103.196 E1.23782
G1 X113.962 Y103.365 E1.2436
G1 X113.783 Y104.039 E1.2668
G1 X113.606 Y104.599 E1.28633
G1 X113.536 Y104.795 E1.29325
G1 X113.34 Y105.323 E1.31198
G1 X113.135 Y105.807 E1.32947
G1 X113.002 Y106.092 E1.33993
G1 X112.736 Y106.639 E1.36016
G1 X112.333 Y107.353 E1.38743
G1 X112.027 Y107.854 E1.40695
G1 X111.728 Y108.292 E1.42459
G1 X111.571 Y108.504 E1.43337
G1 X111.209 Y108.981 E1.45328
G1 X110.871 Y109.386 E1.47083
G1 X110.646 Y109.636 E1.48201
G1 X110.268 Y110.044 E1.50051
G1 X109.896 Y110.411 E1.51789
G1 X109.663 Y110.623 E1.52837
G1 X109.235 Y111.002 E1.54739
G1 X108.808 Y111.346 E1.56562
G1 X108.628 Y111.479 E1.57307
G1 X108.084 Y111.871 E1.59537
G1 X107.663 Y112.148 E1.61213
G1 X107.403 Y112.304 E1.62221
G1 X106.899 Y112.597 E1.6416
G1 X106.444 Y112.835 E1.65868
G1 X106.152 Y112.975 E1.66945
G1 X105.619 Y113.218 E1.68894
G1 X104.904 Y113.496 E1.71445
G1 X104.31 Y113.702 E1.73536
G1 X103.787 Y113.856 E1.7535
G1 X103.619 Y113.899 E1.75926
G1 X103.097 Y114.021 E1.77709
G1 X102.855 Y114.07 E1.78531
G1 X101.97 Y114.22 E1.81516
G1 X101.484 Y114.28 E1.83145
G1 X100.551 Y114.346 E1.86256
G1 X99.901 Y114.364 E1.88419
G1 X99.436 Y114.35 E1.89966
G1 X98.728 Y114.306 E1.92325
G1 X98.211 Y114.251 E1.94054
G1 X97.956 Y114.214 E1.94911
G1 X97.332 Y114.113 E1.97014
G1 X96.802 Y114.003 E1.98814
G1 X96.634 Y113.962 E1.99389
G1 X95.957 Y113.782 E2.01719
G1 X95.401 Y113.606 E2.03659
G1 X95.197 Y113.533 E2.0438
G1 X94.616 Y113.316 E2.06443
G1 X93.915 Y113.005 E2.08993
G1 X93.357 Y112.734 E2.11056
G1 X92.649 Y112.335 E2.13759
G1 X92.143 Y112.024 E2.15735
G1 X91.702 Y111.723 E2.17511
G1 X91.498 Y111.573 E2.18353
G1 X91.019 Y111.21 E2.20352
G1 X90.611 Y110.869 E2.2212
G1 X90.361 Y110.644 E2.23239
G1 X89.955 Y110.268 E2.2508
G1 X89.589 Y109.895 E2.26818
G1 X89.351 Y109.633 E2.27995
G1 X88.986 Y109.219 E2.29831
G1 X88.651 Y108.803 E2.31607
G1 X88.512 Y108.616 E2.32382
G1 X88.128 Y108.084 E2.34564
G1 X87.849 Y107.658 E2.36258
G1 X87.691 Y107.395 E2.37279
G1 X87.402 Y106.898 E2.39191
G1 X87.16 Y106.435 E2.40928
G1 X87.021 Y106.143 E2.42004
G1 X86.796 Y105.651 E2.43803
G1 X86.599 Y105.164 E2.45551
G1 X86.481 Y104.839 E2.46701
G1 X86.298 Y104.31 E2.48562
G1 X86.144 Y103.787 E2.50376
G1 X86.101 Y103.619 E2.50953
G1 X85.979 Y103.097 E2.52735
G1 X85.93 Y102.856 E2.53553
G1 X85.779 Y101.966 E2.56556
G1 X85.72 Y101.484 E2.58171
G1 X85.654 Y100.551 E2.61282
G1 X85.637 Y99.915 E2.63398
G1 X85.65 Y99.436 E2.64992
G1 X85.694 Y98.727 E2.67354
G1 X85.751 Y98.199 E2.69121
G1 X85.792 Y97.919 E2.70062
G1 X85.887 Y97.332 E2.7204
G1 X85.997 Y96.802 E2.7384
G1 X86.038 Y96.634 E2.74415
G1 X86.218 Y95.957 E2.76745
G1 X86.393 Y95.404 E2.78674
G1 X86.473 Y95.18 E2.79466
G1 X86.669 Y94.653 E2.81336
G1 X86.876 Y94.166 E2.83096
G1 X87.009 Y93.884 E2.84133
G1 X87.264 Y93.36 E2.86071
G1 X87.665 Y92.649 E2.88786
G1 X87.973 Y92.146 E2.90748
G1 X88.295 Y91.676 E2.92643
G1 X88.438 Y91.484 E2.93439
G1 X88.795 Y91.014 E2.95402
G1 X89.129 Y90.614 E2.97135
G1 X89.354 Y90.364 E2.98254
G1 X89.732 Y89.956 E3.00104
G0 F3600 X90.025 Y90.227
G1 F1200 X90.571 Y89.705 E3.02616
G1 X91.044 Y89.286 E3.04718
G1 X91.554 Y88.883 E3.0688
G1 X92.15 Y88.452 E3.09326
G1 X92.757 Y88.066 E3.11718
G1 X93.296 Y87.751 E3.13795
G1 X93.945 Y87.421 E3.16217
G1 X94.561 Y87.14 E3.18468
G1 X95.234 Y86.88 E3.20868
G1 X95.824 Y86.675 E3.22946
G1 X96.323 Y86.529 E3.24675
G1 X96.472 Y86.49 E3.25187
G1 X96.994 Y86.368 E3.2697
G1 X97.211 Y86.325 E3.27706
G1 X98.096 Y86.175 E3.30691
G1 X98.544 Y86.119 E3.32193
G1 X99.477 Y86.053 E3.35304
G1 X100.077 Y86.037 E3.373
G1 X100.541 Y86.049 E3.38844
G1 X101.248 Y86.093 E3.412
G1 X101.914 Y86.171 E3.4343
G1 X102.604 Y86.282 E3.45755
G1 X103.112 Y86.388 E3.47481
G1 X103.256 Y86.423 E3.47974
G1 X103.935 Y86.602 E3.50309
G1 X104.459 Y86.769 E3.52138
G1 X104.662 Y86.841 E3.52855
G1 X105.242 Y87.058 E3.54914
G1 X105.899 Y87.349 E3.57304
G1 X106.466 Y87.625 E3.59402
G1 X107.137 Y88.003 E3.61963
G1 X107.65 Y88.318 E3.63966
G1 X108.151 Y88.665 E3.65993
G1 X108.237 Y88.728 E3.66347
G1 X108.739 Y89.109 E3.68443
G1 X109.316 Y89.603 E3.7097
G1 X109.773 Y90.025 E3.73038
G1 X110.295 Y90.571 E3.75551
G1 X110.703 Y91.031 E3.77596
G1 X111.02 Y91.425 E3.79278
G1 X111.156 Y91.607 E3.80034
G1 X111.546 Y92.148 E3.82252
G1 X111.935 Y92.76 E3.84664
G1 X112.251 Y93.301 E3.86747
G1 X112.579 Y93.947 E3.89157
G1 X112.855 Y94.55 E3.91363
G1 X113.121 Y95.234 E3.93804
G1 X113.32 Y95.808 E3.95824
G1 X113.5 Y96.436 E3.97997
G1 X113.627 Y96.973 E3.99833
G1 X113.673 Y97.198 E4.00596
G1 X113.823 Y98.079 E4.03569
G1 X113.881 Y98.543 E4.05124
G1 X113.947 Y99.478 E4.08242
G1 X113.964 Y100.09 E4.10278
G1 X113.951 Y100.531 E4.11745
G1 X113.908 Y101.236 E4.14095
G1 X113.831 Y101.898 E4.16311
G1 X113.719 Y102.598 E4.18669
G1 X113.612 Y103.111 E4.20412
G1 X113.575 Y103.262 E4.20929
G1 X113.396 Y103.936 E4.23249
G1 X113.229 Y104.465 E4.25094
G1 X113.161 Y104.656 E4.25768
G1 X112.965 Y105.184 E4.27641
G1 X112.672 Y105.855 E4.30076
G1 X112.376 Y106.464 E4.32329
G1 X111.989 Y107.148 E4.34942
G1 X111.685 Y107.645 E4.3688
G1 X111.286 Y108.217 E4.392
G1 X110.891 Y108.739 E4.41377
G1 X110.397 Y109.316 E4.43903
G1 X109.975 Y109.773 E4.45972
G1 X109.44 Y110.285 E4.48435
G1 X108.97 Y110.702 E4.50525
G1 X108.567 Y111.026 E4.52245
G1 X108.395 Y111.155 E4.5296
G1 X107.851 Y111.547 E4.5519
G1 X107.254 Y111.928 E4.57546
G1 X106.698 Y112.251 E4.59684
G1 X106.055 Y112.579 E4.62085
G1 X105.453 Y112.854 E4.64286
G1 X104.766 Y113.12 E4.66737
G1 X104.179 Y113.324 E4.68804
G1 X103.679 Y113.471 E4.70537
G1 X103.528 Y113.51 E4.71056
G1 X103.006 Y113.632 E4.72839
G1 X102.789 Y113.675 E4.73575
G1 X101.904 Y113.825 E4.7656
G1 X101.456 Y113.881 E4.78062
G1 X100.523 Y113.947 E4.81173
G1 X99.91 Y113.964 E4.83212
G1 X99.461 Y113.951 E4.84706
G1 X98.753 Y113.907 E4.87066
G1 X98.086 Y113.829 E4.89299
G1 X97.396 Y113.718 E4.91624
G1 X96.888 Y113.612 E4.9335
G1 X96.737 Y113.575 E4.93867
G1 X96.06 Y113.395 E4.96197
G1 X95.535 Y113.229 E4.98028
G1 X95.337 Y113.158 E4.98728
G1 X94.756 Y112.941 E5.0079
G1 X94.085 Y112.643 E5.03232
G1 X93.532 Y112.374 E5.05278
G1 X92.853 Y111.99 E5.07872
G1 X92.352 Y111.683 E5.09827
G1 X91.938 Y111.4 E5.11494
G1 X91.74 Y111.254 E5.12313
G1 X91.261 Y110.891 E5.14312
G1 X90.678 Y110.392 E5.16864
G1 X90.227 Y109.974 E5.18909
G1 X89.694 Y109.417 E5.21473
G1 X89.286 Y108.955 E5.23523
G1 X88.971 Y108.563 E5.25196
G1 X88.836 Y108.382 E5.25947
G1 X88.452 Y107.85 E5.28129
G1 X88.065 Y107.24 E5.30532
G1 X87.748 Y106.697 E5.32623
G1 X87.411 Y106.032 E5.35103
G1 X87.16 Y105.484 E5.37108
G1 X86.88 Y104.766 E5.39671
G1 X86.676 Y104.179 E5.41738
G1 X86.529 Y103.679 E5.43471
G1 X86.49 Y103.528 E5.4399
G1 X86.368 Y103.006 E5.45773
G1 X86.325 Y102.789 E5.46509
G1 X86.174 Y101.899 E5.49511
G1 X86.119 Y101.456 E5.50996
G1 X86.053 Y100.523 E5.54107
G1 X86.037 Y99.923 E5.56103
G1 X86.049 Y99.461 E5.5764
G1 X86.093 Y98.752 E5.60003
G1 X86.179 Y98.037 E5.62398
G1 X86.282 Y97.396 E5.64557
G1 X86.388 Y96.888 E5.66283
G1 X86.425 Y96.737 E5.668
G1 X86.605 Y96.06 E5.6913
G1 X86.77 Y95.538 E5.70951
G1 X86.848 Y95.319 E5.71724
G1 X87.044 Y94.792 E5.73595
G1 X87.348 Y94.102 E5.76102
G1 X87.624 Y93.535 E5.782
G1 X88.01 Y92.853 E5.80806
G1 X88.315 Y92.355 E5.82749
G1 X88.617 Y91.914 E5.84526
G1 X88.756 Y91.725 E5.85307
G1 X89.113 Y91.255 E5.8727
G1 X89.603 Y90.684 E5.89772
G1 X90.025 Y90.227 E5.91841
G0 F3600 X90.319 Y90.499
G1 F1200 X90.841 Y90 E5.94243
G1 X91.309 Y89.586 E5.96321
G1 X91.795 Y89.203 E5.98379
G1 X91.845 Y89.165 E5.98588
G1 X92.384 Y88.776 E6.00799
G1 X92.964 Y88.409 E6.03082
G1 X93.498 Y88.097 E6.05139
G1 X94.119 Y87.782 E6.07455
G1 X94.182 Y87.752 E6.07687
G1 X94.727 Y87.504 E6.09678
G1 X95.371 Y87.255 E6.11975
G1 X95.955 Y87.053 E6.1403
G1 X96.563 Y86.88 E6.16133
G1 X97.085 Y86.758 E6.17916
G1 X97.278 Y86.719 E6.18571
G1 X98.163 Y86.569 E6.21556
G1 X98.572 Y86.518 E6.22927
G1 X99.505 Y86.452 E6.26038
G1 X100.069 Y86.437 E6.27914
G1 X100.516 Y86.448 E6.29402
G1 X101.223 Y86.492 E6.31758
G1 X101.858 Y86.567 E6.33884
G1 X102.54 Y86.677 E6.36182
G1 X103.154 Y86.81 E6.38272
G1 X103.833 Y86.989 E6.40607
G1 X104.326 Y87.146 E6.42328
G1 X104.522 Y87.216 E6.4302
G1 X105.102 Y87.433 E6.4508
G1 X105.728 Y87.711 E6.47358
G1 X106.291 Y87.985 E6.49441
G1 X106.934 Y88.348 E6.51896
G1 X107.44 Y88.658 E6.5387
G1 X107.918 Y88.99 E6.55806
G1 X107.996 Y89.047 E6.56127
G1 X108.498 Y89.428 E6.58223
G1 X109.05 Y89.902 E6.60643
G1 X109.501 Y90.319 E6.62686
G1 X109.999 Y90.84 E6.65083
G1 X110.403 Y91.296 E6.6711
G1 X110.788 Y91.781 E6.69169
G1 X111.222 Y92.382 E6.71635
G1 X111.593 Y92.966 E6.73936
G1 X111.905 Y93.502 E6.75999
G1 X112.219 Y94.12 E6.78304
G1 X112.491 Y94.716 E6.80483
G1 X112.745 Y95.371 E6.8282
G1 X112.942 Y95.939 E6.84819
G1 X113.111 Y96.529 E6.86861
G1 X113.238 Y97.066 E6.88696
G1 X113.279 Y97.265 E6.89372
G1 X113.429 Y98.146 E6.92344
G1 X113.482 Y98.571 E6.93769
G1 X113.548 Y99.506 E6.96886
G1 X113.564 Y100.08 E6.98796
G1 X113.552 Y100.507 E7.00217
G1 X113.509 Y101.212 E7.02566
G1 X113.435 Y101.843 E7.04679
G1 X113.324 Y102.534 E7.07007
G1 X113.221 Y103.025 E7.08676
G1 X113.189 Y103.159 E7.09134
G1 X113.01 Y103.833 E7.11453
G1 X112.852 Y104.331 E7.13191
G1 X112.786 Y104.517 E7.13847
G1 X112.59 Y105.045 E7.15721
G1 X112.309 Y105.687 E7.18052
G1 X112.017 Y106.289 E7.20277
G1 X111.645 Y106.944 E7.22782
G1 X111.344 Y107.436 E7.24701
G1 X110.964 Y107.98 E7.26908
G1 X110.572 Y108.498 E7.29068
G1 X110.098 Y109.05 E7.31488
G1 X109.681 Y109.501 E7.33531
G1 X109.17 Y109.99 E7.35884
G1 X108.704 Y110.403 E7.37955
G1 X108.214 Y110.791 E7.40033
G1 X107.617 Y111.222 E7.42482
G1 X107.047 Y111.585 E7.4473
G1 X106.497 Y111.905 E7.46847
G1 X105.881 Y112.218 E7.49145
G1 X105.287 Y112.49 E7.51318
G1 X104.629 Y112.745 E7.53665
G1 X104.048 Y112.946 E7.55709
G1 X103.437 Y113.12 E7.57822
G1 X102.915 Y113.242 E7.59605
G1 X102.722 Y113.281 E7.6026
G1 X101.837 Y113.431 E7.63246
G1 X101.428 Y113.482 E7.64617
G1 X100.495 Y113.548 E7.67728
G1 X99.919 Y113.564 E7.69644
G1 X99.486 Y113.552 E7.71085
G1 X98.778 Y113.508 E7.73444
G1 X98.142 Y113.433 E7.75574
G1 X97.46 Y113.323 E7.77872
G1 X96.84 Y113.189 E7.79982
G1 X96.163 Y113.009 E7.82312
G1 X95.669 Y112.852 E7.84036
G1 X95.477 Y112.784 E7.84713
G1 X94.896 Y112.567 E7.86776
G1 X94.255 Y112.281 E7.8911
G1 X93.707 Y112.015 E7.91136
G1 X93.057 Y111.646 E7.93622
G1 X92.561 Y111.342 E7.95557
G1 X92.021 Y110.965 E7.97748
G1 X91.502 Y110.572 E7.99913
G1 X90.945 Y110.093 E8.02356
G1 X90.499 Y109.681 E8.04376
G1 X89.989 Y109.147 E8.06832
G1 X89.586 Y108.69 E8.08859
G1 X89.195 Y108.195 E8.10957
G1 X88.776 Y107.616 E8.13334
G1 X88.407 Y107.034 E8.15626
G1 X88.094 Y106.496 E8.17696
G1 X87.772 Y105.86 E8.20067
G1 X87.524 Y105.318 E8.22049
G1 X87.255 Y104.629 E8.24509
G1 X87.054 Y104.048 E8.26554
G1 X86.88 Y103.437 E8.28667
G1 X86.758 Y102.915 E8.3045
G1 X86.719 Y102.722 E8.31105
G1 X86.568 Y101.832 E8.34108
G1 X86.518 Y101.428 E8.35461
G1 X86.452 Y100.495 E8.38572
G1 X86.437 Y99.931 E8.40449
G1 X86.448 Y99.486 E8.41929
G1 X86.492 Y98.777 E8.44292
G1 X86.575 Y98.095 E8.46577
G1 X86.677 Y97.46 E8.48716
G1 X86.811 Y96.84 E8.50826
G1 X86.991 Y96.163 E8.53156
G1 X87.147 Y95.671 E8.54873
G1 X87.223 Y95.459 E8.55622
G1 X87.419 Y94.932 E8.57492
G1 X87.71 Y94.273 E8.59888
G1 X87.984 Y93.71 E8.6197
G1 X88.354 Y93.057 E8.64467
G1 X88.656 Y92.564 E8.6639
G1 X88.939 Y92.151 E8.68055
G1 X89.075 Y91.967 E8.68816
G1 X89.432 Y91.497 E8.70779
G1 X89.902 Y90.95 E8.73178
G1 X90.319 Y90.499 E8.75221
G1 F2400 E6.25221
;MESH:E-Cig_Top_Holder.stl
G0 F3600 X93.269 Y91.264
G0 X94.03 Y92.299
G0 X107.637 Y94.078
G0 X107.717 Y94.019
;TYPE:WALL-INNER
G1 F2400 E8.75221
G1 F1200 X108.12 Y94.557 E8.77456
G1 X108.266 Y94.805 E8.78413
G1 X108.619 Y95.389 E8.80683
G1 X108.735 Y95.639 E8.816
G1 X109.028 Y96.256 E8.83872
G1 X109.354 Y97.165 E8.87083
G1 X109.584 Y98.088 E8.90247
G1 X109.726 Y99.038 E8.93442
G1 X109.773 Y99.999 E8.96642
G1 X109.727 Y100.963 E8.99852
G1 X109.685 Y101.227 E9.00741
G1 X109.584 Y101.911 E9.03041
G1 X109.353 Y102.84 E9.06225
G1 X109.26 Y103.094 E9.07124
G1 X109.031 Y103.739 E9.09401
G1 X108.912 Y103.986 E9.10313
G1 X108.619 Y104.61 E9.12606
G1 X108.131 Y105.425 E9.15765
G1 X107.963 Y105.649 E9.16696
G1 X107.558 Y106.199 E9.18968
G1 X106.912 Y106.912 E9.22168
G1 X106.198 Y107.559 E9.25373
G1 X105.981 Y107.717 E9.26266
G1 X105.443 Y108.12 E9.28502
G1 X105.195 Y108.266 E9.29459
G1 X104.611 Y108.619 E9.31728
G1 X104.361 Y108.735 E9.32645
G1 X103.744 Y109.028 E9.34917
G1 X102.835 Y109.354 E9.38129
G1 X101.912 Y109.584 E9.41292
G1 X100.962 Y109.726 E9.44487
G1 X100 Y109.773 E9.47691
G1 X99.037 Y109.727 E9.50897
G1 X98.773 Y109.685 E9.51786
G1 X98.089 Y109.584 E9.54086
G1 X97.16 Y109.353 E9.5727
G1 X96.906 Y109.26 E9.5817
G1 X96.261 Y109.031 E9.60446
G1 X96.014 Y108.912 E9.61358
G1 X95.39 Y108.619 E9.63651
G1 X94.575 Y108.131 E9.6681
G1 X94.351 Y107.963 E9.67742
G1 X93.801 Y107.558 E9.70013
G1 X93.088 Y106.912 E9.73214
G1 X92.441 Y106.198 E9.76418
G1 X92.283 Y105.981 E9.77311
G1 X91.88 Y105.443 E9.79547
G1 X91.734 Y105.195 E9.80504
G1 X91.381 Y104.611 E9.82774
G1 X91.265 Y104.361 E9.8369
G1 X90.972 Y103.744 E9.85962
G1 X90.646 Y102.835 E9.89174
G1 X90.416 Y101.912 E9.92338
G1 X90.274 Y100.962 E9.95533
G1 X90.227 Y99.999 E9.98739
G1 X90.273 Y99.037 E10.01943
G1 X90.315 Y98.773 E10.02832
