;FLAVOR:Marlin
;TIME:2095
;Filament used: 1.63294m
;Layer height: 0.16
;MINX:88.2
;MINY:87.619
;MINZ:0.3
;MAXX:111.8
;MAXY:112.381
;MAXZ:54.38
;Generated with Cura_SteamEngine 4.6.1
M140 S70
M105
M190 S70
M104 S225
M105
M109 S225
M82 ;absolute extrusion mode
; START CODE
G21 ;metric values
G90 ;absolute positioning
M82 ;set extruder to absolute mode
M107 ;start with the fan off
G28 X0 Y0 ;move X/Y to min endstops
G28 Z0 ;move Z to min endstops
G1 Z15.0 F80 ;move the platform down 15mm
G92 E0 ;zero the extruded length
G1 F200 E6 ;extrude 6 mm of feed stock
G92 E0 ;zero the extruded length again
G1 F80
;Put printing message on LCD screen
M117 Printing...
G92 E0
G92 E0
G1 F1500 E-6.5
;LAYER_COUNT:339
;LAYER:0
M107
G0 F2400 X90.716 Y91.985 Z0.3
;TYPE:SKIRT
G1 F1500 E0
G1 F1050 X91.319 Y91.474 E0.03904
G1 X92.136 Y90.928 E0.08757
G1 X96.018 Y88.674 E0.30929
G1 X96.721 Y88.312 E0.34834
G1 X97.456 Y88.024 E0.38733
G1 X98.216 Y87.811 E0.42632
G1 X98.994 Y87.676 E0.46532
G1 X99.935 Y87.619 E0.51188
G1 X100.831 Y87.659 E0.55618
G1 X101.611 Y87.778 E0.59515
G1 X102.376 Y87.976 E0.63418
G1 X103.116 Y88.25 E0.67315
G1 X103.923 Y88.653 E0.71771
G1 X107.816 Y90.886 E0.93937
G1 X108.48 Y91.313 E0.97836
G1 X109.098 Y91.805 E1.01738
G1 X109.663 Y92.357 E1.05639
G1 X110.169 Y92.963 E1.09539
G1 X110.729 Y93.821 E1.14599
G1 X111.135 Y94.622 E1.19035
G1 X111.414 Y95.36 E1.22931
G1 X111.617 Y96.123 E1.26831
G1 X111.742 Y96.903 E1.30733
G1 X111.788 Y97.725 E1.34799
G1 X111.8 Y102.212 E1.56961
G1 X111.762 Y103.001 E1.60862
G1 X111.645 Y103.782 E1.64763
G1 X111.449 Y104.547 E1.68663
G1 X111.177 Y105.288 E1.72562
G1 X110.794 Y106.064 E1.76836
G1 X110.319 Y106.825 E1.81267
G1 X109.832 Y107.447 E1.85169
G1 X109.284 Y108.015 E1.89067
G1 X108.681 Y108.526 E1.92971
G1 X107.864 Y109.072 E1.97824
G1 X103.982 Y111.326 E2.19996
G1 X103.279 Y111.688 E2.23901
G1 X102.544 Y111.976 E2.278
G1 X101.784 Y112.189 E2.31699
G1 X101.006 Y112.324 E2.35599
G1 X100.065 Y112.381 E2.40255
G1 X99.169 Y112.341 E2.44685
G1 X98.389 Y112.222 E2.48582
G1 X97.624 Y112.024 E2.52485
G1 X96.884 Y111.75 E2.56382
G1 X96.077 Y111.347 E2.60838
G1 X92.184 Y109.114 E2.83004
G1 X91.52 Y108.687 E2.86903
G1 X90.902 Y108.195 E2.90805
G1 X90.337 Y107.643 E2.94706
G1 X89.831 Y107.037 E2.98606
G1 X89.271 Y106.179 E3.03666
G1 X88.865 Y105.378 E3.08102
G1 X88.586 Y104.64 E3.11998
G1 X88.383 Y103.877 E3.15898
G1 X88.258 Y103.097 E3.198
G1 X88.212 Y102.275 E3.23866
G1 X88.2 Y97.788 E3.46028
G1 X88.238 Y96.999 E3.4993
G1 X88.355 Y96.218 E3.5383
G1 X88.551 Y95.453 E3.57731
G1 X88.823 Y94.712 E3.61629
G1 X89.206 Y93.936 E3.65903
G1 X89.681 Y93.175 E3.70334
G1 X90.168 Y92.553 E3.74236
G1 X90.716 Y91.985 E3.78134
G0 F2400 X91.034 Y92.236
G1 F1050 X91.625 Y91.744 E3.81932
G1 X92.337 Y91.274 E3.86146
G1 X96.219 Y89.02 E4.08317
G1 X96.904 Y88.668 E4.12121
G1 X97.621 Y88.39 E4.1592
G1 X98.363 Y88.188 E4.19718
G1 X99.122 Y88.064 E4.23516
G1 X99.935 Y88.019 E4.27538
G1 X100.81 Y88.059 E4.31864
G1 X101.57 Y88.178 E4.35664
G1 X102.313 Y88.376 E4.39462
G1 X103.032 Y88.65 E4.43262
G1 X103.724 Y89 E4.47092
G1 X107.617 Y91.233 E4.69259
G1 X108.263 Y91.65 E4.73056
G1 X108.863 Y92.132 E4.76858
G1 X109.409 Y92.673 E4.80654
G1 X109.897 Y93.268 E4.84455
G1 X110.381 Y94.018 E4.88863
G1 X110.776 Y94.8 E4.93191
G1 X111.046 Y95.521 E4.96993
G1 X111.238 Y96.265 E5.00788
G1 X111.353 Y97.026 E5.0459
G1 X111.388 Y97.726 E5.08051
G1 X111.4 Y102.213 E5.30213
G1 X111.362 Y102.981 E5.34011
G1 X111.245 Y103.742 E5.37814
G1 X111.049 Y104.485 E5.41609
G1 X110.777 Y105.205 E5.45411
G1 X110.446 Y105.867 E5.49067
G1 X109.981 Y106.611 E5.534
G1 X109.504 Y107.214 E5.57197
G1 X108.966 Y107.764 E5.60998
G1 X108.375 Y108.256 E5.64796
G1 X107.663 Y108.726 E5.69009
G1 X103.781 Y110.98 E5.91181
G1 X103.096 Y111.332 E5.94985
G1 X102.379 Y111.61 E5.98783
G1 X101.637 Y111.812 E6.02581
G1 X100.878 Y111.936 E6.0638
G1 X100.065 Y111.981 E6.10401
G1 X99.19 Y111.941 E6.14727
G1 X98.43 Y111.822 E6.18527
G1 X97.687 Y111.624 E6.22325
G1 X96.968 Y111.35 E6.26125
G1 X96.276 Y111 E6.29955
G1 X92.383 Y108.767 E6.52122
G1 X91.737 Y108.35 E6.5592
G1 X91.137 Y107.868 E6.59721
G1 X90.591 Y107.327 E6.63517
G1 X90.103 Y106.732 E6.67318
G1 X89.619 Y105.982 E6.71727
G1 X89.224 Y105.2 E6.76054
G1 X88.954 Y104.479 E6.79857
G1 X88.762 Y103.735 E6.83652
G1 X88.647 Y102.974 E6.87453
G1 X88.612 Y102.274 E6.90915
G1 X88.6 Y97.787 E7.13077
G1 X88.638 Y97.019 E7.16875
G1 X88.755 Y96.258 E7.20677
G1 X88.951 Y95.515 E7.24473
G1 X89.223 Y94.795 E7.28274
G1 X89.554 Y94.133 E7.3193
G1 X90.019 Y93.389 E7.36263
G1 X90.496 Y92.786 E7.40061
G1 X91.034 Y92.236 E7.43861
G0 F2400 X91.35 Y92.488
G1 F1050 X91.931 Y92.016 E7.47558
G1 X92.538 Y91.619 E7.5114
G1 X96.42 Y89.365 E7.73312
G1 X97.086 Y89.025 E7.77005
G1 X97.785 Y88.757 E7.80703
G1 X98.508 Y88.566 E7.84396
G1 X99.247 Y88.453 E7.88089
G1 X99.935 Y88.419 E7.91491
G1 X100.789 Y88.459 E7.95713
G1 X101.527 Y88.578 E7.99406
G1 X102.249 Y88.776 E8.03103
G1 X102.945 Y89.049 E8.06796
G1 X103.525 Y89.347 E8.10017
G1 X107.418 Y91.58 E8.32183
G1 X108.046 Y91.986 E8.35877
G1 X108.627 Y92.457 E8.39571
G1 X109.155 Y92.988 E8.43269
G1 X109.623 Y93.571 E8.46962
G1 X110.033 Y94.214 E8.50729
G1 X110.418 Y94.978 E8.54954
G1 X110.676 Y95.68 E8.58648
G1 X110.859 Y96.406 E8.62346
G1 X110.962 Y97.147 E8.66041
G1 X110.988 Y97.727 E8.68909
G1 X111 Y102.214 E8.91071
G1 X110.962 Y102.961 E8.94765
G1 X110.845 Y103.7 E8.9846
G1 X110.649 Y104.422 E9.02156
G1 X110.377 Y105.119 E9.05851
G1 X110.098 Y105.671 E9.08906
G1 X109.643 Y106.396 E9.13134
G1 X109.176 Y106.981 E9.16831
G1 X108.65 Y107.512 E9.20522
G1 X108.069 Y107.984 E9.2422
G1 X107.462 Y108.381 E9.27802
G1 X103.58 Y110.635 E9.49973
G1 X102.914 Y110.975 E9.53667
G1 X102.215 Y111.243 E9.57364
G1 X101.492 Y111.434 E9.61058
G1 X100.753 Y111.547 E9.6475
G1 X100.065 Y111.581 E9.68152
G1 X99.211 Y111.541 E9.72375
G1 X98.473 Y111.422 E9.76067
G1 X97.751 Y111.224 E9.79765
G1 X97.055 Y110.951 E9.83457
G1 X96.475 Y110.653 E9.86678
G1 X92.582 Y108.42 E10.08845
G1 X91.954 Y108.014 E10.12538
G1 X91.373 Y107.543 E10.16232
G1 X90.845 Y107.012 E10.19931
G1 X90.377 Y106.429 E10.23623
G1 X89.967 Y105.786 E10.2739
G1 X89.582 Y105.022 E10.31616
G1 X89.324 Y104.32 E10.3531
G1 X89.141 Y103.594 E10.39008
G1 X89.038 Y102.853 E10.42703
G1 X89.012 Y102.273 E10.4557
G1 X89 Y97.786 E10.67732
G1 X89.038 Y97.039 E10.71426
G1 X89.155 Y96.3 E10.75122
G1 X89.351 Y95.578 E10.78817
G1 X89.623 Y94.881 E10.82512
G1 X89.902 Y94.329 E10.85567
G1 X90.357 Y93.604 E10.89795
G1 X90.824 Y93.019 E10.93492
G1 X91.35 Y92.488 E10.97184
G0 F2400 X91.666 Y92.742
G1 F1050 X92.235 Y92.29 E11.00773
G1 X92.739 Y91.965 E11.03735
G1 X96.621 Y89.711 E11.25906
G1 X97.268 Y89.382 E11.29491
G1 X97.948 Y89.125 E11.33082
G1 X98.651 Y88.945 E11.36666
G1 X99.371 Y88.843 E11.40258
G1 X99.935 Y88.819 E11.43046
G1 X100.767 Y88.859 E11.4716
G1 X101.484 Y88.978 E11.5075
G1 X102.183 Y89.176 E11.54338
G1 X102.856 Y89.449 E11.57925
G1 X103.326 Y89.694 E11.60543
G1 X107.219 Y91.927 E11.8271
G1 X107.828 Y92.322 E11.86295
G1 X108.39 Y92.783 E11.89885
G1 X108.898 Y93.302 E11.93472
G1 X109.346 Y93.873 E11.97057
G1 X109.684 Y94.41 E12.00191
G1 X110.059 Y95.156 E12.04315
G1 X110.306 Y95.839 E12.07902
G1 X110.478 Y96.544 E12.11486
G1 X110.57 Y97.265 E12.15076
G1 X110.588 Y97.728 E12.17365
G1 X110.6 Y102.215 E12.39527
G1 X110.562 Y102.941 E12.43117
G1 X110.444 Y103.658 E12.46706
G1 X110.249 Y104.357 E12.50291
G1 X109.978 Y105.031 E12.53879
G1 X109.696 Y105.569 E12.56879
G1 X109.305 Y106.181 E12.60466
G1 X108.849 Y106.746 E12.64052
G1 X108.334 Y107.258 E12.67639
G1 X107.765 Y107.71 E12.71228
G1 X107.261 Y108.035 E12.7419
G1 X103.379 Y110.289 E12.96361
G1 X102.732 Y110.618 E12.99946
G1 X102.052 Y110.875 E13.03537
G1 X101.349 Y111.055 E13.07121
G1 X100.629 Y111.157 E13.10713
G1 X100.065 Y111.181 E13.13501
G1 X99.233 Y111.141 E13.17615
G1 X98.516 Y111.022 E13.21205
G1 X97.817 Y110.824 E13.24793
G1 X97.144 Y110.551 E13.2838
G1 X96.674 Y110.306 E13.30998
G1 X92.781 Y108.073 E13.53165
G1 X92.172 Y107.678 E13.5675
G1 X91.61 Y107.217 E13.6034
G1 X91.102 Y106.698 E13.63927
G1 X90.654 Y106.127 E13.67512
G1 X90.316 Y105.59 E13.70646
G1 X89.941 Y104.844 E13.74769
G1 X89.694 Y104.161 E13.78357
G1 X89.522 Y103.456 E13.81941
G1 X89.43 Y102.735 E13.85531
G1 X89.412 Y102.272 E13.87819
G1 X89.4 Y97.785 E14.09981
G1 X89.438 Y97.059 E14.13572
G1 X89.556 Y96.342 E14.17161
G1 X89.751 Y95.643 E14.20745
G1 X90.022 Y94.969 E14.24333
G1 X90.304 Y94.431 E14.27334
G1 X90.695 Y93.819 E14.30921
G1 X91.151 Y93.254 E14.34507
G1 X91.666 Y92.742 E14.38093
G0 F2400 X91.981 Y92.998
G1 F1050 X92.537 Y92.566 E14.41571
G1 X92.94 Y92.311 E14.43927
G1 X96.822 Y90.057 E14.66098
G1 X97.45 Y89.739 E14.69575
G1 X98.11 Y89.494 E14.73052
G1 X98.793 Y89.325 E14.76527
G1 X99.491 Y89.235 E14.80003
G1 X100.042 Y89.219 E14.82726
G1 X100.745 Y89.259 E14.86204
G1 X101.439 Y89.378 E14.89681
G1 X102.114 Y89.576 E14.93156
G1 X102.763 Y89.848 E14.96631
G1 X103.127 Y90.041 E14.98666
G1 X107.02 Y92.274 E15.20833
G1 X107.61 Y92.658 E15.2431
G1 X108.152 Y93.107 E15.27786
G1 X108.64 Y93.614 E15.31262
G1 X109.067 Y94.174 E15.3474
G1 X109.336 Y94.607 E15.37258
G1 X109.699 Y95.333 E15.41267
G1 X109.936 Y95.996 E15.44744
G1 X110.096 Y96.681 E15.48219
G1 X110.188 Y97.729 E15.53415
G1 X110.2 Y102.216 E15.75577
G1 X110.162 Y102.919 E15.79054
G1 X110.044 Y103.613 E15.82531
G1 X109.849 Y104.29 E15.86011
G1 X109.578 Y104.94 E15.89489
G1 X109.348 Y105.372 E15.91906
G1 X108.968 Y105.965 E15.95385
G1 X108.523 Y106.51 E15.9886
G1 X108.019 Y107.002 E16.02339
G1 X107.463 Y107.434 E16.05817
G1 X107.06 Y107.689 E16.08172
G1 X103.178 Y109.943 E16.30343
G1 X102.55 Y110.261 E16.3382
G1 X101.89 Y110.506 E16.37297
G1 X101.207 Y110.675 E16.40773
G1 X100.509 Y110.765 E16.44249
G1 X99.958 Y110.781 E16.46971
G1 X99.255 Y110.741 E16.50449
G1 X98.561 Y110.622 E16.53927
G1 X97.886 Y110.424 E16.57401
G1 X97.237 Y110.152 E16.60877
G1 X96.873 Y109.959 E16.62912
G1 X92.98 Y107.726 E16.85078
G1 X92.39 Y107.342 E16.88555
G1 X91.848 Y106.893 E16.92032
G1 X91.36 Y106.386 E16.95507
G1 X90.933 Y105.826 E16.98985
G1 X90.664 Y105.393 E17.01503
G1 X90.301 Y104.667 E17.05512
G1 X90.064 Y104.004 E17.0899
G1 X89.904 Y103.319 E17.12464
G1 X89.812 Y102.271 E17.1766
G1 X89.8 Y97.784 E17.39822
G1 X89.838 Y97.081 E17.433
G1 X89.956 Y96.387 E17.46777
G1 X90.151 Y95.71 E17.50256
G1 X90.422 Y95.06 E17.53735
G1 X90.652 Y94.628 E17.56152
G1 X91.032 Y94.035 E17.59631
G1 X91.477 Y93.49 E17.63106
G1 X91.981 Y92.998 E17.66584
G0 F2400 X92.294 Y93.256
G1 F1050 X92.838 Y92.846 E17.69949
G1 X97.023 Y90.403 E17.93883
G1 X97.631 Y90.096 E17.97247
G1 X98.27 Y89.863 E18.00607
G1 X98.933 Y89.706 E18.03972
G1 X99.935 Y89.619 E18.0894
G1 X100.722 Y89.659 E18.12832
G1 X101.392 Y89.778 E18.16193
G1 X102.044 Y89.975 E18.19557
G1 X102.928 Y90.388 E18.24376
G1 X106.821 Y92.621 E18.46543
G1 X107.391 Y92.994 E18.49907
G1 X107.913 Y93.431 E18.5327
G1 X108.38 Y93.926 E18.56631
G1 X108.786 Y94.473 E18.59995
G1 X109.04 Y94.897 E18.62437
G1 X109.339 Y95.509 E18.65801
G1 X109.565 Y96.152 E18.69167
G1 X109.713 Y96.816 E18.72527
G1 X109.788 Y97.73 E18.77057
G1 X109.8 Y102.217 E18.99219
G1 X109.762 Y102.897 E19.02583
G1 X109.644 Y103.568 E19.05948
G1 X109.449 Y104.22 E19.09309
G1 X109.052 Y105.082 E19.13996
G1 X108.631 Y105.748 E19.17888
G1 X108.197 Y106.273 E19.21252
G1 X107.706 Y106.744 E19.24613
G1 X107.162 Y107.154 E19.27977
G1 X102.977 Y109.597 E19.51912
G1 X102.369 Y109.904 E19.55276
G1 X101.73 Y110.137 E19.58635
G1 X101.067 Y110.294 E19.62
G1 X100.065 Y110.381 E19.66968
G1 X99.278 Y110.341 E19.7086
G1 X98.608 Y110.222 E19.74221
G1 X97.956 Y110.025 E19.77585
G1 X97.072 Y109.612 E19.82404
G1 X93.179 Y107.379 E20.04571
G1 X92.609 Y107.006 E20.07935
G1 X92.087 Y106.569 E20.11298
G1 X91.62 Y106.074 E20.14659
G1 X91.214 Y105.527 E20.18024
G1 X90.96 Y105.103 E20.20465
G1 X90.661 Y104.491 E20.23829
G1 X90.435 Y103.848 E20.27195
G1 X90.287 Y103.184 E20.30555
G1 X90.212 Y102.27 E20.35085
G1 X90.2 Y97.783 E20.57247
G1 X90.238 Y97.103 E20.60611
G1 X90.356 Y96.432 E20.63976
G1 X90.551 Y95.78 E20.67337
G1 X90.948 Y94.918 E20.72024
G1 X91.369 Y94.252 E20.75916
G1 X91.803 Y93.727 E20.7928
G1 X92.294 Y93.256 E20.82641
G0 F2400 X92.127 Y93.965
G1 F1050 X92.607 Y93.516 E20.85887
G1 X93.342 Y93.003 E20.90314
G1 X97.224 Y90.749 E21.12486
G1 X97.811 Y90.454 E21.1573
G1 X98.429 Y90.233 E21.18972
G1 X99.07 Y90.089 E21.22217
G1 X99.935 Y90.019 E21.26503
G1 X100.698 Y90.059 E21.30277
G1 X101.344 Y90.178 E21.33521
G1 X101.971 Y90.375 E21.36767
G1 X102.729 Y90.735 E21.40912
G1 X106.622 Y92.968 E21.63079
G1 X107.171 Y93.329 E21.66324
G1 X107.672 Y93.754 E21.69569
G1 X108.117 Y94.236 E21.72809
G1 X108.639 Y95 E21.77379
G1 X108.979 Y95.685 E21.81156
G1 X109.192 Y96.306 E21.84399
G1 X109.329 Y96.949 E21.87646
G1 X109.388 Y97.732 E21.91524
G1 X109.4 Y102.219 E22.13686
G1 X109.362 Y102.874 E22.16927
G1 X109.244 Y103.521 E22.20175
G1 X109.049 Y104.148 E22.23418
G1 X108.704 Y104.885 E22.27438
G1 X108.294 Y105.531 E22.31217
G1 X107.873 Y106.035 E22.3446
G1 X107.393 Y106.484 E22.37707
G1 X106.658 Y106.997 E22.42134
G1 X102.776 Y109.251 E22.64305
G1 X102.189 Y109.546 E22.6755
G1 X101.571 Y109.767 E22.70791
G1 X100.93 Y109.911 E22.74036
G1 X100.065 Y109.981 E22.78323
G1 X99.302 Y109.941 E22.82096
G1 X98.656 Y109.822 E22.85341
G1 X98.029 Y109.625 E22.88587
G1 X97.271 Y109.265 E22.92731
G1 X93.378 Y107.032 E23.14898
G1 X92.829 Y106.671 E23.18143
G1 X92.328 Y106.246 E23.21388
G1 X91.883 Y105.764 E23.24628
G1 X91.361 Y105 E23.29199
G1 X91.021 Y104.315 E23.32976
G1 X90.808 Y103.694 E23.36218
G1 X90.671 Y103.051 E23.39465
G1 X90.612 Y102.268 E23.43344
G1 X90.6 Y97.781 E23.65506
G1 X90.638 Y97.126 E23.68746
G1 X90.756 Y96.479 E23.71995
G1 X90.951 Y95.852 E23.75238
G1 X91.296 Y95.115 E23.79257
G1 X91.706 Y94.469 E23.83036
G1 X92.127 Y93.965 E23.8628
G0 F2400 X92.451 Y94.205
G1 F1050 X92.917 Y93.778 E23.89401
G1 X93.542 Y93.349 E23.93146
G1 X97.424 Y91.095 E24.15317
G1 X97.99 Y90.813 E24.1844
G1 X98.587 Y90.604 E24.21564
G1 X99.205 Y90.473 E24.24685
G1 X99.935 Y90.419 E24.283
G1 X100.673 Y90.459 E24.3195
G1 X101.294 Y90.578 E24.35073
G1 X101.894 Y90.775 E24.38193
G1 X102.53 Y91.082 E24.41681
G1 X106.423 Y93.315 E24.63847
G1 X106.95 Y93.663 E24.66966
G1 X107.429 Y94.076 E24.7009
G1 X107.853 Y94.545 E24.73213
G1 X108.29 Y95.196 E24.77086
G1 X108.618 Y95.859 E24.80739
G1 X108.819 Y96.459 E24.83864
G1 X108.943 Y97.079 E24.86987
G1 X108.988 Y97.733 E24.90225
G1 X109 Y102.22 E25.12387
G1 X108.962 Y102.851 E25.15509
G1 X108.844 Y103.472 E25.18631
G1 X108.649 Y104.073 E25.21752
G1 X108.355 Y104.689 E25.25124
G1 X107.958 Y105.313 E25.28776
G1 X107.549 Y105.795 E25.31899
G1 X107.083 Y106.222 E25.3502
G1 X106.458 Y106.651 E25.38765
G1 X102.576 Y108.905 E25.60936
G1 X102.01 Y109.187 E25.64059
G1 X101.413 Y109.396 E25.67183
G1 X100.795 Y109.527 E25.70304
G1 X100.065 Y109.581 E25.73919
G1 X99.327 Y109.541 E25.77569
G1 X98.706 Y109.422 E25.80693
G1 X98.106 Y109.225 E25.83812
G1 X97.47 Y108.918 E25.873
G1 X93.577 Y106.685 E26.09466
G1 X93.05 Y106.337 E26.12586
G1 X92.571 Y105.924 E26.15709
G1 X92.147 Y105.455 E26.18832
G1 X91.71 Y104.804 E26.22705
G1 X91.382 Y104.141 E26.26358
G1 X91.181 Y103.541 E26.29484
G1 X91.057 Y102.921 E26.32606
G1 X91.012 Y102.267 E26.35844
G1 X91 Y97.78 E26.58006
G1 X91.038 Y97.149 E26.61128
G1 X91.156 Y96.528 E26.64251
G1 X91.351 Y95.927 E26.67371
G1 X91.645 Y95.311 E26.70743
G1 X92.042 Y94.687 E26.74396
G1 X92.451 Y94.205 E26.77518
G0 F2400 X92.774 Y94.447
G1 F1050 X93.226 Y94.044 E26.80509
G1 X93.743 Y93.695 E26.8359
G1 X97.625 Y91.441 E27.05761
G1 X98.168 Y91.172 E27.08754
G1 X98.742 Y90.976 E27.1175
G1 X99.337 Y90.858 E27.14746
G1 X99.935 Y90.819 E27.17706
G1 X100.042 Y90.819 E27.18234
G1 X100.647 Y90.859 E27.21229
G1 X101.241 Y90.978 E27.24221
G1 X101.815 Y91.174 E27.27217
G1 X102.331 Y91.429 E27.3006
G1 X106.224 Y93.662 E27.52226
G1 X106.729 Y93.997 E27.55219
G1 X107.185 Y94.397 E27.58215
G1 X107.585 Y94.852 E27.61208
G1 X107.942 Y95.393 E27.64409
G1 X108.257 Y96.033 E27.67932
G1 X108.445 Y96.61 E27.7093
