;FLAVOR:Marlin
;TIME:4310
;Filament used: 1.64019m
;Layer height: 0.12
;MINX:88.2
;MINY:87.617
;MINZ:0.2
;MAXX:111.8
;MAXY:112.383
;MAXZ:54.32
;Generated with Cura_SteamEngine 4.6.1
M140 S60
M105
M190 S60
M104 S200
M105
M109 S200
M82 ;absolute extrusion mode
; START CODE
G21 ;metric values
G90 ;absolute positioning
M82 ;set extruder to absolute mode
M107 ;start with the fan off
G28 X0 Y0 ;move X/Y to min endstops
G28 Z0 ;move Z to min endstops
G1 Z15.0 F120 ;move the platform down 15mm
G92 E0 ;zero the extruded length
G1 F200 E6 ;extrude 6 mm of feed stock
G92 E0 ;zero the extruded length again
G1 F120
;Put printing message on LCD screen
M117 Printing...
G92 E0
G92 E0
G1 F2400 E-2.5
;LAYER_COUNT:452
;LAYER:0
M107
G0 F3600 X90.716 Y91.98 Z0.2
;TYPE:SKIRT
G1 F2400 E0
G1 F900 X91.319 Y91.469 E0.02629
G1 X92.143 Y90.919 E0.05924
G1 X96.028 Y88.668 E0.20858
G1 X96.73 Y88.307 E0.23483
G1 X97.465 Y88.019 E0.26109
G1 X98.226 Y87.807 E0.28736
G1 X99.004 Y87.673 E0.31362
G1 X99.938 Y87.617 E0.34474
G1 X100.834 Y87.657 E0.37457
G1 X101.614 Y87.776 E0.40082
G1 X102.379 Y87.974 E0.4271
G1 X103.119 Y88.248 E0.45334
G1 X103.93 Y88.654 E0.48351
G1 X107.824 Y90.891 E0.63287
G1 X108.488 Y91.318 E0.65913
G1 X109.106 Y91.811 E0.68542
G1 X109.67 Y92.363 E0.71167
G1 X110.176 Y92.97 E0.73796
G1 X110.733 Y93.823 E0.77184
G1 X111.139 Y94.624 E0.80171
G1 X111.418 Y95.362 E0.82795
G1 X111.621 Y96.125 E0.85421
G1 X111.746 Y96.905 E0.88048
G1 X111.792 Y97.734 E0.9081
G1 X111.8 Y102.224 E1.05744
G1 X111.761 Y103.013 E1.08371
G1 X111.643 Y103.794 E1.10998
G1 X111.447 Y104.558 E1.13622
G1 X111.174 Y105.3 E1.16251
G1 X110.794 Y106.069 E1.19104
G1 X110.319 Y106.83 E1.22088
G1 X109.832 Y107.452 E1.24715
G1 X109.284 Y108.02 E1.2734
G1 X108.681 Y108.531 E1.29969
G1 X107.857 Y109.081 E1.33264
G1 X103.972 Y111.332 E1.48198
G1 X103.27 Y111.693 E1.50824
G1 X102.535 Y111.981 E1.53449
G1 X101.774 Y112.193 E1.56077
G1 X100.996 Y112.327 E1.58703
G1 X100.062 Y112.383 E1.61815
G1 X99.166 Y112.343 E1.64798
G1 X98.386 Y112.224 E1.67422
G1 X97.621 Y112.026 E1.7005
G1 X96.881 Y111.752 E1.72675
G1 X96.07 Y111.346 E1.75691
G1 X92.176 Y109.109 E1.90628
G1 X91.512 Y108.682 E1.93254
G1 X90.894 Y108.189 E1.95883
G1 X90.33 Y107.637 E1.98508
G1 X89.824 Y107.03 E2.01136
G1 X89.267 Y106.177 E2.04524
G1 X88.861 Y105.376 E2.07511
G1 X88.582 Y104.638 E2.10135
G1 X88.379 Y103.875 E2.12761
G1 X88.254 Y103.095 E2.15389
G1 X88.208 Y102.266 E2.1815
G1 X88.2 Y97.776 E2.33084
G1 X88.239 Y96.987 E2.35712
G1 X88.357 Y96.206 E2.38339
G1 X88.553 Y95.442 E2.40962
G1 X88.826 Y94.7 E2.43592
G1 X89.206 Y93.931 E2.46445
G1 X89.681 Y93.17 E2.49428
G1 X90.168 Y92.548 E2.52056
G1 X90.716 Y91.98 E2.54681
G0 F3600 X91.034 Y92.231
G1 F900 X91.625 Y91.739 E2.57239
G1 X92.343 Y91.265 E2.601
G1 X96.228 Y89.014 E2.75034
G1 X96.913 Y88.664 E2.77592
G1 X97.63 Y88.386 E2.8015
G1 X98.372 Y88.185 E2.82707
G1 X99.132 Y88.061 E2.85268
G1 X99.938 Y88.017 E2.87953
G1 X100.813 Y88.057 E2.90866
G1 X101.573 Y88.176 E2.93425
G1 X102.316 Y88.374 E2.95982
G1 X103.035 Y88.648 E2.98541
G1 X103.731 Y89 E3.01136
G1 X107.625 Y91.237 E3.16072
G1 X108.271 Y91.655 E3.18631
G1 X108.871 Y92.137 E3.21191
G1 X109.417 Y92.679 E3.2375
G1 X109.903 Y93.274 E3.26305
G1 X110.385 Y94.02 E3.29259
G1 X110.78 Y94.802 E3.32173
G1 X111.05 Y95.523 E3.34734
G1 X111.242 Y96.267 E3.37289
G1 X111.357 Y97.028 E3.39849
G1 X111.392 Y97.735 E3.42204
G1 X111.4 Y102.225 E3.57137
G1 X111.361 Y102.993 E3.59695
G1 X111.243 Y103.753 E3.62253
G1 X111.047 Y104.497 E3.64812
G1 X110.774 Y105.216 E3.6737
G1 X110.446 Y105.872 E3.6981
G1 X109.981 Y106.616 E3.72728
G1 X109.504 Y107.219 E3.75285
G1 X108.966 Y107.769 E3.77844
G1 X108.375 Y108.261 E3.80401
G1 X107.657 Y108.735 E3.83263
G1 X103.772 Y110.986 E3.98197
G1 X103.087 Y111.336 E4.00755
G1 X102.37 Y111.614 E4.03313
G1 X101.628 Y111.815 E4.0587
G1 X100.868 Y111.939 E4.08431
G1 X100.062 Y111.983 E4.11116
G1 X99.187 Y111.943 E4.14029
G1 X98.427 Y111.824 E4.16588
G1 X97.684 Y111.626 E4.19145
G1 X96.965 Y111.352 E4.21704
G1 X96.269 Y111 E4.24299
G1 X92.375 Y108.763 E4.39235
G1 X91.729 Y108.345 E4.41794
G1 X91.129 Y107.863 E4.44354
G1 X90.583 Y107.321 E4.46913
G1 X90.097 Y106.726 E4.49468
G1 X89.615 Y105.98 E4.52422
G1 X89.22 Y105.198 E4.55336
G1 X88.95 Y104.477 E4.57897
G1 X88.758 Y103.733 E4.60452
G1 X88.643 Y102.972 E4.63012
G1 X88.608 Y102.265 E4.65367
G1 X88.6 Y97.775 E4.803
G1 X88.639 Y97.007 E4.82858
G1 X88.757 Y96.247 E4.85416
G1 X88.953 Y95.503 E4.87975
G1 X89.226 Y94.784 E4.90533
G1 X89.554 Y94.128 E4.92972
G1 X90.019 Y93.384 E4.95891
G1 X90.496 Y92.781 E4.98448
G1 X91.034 Y92.231 E5.01007
G0 F3600 X91.35 Y92.483
G1 F900 X91.931 Y92.011 E5.03496
G1 X92.544 Y91.611 E5.05931
G1 X96.429 Y89.36 E5.20865
G1 X97.095 Y89.02 E5.23352
G1 X97.794 Y88.753 E5.25841
G1 X98.517 Y88.563 E5.28327
G1 X99.257 Y88.45 E5.30817
G1 X99.938 Y88.417 E5.33084
G1 X100.792 Y88.457 E5.35928
G1 X101.53 Y88.576 E5.38414
G1 X102.252 Y88.774 E5.40904
G1 X102.948 Y89.047 E5.43391
G1 X103.532 Y89.347 E5.45575
G1 X107.426 Y91.584 E5.60511
G1 X108.054 Y91.991 E5.63
G1 X108.635 Y92.462 E5.65488
G1 X109.162 Y92.993 E5.67976
G1 X109.629 Y93.577 E5.70463
G1 X110.037 Y94.216 E5.72985
G1 X110.422 Y94.98 E5.7583
G1 X110.68 Y95.682 E5.78318
G1 X110.863 Y96.408 E5.80808
G1 X110.966 Y97.149 E5.83296
G1 X110.992 Y97.736 E5.85251
G1 X111 Y102.226 E6.00184
G1 X110.961 Y102.973 E6.02672
G1 X110.843 Y103.711 E6.05158
G1 X110.647 Y104.433 E6.07646
G1 X110.375 Y105.13 E6.10135
G1 X110.098 Y105.676 E6.12171
G1 X109.643 Y106.401 E6.15018
G1 X109.176 Y106.986 E6.17508
G1 X108.65 Y107.517 E6.19994
G1 X108.069 Y107.989 E6.22483
G1 X107.456 Y108.389 E6.24918
G1 X103.571 Y110.64 E6.39852
G1 X102.905 Y110.98 E6.42339
G1 X102.206 Y111.247 E6.44828
G1 X101.483 Y111.437 E6.47314
G1 X100.743 Y111.55 E6.49804
G1 X100.062 Y111.583 E6.52071
G1 X99.208 Y111.543 E6.54915
G1 X98.47 Y111.424 E6.57401
G1 X97.748 Y111.226 E6.59891
G1 X97.052 Y110.953 E6.62378
G1 X96.468 Y110.653 E6.64562
G1 X92.574 Y108.416 E6.79498
G1 X91.946 Y108.009 E6.81987
G1 X91.365 Y107.538 E6.84475
G1 X90.838 Y107.007 E6.86963
G1 X90.371 Y106.423 E6.8945
G1 X89.963 Y105.784 E6.91972
G1 X89.578 Y105.02 E6.94817
G1 X89.32 Y104.318 E6.97305
G1 X89.137 Y103.592 E6.99795
G1 X89.034 Y102.851 E7.02283
G1 X89.008 Y102.264 E7.04237
G1 X89 Y97.774 E7.19171
G1 X89.039 Y97.027 E7.21659
G1 X89.157 Y96.289 E7.24145
G1 X89.353 Y95.567 E7.26633
G1 X89.625 Y94.87 E7.29122
G1 X89.902 Y94.324 E7.31158
G1 X90.357 Y93.599 E7.34005
G1 X90.824 Y93.014 E7.36495
G1 X91.35 Y92.483 E7.38981
G0 F3600 X91.666 Y92.737
G1 F900 X92.235 Y92.285 E7.41398
G1 X92.744 Y91.957 E7.43412
G1 X96.629 Y89.706 E7.58345
G1 X97.277 Y89.377 E7.60763
G1 X97.957 Y89.121 E7.63179
G1 X98.66 Y88.942 E7.65592
G1 X99.38 Y88.841 E7.6801
G1 X99.938 Y88.817 E7.69868
G1 X100.77 Y88.857 E7.72638
G1 X101.487 Y88.976 E7.75056
G1 X102.186 Y89.174 E7.77472
G1 X102.859 Y89.447 E7.79888
G1 X103.333 Y89.694 E7.81665
G1 X107.227 Y91.931 E7.96602
G1 X107.836 Y92.327 E7.99018
G1 X108.397 Y92.787 E8.01431
G1 X108.905 Y93.307 E8.03849
G1 X109.353 Y93.879 E8.06265
G1 X109.688 Y94.412 E8.08359
G1 X110.063 Y95.158 E8.11136
G1 X110.31 Y95.841 E8.13552
G1 X110.482 Y96.546 E8.15965
G1 X110.574 Y97.267 E8.18383
G1 X110.592 Y97.736 E8.19944
G1 X110.6 Y102.226 E8.34878
G1 X110.561 Y102.952 E8.37296
G1 X110.443 Y103.668 E8.3971
G1 X110.247 Y104.368 E8.42127
G1 X109.975 Y105.041 E8.44542
G1 X109.696 Y105.574 E8.46543
G1 X109.305 Y106.186 E8.48958
G1 X108.849 Y106.751 E8.51373
G1 X108.334 Y107.263 E8.53788
G1 X107.765 Y107.715 E8.56205
G1 X107.256 Y108.043 E8.58219
G1 X103.371 Y110.294 E8.73153
G1 X102.723 Y110.623 E8.7557
G1 X102.043 Y110.879 E8.77987
G1 X101.34 Y111.058 E8.804
G1 X100.62 Y111.159 E8.82818
G1 X100.062 Y111.183 E8.84675
G1 X99.23 Y111.143 E8.87446
G1 X98.513 Y111.024 E8.89863
G1 X97.814 Y110.826 E8.9228
G1 X97.141 Y110.553 E8.94695
G1 X96.667 Y110.306 E8.96473
G1 X92.773 Y108.069 E9.11409
G1 X92.164 Y107.673 E9.13826
G1 X91.603 Y107.213 E9.16238
G1 X91.095 Y106.693 E9.18656
G1 X90.647 Y106.121 E9.21073
G1 X90.312 Y105.588 E9.23167
G1 X89.937 Y104.842 E9.25944
G1 X89.69 Y104.159 E9.28359
G1 X89.518 Y103.454 E9.30773
G1 X89.426 Y102.733 E9.33191
G1 X89.408 Y102.264 E9.34752
G1 X89.4 Y97.774 E9.49685
G1 X89.439 Y97.048 E9.52104
G1 X89.557 Y96.332 E9.54517
G1 X89.753 Y95.632 E9.56935
G1 X90.025 Y94.959 E9.59349
G1 X90.304 Y94.426 E9.6135
G1 X90.695 Y93.814 E9.63766
G1 X91.151 Y93.249 E9.66181
G1 X91.666 Y92.737 E9.68596
G0 F3600 X91.981 Y92.993
G1 F900 X92.537 Y92.561 E9.70938
G1 X92.945 Y92.303 E9.72543
G1 X96.83 Y90.052 E9.87477
G1 X97.458 Y89.735 E9.89817
G1 X98.118 Y89.49 E9.92158
G1 X98.802 Y89.322 E9.94501
G1 X99.5 Y89.232 E9.96842
G1 X100.045 Y89.217 E9.98655
G1 X100.748 Y89.257 E10.00997
G1 X101.442 Y89.376 E10.03339
G1 X102.117 Y89.574 E10.05679
G1 X102.766 Y89.846 E10.08019
G1 X103.133 Y90.041 E10.09401
G1 X107.027 Y92.278 E10.24338
G1 X107.617 Y92.663 E10.26681
G1 X108.159 Y93.112 E10.29022
G1 X108.647 Y93.62 E10.31365
G1 X109.074 Y94.179 E10.33705
G1 X109.34 Y94.609 E10.35386
G1 X109.703 Y95.335 E10.38086
G1 X109.94 Y95.998 E10.40428
G1 X110.1 Y96.683 E10.42767
G1 X110.181 Y97.383 E10.45111
G1 X110.2 Y102.227 E10.61223
G1 X110.161 Y102.93 E10.63564
G1 X110.043 Y103.624 E10.65906
G1 X109.847 Y104.3 E10.68247
G1 X109.576 Y104.95 E10.70589
G1 X109.348 Y105.377 E10.72199
G1 X108.968 Y105.97 E10.74542
G1 X108.523 Y106.515 E10.76882
G1 X108.019 Y107.007 E10.79224
G1 X107.463 Y107.439 E10.81566
G1 X107.055 Y107.697 E10.83172
G1 X103.17 Y109.948 E10.98106
G1 X102.542 Y110.265 E11.00445
G1 X101.882 Y110.51 E11.02787
G1 X101.198 Y110.678 E11.05129
G1 X100.5 Y110.768 E11.0747
G1 X99.955 Y110.783 E11.09284
G1 X99.252 Y110.743 E11.11626
G1 X98.558 Y110.624 E11.13968
G1 X97.883 Y110.426 E11.16307
G1 X97.234 Y110.154 E11.18648
G1 X96.867 Y109.959 E11.2003
G1 X92.973 Y107.722 E11.34966
G1 X92.383 Y107.337 E11.3731
G1 X91.841 Y106.888 E11.39651
G1 X91.353 Y106.38 E11.41993
G1 X90.926 Y105.821 E11.44333
G1 X90.66 Y105.391 E11.46015
G1 X90.297 Y104.665 E11.48714
G1 X90.06 Y104.002 E11.51056
G1 X89.9 Y103.317 E11.53396
G1 X89.819 Y102.617 E11.5574
G1 X89.8 Y97.773 E11.71851
G1 X89.839 Y97.07 E11.74193
G1 X89.957 Y96.376 E11.76534
G1 X90.153 Y95.7 E11.78875
G1 X90.424 Y95.05 E11.81217
G1 X90.652 Y94.623 E11.82827
G1 X91.032 Y94.03 E11.8517
G1 X91.477 Y93.485 E11.8751
G1 X91.981 Y92.993 E11.89853
G0 F3600 X92.294 Y93.251
G1 F900 X92.838 Y92.841 E11.92118
G1 X97.03 Y90.399 E12.08254
G1 X97.638 Y90.092 E12.1052
G1 X98.278 Y89.86 E12.12784
G1 X98.941 Y89.703 E12.1505
G1 X99.938 Y89.617 E12.18378
G1 X100.725 Y89.657 E12.20999
G1 X101.395 Y89.776 E12.23263
G1 X102.047 Y89.973 E12.25528
G1 X102.934 Y90.388 E12.28785
G1 X106.828 Y92.625 E12.43722
G1 X107.398 Y92.998 E12.45987
G1 X107.919 Y93.435 E12.48249
G1 X108.386 Y93.931 E12.50515
G1 X108.792 Y94.478 E12.52781
G1 X109.044 Y94.899 E12.54412
G1 X109.343 Y95.511 E12.56678
G1 X109.569 Y96.154 E12.58945
G1 X109.717 Y96.818 E12.61208
G1 X109.792 Y97.738 E12.64278
G1 X109.8 Y102.228 E12.79211
G1 X109.761 Y102.907 E12.81473
G1 X109.643 Y103.578 E12.83739
G1 X109.447 Y104.23 E12.86004
G1 X109.052 Y105.087 E12.89143
G1 X108.631 Y105.753 E12.91763
G1 X108.197 Y106.278 E12.94029
G1 X107.706 Y106.749 E12.96292
G1 X107.162 Y107.159 E12.98557
G1 X102.97 Y109.601 E13.14693
G1 X102.362 Y109.908 E13.16959
G1 X101.722 Y110.14 E13.19223
G1 X101.059 Y110.297 E13.21489
G1 X100.062 Y110.383 E13.24817
G1 X99.275 Y110.343 E13.27438
G1 X98.605 Y110.224 E13.29701
G1 X97.953 Y110.027 E13.31967
G1 X97.066 Y109.612 E13.35224
G1 X93.172 Y107.375 E13.5016
G1 X92.602 Y107.002 E13.52426
G1 X92.081 Y106.565 E13.54688
G1 X91.614 Y106.069 E13.56954
G1 X91.208 Y105.522 E13.59219
G1 X90.956 Y105.101 E13.60851
G1 X90.657 Y104.489 E13.63117
G1 X90.431 Y103.846 E13.65384
G1 X90.283 Y103.182 E13.67646
G1 X90.208 Y102.262 E13.70716
G1 X90.2 Y97.772 E13.8565
G1 X90.239 Y97.093 E13.87912
G1 X90.357 Y96.422 E13.90178
G1 X90.553 Y95.77 E13.92443
G1 X90.948 Y94.913 E13.95581
G1 X91.369 Y94.247 E13.98202
G1 X91.803 Y93.722 E14.00468
G1 X92.294 Y93.251 E14.02731
G0 F3600 X92.127 Y93.96
G1 F900 X92.607 Y93.511 E14.04917
G1 X93.346 Y92.996 E14.07912
G1 X97.231 Y90.745 E14.22846
G1 X97.818 Y90.45 E14.25031
G1 X98.437 Y90.23 E14.27216
G1 X99.078 Y90.086 E14.29401
G1 X99.938 Y90.017 E14.32271
G1 X100.701 Y90.057 E14.34812
G1 X101.347 Y90.176 E14.36997
G1 X101.974 Y90.373 E14.39183
G1 X102.735 Y90.735 E14.41986
G1 X106.629 Y92.972 E14.56922
G1 X107.178 Y93.333 E14.59108
G1 X107.678 Y93.758 E14.6129
G1 X108.124 Y94.241 E14.63477
G1 X108.643 Y95.002 E14.66541
G1 X108.983 Y95.687 E14.69084
G1 X109.196 Y96.308 E14.71268
G1 X109.333 Y96.951 E14.73454
G1 X109.392 Y97.738 E14.76079
G1 X109.4 Y102.228 E14.91013
G1 X109.361 Y102.884 E14.93199
G1 X109.243 Y103.53 E14.95383
G1 X109.047 Y104.158 E14.97571
G1 X108.704 Y104.89 E15.0026
G1 X108.294 Y105.536 E15.02805
G1 X107.873 Y106.04 E15.04989
G1 X107.393 Y106.489 E15.07175
G1 X106.654 Y107.004 E15.10171
G1 X102.769 Y109.255 E15.25105
G1 X102.182 Y109.55 E15.2729
G1 X101.563 Y109.77 E15.29475
G1 X100.922 Y109.914 E15.3166
G1 X100.062 Y109.983 E15.34529
G1 X99.299 Y109.943 E15.3707
G1 X98.653 Y109.824 E15.39255
G1 X98.026 Y109.627 E15.41441
G1 X97.265 Y109.265 E15.44244
G1 X93.371 Y107.028 E15.59181
G1 X92.822 Y106.667 E15.61366
G1 X92.322 Y106.242 E15.63548
G1 X91.876 Y105.759 E15.65735
G1 X91.357 Y104.998 E15.68799
G1 X91.017 Y104.313 E15.71342
G1 X90.804 Y103.692 E15.73526
G1 X90.667 Y103.049 E15.75713
G1 X90.608 Y102.262 E15.78337
G1 X90.6 Y97.772 E15.93271
G1 X90.639 Y97.116 E15.95457
G1 X90.757 Y96.47 E15.97641
G1 X90.953 Y95.842 E15.99829
G1 X91.296 Y95.11 E16.02518
G1 X91.706 Y94.464 E16.05063
G1 X92.127 Y93.96 E16.07247
G0 F3600 X92.451 Y94.2
G1 F900 X92.917 Y93.773 E16.09349
G1 X93.546 Y93.342 E16.11885
G1 X97.431 Y91.091 E16.26819
G1 X97.997 Y90.809 E16.28922
G1 X98.594 Y90.601 E16.31025
G1 X99.213 Y90.47 E16.33129
G1 X99.938 Y90.417 E16.35547
G1 X100.676 Y90.457 E16.38005
G1 X101.297 Y90.576 E16.40108
G1 X101.897 Y90.773 E16.42209
G1 X102.536 Y91.081 E16.44568
G1 X106.43 Y93.318 E16.59505
G1 X106.957 Y93.667 E16.61607
G1 X107.436 Y94.08 E16.63711
G1 X107.859 Y94.55 E16.65814
G1 X108.294 Y95.198 E16.6841
G1 X108.622 Y95.861 E16.7087
G1 X108.823 Y96.461 E16.72974
G1 X108.947 Y97.081 E16.75077
G1 X108.992 Y97.739 E16.77271
G1 X109 Y102.229 E16.92205
G1 X108.961 Y102.86 E16.94308
G1 X108.843 Y103.481 E16.9641
G1 X108.647 Y104.082 E16.98512
G1 X108.355 Y104.694 E17.00768
G1 X107.958 Y105.318 E17.03228
G1 X107.549 Y105.8 E17.0533
G1 X107.083 Y106.227 E17.07432
G1 X106.454 Y106.658 E17.09968
G1 X102.569 Y108.909 E17.24902
G1 X102.003 Y109.191 E17.27006
G1 X101.406 Y109.399 E17.29108
G1 X100.787 Y109.53 E17.31213
G1 X100.062 Y109.583 E17.3363
G1 X99.324 Y109.543 E17.36089
G1 X98.703 Y109.424 E17.38192
G1 X98.103 Y109.227 E17.40292
G1 X97.464 Y108.919 E17.42651
G1 X93.57 Y106.682 E17.57588
G1 X93.043 Y106.333 E17.5969
G1 X92.564 Y105.92 E17.61794
G1 X92.141 Y105.45 E17.63897
G1 X91.706 Y104.802 E17.66493
G1 X91.378 Y104.139 E17.68953
G1 X91.177 Y103.539 E17.71058
G1 X91.053 Y102.919 E17.73161
G1 X91.008 Y102.261 E17.75354
G1 X91 Y97.771 E17.90288
G1 X91.039 Y97.14 E17.92391
G1 X91.157 Y96.519 E17.94493
G1 X91.353 Y95.918 E17.96596
G1 X91.645 Y95.306 E17.98851
G1 X92.042 Y94.682 E18.01311
G1 X92.451 Y94.2 E18.03413
G0 F3600 X92.774 Y94.442
G1 F900 X93.226 Y94.039 E18.05428
G1 X93.747 Y93.688 E18.07517
G1 X97.632 Y91.437 E18.22451
G1 X98.175 Y91.168 E18.24466
G1 X98.749 Y90.973 E18.26483
G1 X99.344 Y90.855 E18.285
G1 X99.938 Y90.817 E18.3048
G1 X100.045 Y90.817 E18.30836
G1 X100.65 Y90.857 E18.32852
G1 X101.244 Y90.976 E18.34867
G1 X101.818 Y91.172 E18.36885
G1 X102.336 Y91.428 E18.38806
G1 X106.23 Y93.665 E18.53743
G1 X106.735 Y94.001 E18.5576
G1 X107.191 Y94.401 E18.57778
G1 X107.591 Y94.857 E18.59795
G1 X107.946 Y95.395 E18.61939
G1 X108.261 Y96.035 E18.64312
G1 X108.449 Y96.612 E18.6633
G1 X108.56 Y97.208 E18.68347
G1 X108.592 Y97.74 E18.70119
G1 X108.6 Y102.23 E18.85053
G1 X108.561 Y102.835 E18.87069
