;FLAVOR:Marlin
;TIME:1896
;Filament used: 2.72402m
;Layer height: 0.2
;MINX:51.83
;MINY:76.699
;MINZ:0.2
;MAXX:149.782
;MAXY:123.301
;MAXZ:6
;Generated with Cura_SteamEngine 4.6.1
M140 S60
M105
M190 S60
M104 S200
M105
M109 S200
M82 ;absolute extrusion mode
; START CODE
G21 ;metric values
G90 ;absolute positioning
M82 ;set extruder to absolute mode
M107 ;start with the fan off
G28 X0 Y0 ;move X/Y to min endstops
G28 Z0 ;move Z to min endstops
G1 Z15.0 F120 ;move the platform down 15mm
G92 E0 ;zero the extruded length
G1 F200 E6 ;extrude 6 mm of feed stock
G92 E0 ;zero the extruded length again
G1 F120
;Put printing message on LCD screen
M117 Printing...
G92 E0
G92 E0
G1 F2400 E-2.5
;LAYER_COUNT:30
;LAYER:0
M107
G0 F3600 X113.269 Y77.133 Z0.2
;TYPE:SKIRT
G1 F2400 E0
G1 F1500 X113.827 Y77.17 E0.0186
G1 X114.883 Y77.318 E0.05407
G1 X115.463 Y77.434 E0.07374
G1 X116.482 Y77.713 E0.10888
G1 X117.011 Y77.89 E0.12743
G1 X118.035 Y78.316 E0.16432
G1 X118.6 Y78.593 E0.18525
G1 X119.501 Y79.08 E0.21931
G1 X121.928 Y80.352 E0.31045
G1 X124.377 Y81.549 E0.40111
G1 X126.895 Y82.693 E0.4931
G1 X129.404 Y83.749 E0.58364
G1 X131.985 Y84.75 E0.67572
G1 X134.541 Y85.656 E0.76591
G1 X137.132 Y86.496 E0.8565
G1 X139.333 Y87.129 E0.93268
G1 X140.055 Y87.346 E0.95775
G1 X140.992 Y87.661 E0.99063
G1 X141.524 Y87.869 E1.00963
G1 X142.502 Y88.336 E1.04568
G1 X143.024 Y88.623 E1.06549
G1 X143.927 Y89.21 E1.10131
G1 X144.352 Y89.517 E1.11875
G1 X144.908 Y89.966 E1.14252
G1 X145.367 Y90.385 E1.16319
G1 X145.761 Y90.778 E1.1817
G1 X146.316 Y91.392 E1.20923
G1 X146.781 Y91.969 E1.23387
G1 X147.274 Y92.67 E1.26238
G1 X147.656 Y93.29 E1.2866
G1 X148.105 Y94.141 E1.3186
G1 X148.422 Y94.849 E1.3444
G1 X148.704 Y95.609 E1.37136
G1 X148.926 Y96.333 E1.39655
G1 X149.151 Y97.3 E1.42957
G1 X149.258 Y97.929 E1.45079
G1 X149.357 Y98.931 E1.48428
G1 X149.382 Y99.514 E1.50369
G1 X149.379 Y100.429 E1.53412
G1 X149.337 Y101.429 E1.56741
G1 X149.257 Y102.384 E1.59929
G1 X149.145 Y103.282 E1.62939
G1 X148.99 Y104.213 E1.66078
G1 X148.791 Y105.162 E1.69303
G1 X148.574 Y106.023 E1.72256
G1 X148.308 Y106.926 E1.75387
G1 X147.985 Y107.869 E1.78702
G1 X147.659 Y108.711 E1.81705
G1 X147.301 Y109.53 E1.84678
G1 X146.865 Y110.431 E1.88007
G1 X146.387 Y111.321 E1.91368
G1 X145.962 Y112.044 E1.94157
G1 X145.633 Y112.544 E1.96148
G1 X144.998 Y113.38 E1.99639
G1 X144.644 Y113.798 E2.01461
G1 X143.926 Y114.534 E2.04881
G1 X143.397 Y115.012 E2.07252
G1 X142.681 Y115.579 E2.1029
G1 X142.123 Y115.969 E2.12554
G1 X141.249 Y116.494 E2.15945
G1 X140.629 Y116.813 E2.18265
G1 X139.794 Y117.178 E2.21296
G1 X139.111 Y117.43 E2.23717
G1 X138.421 Y117.653 E2.26129
G1 X135.841 Y118.519 E2.3518
G1 X133.255 Y119.469 E2.44343
G1 X130.721 Y120.483 E2.53421
G1 X127.731 Y121.786 E2.64269
G1 X127.251 Y121.986 E2.65999
G1 X126.308 Y122.315 E2.69321
G1 X125.698 Y122.488 E2.7143
G1 X124.637 Y122.71 E2.75035
G1 X124.036 Y122.798 E2.77055
G1 X122.972 Y122.877 E2.80604
G1 X122.404 Y122.897 E2.82494
G1 X77.079 Y122.901 E4.33246
G1 X76.303 Y122.893 E4.35827
G1 X75.288 Y122.856 E4.39205
G1 X74.716 Y122.819 E4.41111
G1 X73.152 Y122.639 E4.46348
G1 X72.623 Y122.559 E4.48127
G1 X71.79 Y122.398 E4.50949
G1 X70.289 Y122.026 E4.56092
G1 X69.755 Y121.871 E4.57942
G1 X68.435 Y121.418 E4.62583
G1 X67.916 Y121.221 E4.6443
G1 X67.019 Y120.835 E4.67678
G1 X66.124 Y120.404 E4.70982
G1 X65.395 Y120.013 E4.73733
G1 X64.089 Y119.226 E4.78805
G1 X63.608 Y118.914 E4.80711
G1 X62.934 Y118.435 E4.83462
G1 X61.723 Y117.475 E4.88602
G1 X61.301 Y117.11 E4.90457
G1 X60.466 Y116.32 E4.94281
G1 X59.606 Y115.436 E4.98383
G1 X59.221 Y115.008 E5.00297
G1 X58.365 Y113.959 E5.048
G1 X58.019 Y113.5 E5.06712
G1 X57.23 Y112.345 E5.11365
G1 X56.934 Y111.882 E5.13192
G1 X56.429 Y111.007 E5.16552
G1 X55.98 Y110.15 E5.1977
G1 X55.564 Y109.261 E5.23035
G1 X55.254 Y108.524 E5.25694
G1 X54.166 Y105.591 E5.36099
G1 X53.14 Y103.054 E5.45201
G1 X52.937 Y102.589 E5.46889
G1 X52.524 Y101.605 E5.50438
G1 X52.353 Y101.069 E5.52309
G1 X52.299 Y100.829 E5.53127
G1 X52.227 Y100.329 E5.54808
G1 X52.231 Y99.713 E5.56856
G1 X52.285 Y99.211 E5.58536
G1 X52.441 Y98.635 E5.60521
G1 X52.548 Y98.338 E5.6157
G1 X53.106 Y97.005 E5.66377
G1 X53.925 Y94.998 E5.73587
G1 X54.913 Y92.387 E5.82872
G1 X55.352 Y91.265 E5.86879
G1 X55.727 Y90.407 E5.89993
G1 X56.259 Y89.317 E5.94027
G1 X56.526 Y88.822 E5.95898
G1 X57.108 Y87.854 E5.99655
G1 X57.627 Y87.061 E6.02807
G1 X58.211 Y86.248 E6.06136
G1 X58.787 Y85.514 E6.0924
G1 X59.428 Y84.764 E6.12521
G1 X60.235 Y83.896 E6.16463
G1 X60.658 Y83.477 E6.18443
G1 X61.657 Y82.577 E6.22915
G1 X62.073 Y82.224 E6.2473
G1 X62.731 Y81.712 E6.27503
G1 X63.982 Y80.838 E6.32579
G1 X64.455 Y80.534 E6.34449
G1 X65.154 Y80.129 E6.37136
G1 X65.52 Y79.937 E6.38511
G1 X66.048 Y79.717 E6.40413
G1 X66.861 Y79.481 E6.43229
G1 X67.349 Y79.387 E6.44882
G1 X68.136 Y79.324 E6.47508
G1 X68.856 Y79.35 E6.49904
G1 X69.592 Y79.444 E6.52372
G1 X72.309 Y79.776 E6.61476
G1 X75.063 Y80.035 E6.70676
G1 X77.769 Y80.211 E6.79695
G1 X80.524 Y80.313 E6.88865
G1 X83.275 Y80.338 E6.98015
G1 X85.993 Y80.284 E7.07057
G1 X88.709 Y80.154 E7.16101
G1 X91.451 Y79.945 E7.25247
G1 X94.195 Y79.657 E7.34424
G1 X96.914 Y79.295 E7.43547
G1 X99.577 Y78.861 E7.52521
G1 X102.288 Y78.342 E7.61701
G1 X105.848 Y77.538 E7.7384
G1 X107.192 Y77.208 E7.78443
G1 X107.885 Y77.117 E7.80768
G1 X108.531 Y77.103 E7.82917
G1 X109.172 Y77.1 E7.85049
G1 X111.567 Y77.099 E7.93015
G1 X113.269 Y77.133 E7.98677
G0 F3600 X113.278 Y76.733
G1 F1500 X113.858 Y76.772 E8.0061
G1 X114.941 Y76.922 E8.04247
G1 X115.546 Y77.043 E8.06299
G1 X116.59 Y77.328 E8.09898
G1 X117.141 Y77.512 E8.1183
G1 X118.191 Y77.947 E8.15611
G1 X118.781 Y78.236 E8.17796
G1 X119.648 Y78.705 E8.21074
G1 X122.124 Y80.003 E8.30372
G1 X124.54 Y81.184 E8.39317
G1 X127.05 Y82.324 E8.48486
G1 X129.567 Y83.383 E8.57568
G1 X132.115 Y84.372 E8.66659
G1 X134.65 Y85.27 E8.75604
G1 X137.256 Y86.115 E8.84715
G1 X139.443 Y86.744 E8.92284
G1 X140.17 Y86.963 E8.9481
G1 X141.12 Y87.282 E8.98143
G1 X141.673 Y87.498 E9.00117
G1 X142.677 Y87.976 E9.03816
G1 X143.22 Y88.275 E9.05878
G1 X144.147 Y88.876 E9.09552
G1 X144.589 Y89.195 E9.11365
G1 X145.165 Y89.66 E9.13827
G1 X145.638 Y90.091 E9.15956
G1 X146.058 Y90.51 E9.17929
G1 X146.613 Y91.124 E9.20682
G1 X147.095 Y91.721 E9.23234
G1 X147.603 Y92.442 E9.26167
G1 X147.998 Y93.082 E9.28668
G1 X148.46 Y93.957 E9.3196
G1 X148.788 Y94.689 E9.34627
G1 X149.08 Y95.472 E9.37407
G1 X149.31 Y96.218 E9.40003
G1 X149.542 Y97.213 E9.43401
G1 X149.653 Y97.866 E9.45605
G1 X149.756 Y98.894 E9.49041
G1 X149.782 Y99.501 E9.51062
G1 X149.779 Y100.432 E9.54158
G1 X149.736 Y101.447 E9.57537
G1 X149.656 Y102.419 E9.60781
G1 X149.542 Y103.332 E9.63841
G1 X149.384 Y104.28 E9.67038
G1 X149.183 Y105.245 E9.70316
G1 X148.962 Y106.122 E9.73324
G1 X148.691 Y107.04 E9.76508
G1 X148.363 Y107.999 E9.79879
G1 X148.032 Y108.856 E9.82934
G1 X147.667 Y109.691 E9.85965
G1 X147.224 Y110.606 E9.89347
G1 X146.739 Y111.511 E9.92762
G1 X146.306 Y112.248 E9.95605
G1 X145.952 Y112.786 E9.97747
G1 X145.317 Y113.622 E10.01238
G1 X144.946 Y114.06 E10.03148
G1 X144.211 Y114.815 E10.06652
G1 X143.662 Y115.312 E10.09115
G1 X142.927 Y115.894 E10.12233
G1 X142.349 Y116.299 E10.14581
G1 X141.452 Y116.839 E10.18063
G1 X140.809 Y117.171 E10.2047
G1 X139.952 Y117.546 E10.23581
G1 X139.246 Y117.806 E10.26084
G1 X138.543 Y118.034 E10.28542
G1 X135.938 Y118.909 E10.37682
G1 X133.393 Y119.844 E10.467
G1 X130.875 Y120.851 E10.55719
G1 X127.891 Y122.152 E10.66546
G1 X127.405 Y122.356 E10.683
G1 X126.437 Y122.693 E10.71709
G1 X125.804 Y122.874 E10.73898
G1 X124.716 Y123.102 E10.77596
G1 X124.089 Y123.194 E10.79703
G1 X122.999 Y123.276 E10.83339
G1 X122.497 Y123.295 E10.8501
G1 X77.079 Y123.301 E12.36071
G1 X76.298 Y123.293 E12.38669
G1 X75.273 Y123.255 E12.4208
G1 X74.689 Y123.218 E12.44026
G1 X73.105 Y123.036 E12.49329
G1 X72.561 Y122.954 E12.51159
G1 X71.713 Y122.79 E12.54032
G1 X70.192 Y122.415 E12.59242
G1 X69.625 Y122.249 E12.61207
G1 X68.305 Y121.796 E12.65849
G1 X67.773 Y121.595 E12.6774
G1 X66.859 Y121.202 E12.7105
G1 X65.95 Y120.764 E12.74406
G1 X65.205 Y120.365 E12.77216
G1 X63.882 Y119.568 E12.82354
G1 X63.389 Y119.249 E12.84307
G1 X62.701 Y118.76 E12.87114
G1 X61.473 Y117.787 E12.92325
G1 X61.026 Y117.4 E12.94292
G1 X60.191 Y116.61 E12.98115
G1 X59.319 Y115.714 E13.02273
G1 X58.911 Y115.261 E13.04301
G1 X58.055 Y114.212 E13.08804
G1 X57.688 Y113.726 E13.1083
G1 X56.899 Y112.571 E13.15482
G1 X56.596 Y112.097 E13.17353
G1 X56.082 Y111.206 E13.20774
G1 X55.625 Y110.335 E13.24046
G1 X55.201 Y109.43 E13.2737
G1 X54.885 Y108.677 E13.30086
G1 X53.796 Y105.744 E13.40492
G1 X52.762 Y103.186 E13.49669
G1 X52.156 Y101.76 E13.54822
G1 X51.963 Y101.157 E13.56928
G1 X51.83 Y100.387 E13.59527
G1 X51.831 Y99.702 E13.61805
G1 X51.886 Y99.169 E13.63587
G1 X52.059 Y98.517 E13.65831
G1 X52.179 Y98.184 E13.67008
G1 X52.737 Y96.851 E13.71815
G1 X53.552 Y94.854 E13.78988
G1 X54.539 Y92.246 E13.88263
G1 X54.979 Y91.12 E13.92284
G1 X55.361 Y90.246 E13.95456
G1 X55.9 Y89.141 E13.99546
G1 X56.183 Y88.616 E14.01529
G1 X56.765 Y87.648 E14.05286
G1 X57.293 Y86.84 E14.08496
G1 X57.887 Y86.014 E14.1188
G1 X58.473 Y85.266 E14.15041
G1 X59.124 Y84.503 E14.18377
G1 X59.943 Y83.623 E14.22375
G1 X60.39 Y83.179 E14.2447
G1 X61.389 Y82.279 E14.28943
G1 X61.816 Y81.918 E14.30802
G1 X62.487 Y81.396 E14.3363
G1 X63.754 Y80.509 E14.38774
G1 X64.254 Y80.188 E14.4075
G1 X64.953 Y79.783 E14.43437
G1 X65.338 Y79.581 E14.44883
G1 X65.909 Y79.342 E14.46942
G1 X66.755 Y79.095 E14.49873
G1 X67.304 Y78.99 E14.51732
G1 X67.685 Y78.947 E14.53008
G1 X68.142 Y78.924 E14.5453
G1 X68.901 Y78.953 E14.57056
G1 X69.664 Y79.049 E14.59614
G1 X72.358 Y79.379 E14.68641
G1 X75.091 Y79.636 E14.77771
G1 X77.773 Y79.811 E14.8671
G1 X80.542 Y79.914 E14.95926
G1 X83.271 Y79.938 E15.05003
G1 X85.967 Y79.884 E15.13972
G1 X88.693 Y79.754 E15.23049
G1 X91.45 Y79.544 E15.32246
G1 X94.137 Y79.262 E15.41232
G1 X96.834 Y78.902 E15.50281
G1 X99.509 Y78.467 E15.59295
G1 X102.215 Y77.949 E15.68459
G1 X105.775 Y77.144 E15.80599
G1 X107.097 Y76.82 E15.85126
G1 X107.876 Y76.717 E15.87739
G1 X108.522 Y76.703 E15.89888
G1 X109.171 Y76.7 E15.92047
G1 X111.566 Y76.699 E16.00013
G1 X113.278 Y76.733 E16.05708
G1 F2400 E13.55708
;MESH:DoorHook_5_-_hook_3.stl
G0 F3600 X113.155 Y79.655
G0 X113.105 Y80.94
G0 X130.975 Y92.327
G0 X137.557 Y92.508
G0 X138.802 Y92.801
G0 X139.956 Y93.355
G0 X140.966 Y94.142
G0 X141.782 Y95.126
G0 X142.368 Y96.262
G0 X142.696 Y97.488
G0 X142.883 Y99.555
G0 X142.809 Y101.618
G0 X142.476 Y103.659
G0 X141.888 Y105.642
G0 X141.054 Y107.534
G0 X140.083 Y109.149
G0 X139.216 Y110.072
G0 X138.175 Y110.789
G0 X137.008 Y111.27
G0 X125.217 Y115.572
G0 X123.985 Y115.85
G0 X122.724 Y115.861
G0 X121.498 Y115.607
G0 X119.505 Y114.821
G0 X109.698 Y109.569
;TYPE:WALL-INNER
G1 F2400 E16.05708
G1 F1500 X109.714 Y109.534 E16.05836
G1 X109.747 Y109.466 E16.06087
G1 X109.798 Y109.359 E16.06482
G1 X109.863 Y109.478 E16.0661
G1 X109.895 Y109.536 E16.06656
G1 X109.965 Y109.653 E16.06964
G1 X109.907 Y109.658
G1 X109.83 Y109.666 E16.06993
G1 X109.71 Y109.679 E16.072
G1 X109.624 Y109.689 E16.07395
G1 X109.698 Y109.569 E16.07567
G0 F3600 X109.762 Y108.507
G1 F1500 X109.776 Y108.466 E16.07711
G1 X109.789 Y108.493
G1 X109.854 Y108.623 E16.08166
G1 X109.979 Y108.853 E16.09036
G1 X110.242 Y109.337 E16.10869
G1 X110.482 Y109.734 E16.12412
G1 X110.615 Y109.955 E16.13269
G1 X110.637 Y109.992 E16.13413
G1 X110.553 Y109.993 E16.13524
G1 X110.297 Y110.019 E16.14083
G1 X109.24 Y110.131 E16.17618
G1 X108.913 Y110.165 E16.18712
G1 X108.836 Y110.174 E16.18969
G1 X108.904 Y110.087 E16.19076
G1 X109.078 Y109.808 E16.19774
G1 X109.347 Y109.376 E16.21466
G1 X109.621 Y108.802 E16.23582
G1 X109.733 Y108.566 E16.24192
G1 X109.762 Y108.507
G0 F3600 X116.195 Y116.628
G1 F1500 X116.225 Y116.439 E16.24828
G1 X116.288 Y116.042 E16.26165
G1 X116.331 Y115.764 E16.27101
G1 X116.333 Y115.751 E16.27145
G1 X116.356 Y115.767 E16.27181
G1 X116.595 Y115.915 E16.27752
G1 X117.053 Y116.199 E16.29544
G1 X117.269 Y116.318 E16.30364
G1 X117.77 Y116.591 E16.32262
G1 X117.984 Y116.699 E16.33059
G1 X117.77 Y116.699 E16.33136
G1 X117.199 Y116.699 E16.34364
G1 X116.387 Y116.699 E16.37065
G1 X116.195 Y116.699 E16.37505
G1 X116.164 Y116.699 E16.37608
G1 X116.195 Y116.628 E16.37722
G0 F3600 X111.743 Y112.615
G0 X110.695 Y112.354
G0 X76.301 Y113.935
G0 X74.502 Y113.793
G0 X72.735 Y113.418
G0 X71.031 Y112.819
G0 X69.42 Y112.004
G0 X67.927 Y110.989
G0 X66.579 Y109.787
G0 X65.397 Y108.423
G0 X64.401 Y106.915
G0 X60.26 Y98.605
G1 F1500 X60.255 Y98.698 E16.38032
G1 X60.216 Y99.311 E16.40075
G1 X60.204 Y100.008 E16.42393
G1 X60.216 Y100.71 E16.44729
G1 X60.255 Y101.306 E16.46715
G1 X60.262 Y101.418 E16.47088
G1 X60.339 Y102.119 E16.49434
G1 X60.448 Y102.813 E16.5177
G1 X60.583 Y103.504 E16.54112
G1 X60.748 Y104.183 E16.56436
G1 X60.913 Y104.761 E16.58436
G1 X60.944 Y104.868 E16.58806
G1 X61.173 Y105.537 E16.61158
G1 X61.425 Y106.19 E16.63486
G1 X61.676 Y106.764 E16.6557
G1 X61.705 Y106.83 E16.65809
G1 X61.95 Y107.34 E16.67691
G1 X62.011 Y107.466 E16.68157
G1 X62.353 Y108.09 E16.70523
G1 X62.71 Y108.689 E16.72843
G1 X63.027 Y109.169 E16.74756
G1 X63.102 Y109.283 E16.7521
G1 X63.52 Y109.851 E16.77555
G1 X63.896 Y110.329 E16.79578
G1 X63.952 Y110.4 E16.79879
G1 X64.414 Y110.934 E16.82228
G1 X64.805 Y111.348 E16.84122
G1 X64.897 Y111.445 E16.84566
G1 X65.32 Y111.858 E16.86532
G1 X65.399 Y111.935 E16.86899
G1 X65.925 Y112.401 E16.89237
G1 X66.363 Y112.761 E16.91122
G1 X66.475 Y112.853 E16.91604
G1 X67.041 Y113.272 E16.93947
G1 X67.621 Y113.668 E16.96283
G1 X68.222 Y114.04 E16.98633
G1 X68.836 Y114.383 E17.00973
G1 X69.461 Y114.699 E17.03302
G1 X70.098 Y114.991 E17.05633
G1 X70.763 Y115.257 E17.08015
G1 X71.426 Y115.485 E17.10347
G1 X72.097 Y115.69 E17.1268
G1 X72.774 Y115.864 E17.15005
G1 X73.465 Y116.013 E17.17356
G1 X74.165 Y116.13 E17.19717
G1 X74.346 Y116.152 E17.20323
G1 X74.367 Y116.557 E17.21672
G1 X74.293 Y116.547
G1 X74.111 Y116.522 E17.22278
G1 X73.795 Y116.477 E17.23339
G1 X73.394 Y116.404 E17.24695
G1 X73.192 Y116.367 E17.25378
G1 X72.686 Y116.253 E17.27103
G1 X72.448 Y116.198 E17.27916
G1 X71.993 Y116.075 E17.29483
G1 X71.767 Y116.013 E17.30263
G1 X71.305 Y115.865 E17.31876
G1 X71.027 Y115.775 E17.32848
G1 X70.627 Y115.628 E17.34266
G1 X70.442 Y115.56 E17.34921
G1 X69.948 Y115.355 E17.367
G1 X69.763 Y115.278 E17.37367
G1 X69.293 Y115.058 E17.39093
G1 X69.133 Y114.982 E17.39682
G1 X68.655 Y114.734 E17.41473
G1 X68.419 Y114.611 E17.42358
G1 X68.024 Y114.383 E17.43875
G1 X67.903 Y114.313 E17.4434
G1 X67.411 Y114.002 E17.46276
G1 X67.219 Y113.881 E17.47031
G1 X66.814 Y113.597 E17.48676
G1 X66.685 Y113.507 E17.49199
G1 X66.237 Y113.165 E17.51074
G1 X66.111 Y113.068 E17.51595
G1 X65.674 Y112.704 E17.53463
G1 X65.522 Y112.578 E17.5412
G1 X65.135 Y112.228 E17.55856
G1 X65.042 Y112.144 E17.56269
G1 X64.62 Y111.727 E17.58225
G1 X64.515 Y111.623 E17.58713
G1 X64.125 Y111.204 E17.60602
G1 X64.009 Y111.079 E17.61169
G1 X63.651 Y110.655 E17.63015
G1 X63.584 Y110.576 E17.63356
G1 X63.208 Y110.097 E17.65366
G1 X63.088 Y109.944 E17.66013
G1 X62.781 Y109.512 E17.67776
G1 X62.694 Y109.39 E17.6827
G1 X62.379 Y108.906 E17.70176
G1 X62.311 Y108.802 E17.70589
G1 X62.01 Y108.294 E17.72553
G1 X61.981 Y108.245 E17.72743
G1 X61.664 Y107.652 E17.74979
G1 X61.59 Y107.514 E17.75495
G1 X61.344 Y107.006 E17.7737
G1 X61.305 Y106.925 E17.77669
G1 X61.058 Y106.348 E17.79754
G1 X61.028 Y106.279 E17.80004
G1 X60.8 Y105.68 E17.82136
G1 X60.765 Y105.589 E17.8246
G1 X60.569 Y104.992 E17.8455
G1 X60.529 Y104.872 E17.84967
G1 X60.365 Y104.292 E17.86965
G1 X60.337 Y104.193 E17.87307
G1 X60.198 Y103.605 E17.89316
G1 X60.194 Y103.58 E17.89401
G1 X60.059 Y102.889 E17.91719
G1 X60.017 Y102.674 E17.92447
G1 X59.947 Y102.175 E17.94123
G1 X59.918 Y101.978 E17.94786
G1 X59.867 Y101.457 E17.96527
G1 X59.856 Y101.344 E17.96903
G1 X59.849 Y101.278 E17.97123
G1 X59.762 Y99.994 E18.01404
G1 X59.849 Y98.727 E18.05628
G1 X59.856 Y98.662 E18.05845
G1 X59.864 Y98.568 E18.06158
G1 X59.912 Y98.066 E18.07835
