;FLAVOR:Marlin
;TIME:3126
;Filament used: 1.57964m
;Layer height: 0.2
;MINX:31.497
;MINY:86.9
;MINZ:0.2
;MAXX:170.599
;MAXY:113.1
;MAXZ:4.4
;Generated with Cura_SteamEngine 4.7.1
M140 S60
M105
M190 S60
M104 S200
M105
M109 S200
M82 ;absolute extrusion mode
G21 ;metric values
 G90 ;absolute positioning
 M82 ;set extruder to absolute mode
 M107 ;start with the fan off
 G28 X0 Y0 ;move X/Y to min endstops
 G28 Z0 ;move Z to min endstops
 G1 Z15.0 F120 ;move the platform down 15mm
 G92 E0 ;zero the extruded length
 G1 F200 E6 ;extrude 6 mm of feed stock
 G92 E0 ;zero the extruded length again
 G1 F120 
 ;Put printing message on LCD screen
 M117 Printing...
G92 E0
G92 E0
G1 F2400 E-2.5
;LAYER_COUNT:22
;LAYER:0
M107
G0 F3600 X42.295 Y88.496 Z0.2
;TYPE:SKIRT
G1 F2400 E0
G1 F900 X43.185 Y88.109 E0.03228
G1 X44.049 Y87.752 E0.06337
G1 X44.679 Y87.501 E0.08593
G1 X45.19 Y87.34 E0.10375
G1 X45.473 Y87.285 E0.11334
G1 X46.503 Y87.13 E0.14798
G1 X47.411 Y87.012 E0.17843
G1 X48.074 Y86.935 E0.20063
G1 X48.692 Y86.903 E0.22122
G1 X48.806 Y86.901 E0.22501
G1 X166.093 Y86.9 E4.12599
G1 X166.845 Y86.91 E4.151
G1 X167.38 Y86.958 E4.16887
G1 X167.901 Y87.084 E4.1867
G1 X168.397 Y87.287 E4.20452
G1 X168.858 Y87.561 E4.22236
G1 X169.313 Y87.938 E4.24201
G1 X169.508 Y88.129 E4.25109
G1 X169.862 Y88.532 E4.26893
G1 X170.153 Y88.983 E4.28678
G1 X170.373 Y89.472 E4.30462
G1 X170.518 Y89.988 E4.32244
G1 X170.589 Y90.645 E4.34442
G1 X170.599 Y91.293 E4.36598
G1 X170.599 Y108.644 E4.94308
G1 X170.589 Y109.346 E4.96643
G1 X170.541 Y109.88 E4.98426
G1 X170.415 Y110.402 E5.00212
G1 X170.212 Y110.898 E5.01994
G1 X169.938 Y111.359 E5.03778
G1 X169.554 Y111.821 E5.05776
G1 X169.362 Y112.016 E5.06686
G1 X168.959 Y112.369 E5.08468
G1 X168.507 Y112.658 E5.10253
G1 X168.017 Y112.877 E5.12038
G1 X167.501 Y113.021 E5.1382
G1 X166.85 Y113.09 E5.15997
G1 X166.177 Y113.1 E5.18236
G1 X49.154 Y113.1 E9.07456
G1 X48.456 Y113.09 E9.09778
G1 X47.937 Y113.052 E9.11508
G1 X47.546 Y113.005 E9.12818
G1 X46.243 Y112.833 E9.1719
G1 X45.558 Y112.734 E9.19492
G1 X45.034 Y112.618 E9.21277
G1 X44.753 Y112.52 E9.22266
G1 X43.799 Y112.144 E9.25677
G1 X43.009 Y111.815 E9.28523
G1 X42.328 Y111.521 E9.3099
G1 X41.789 Y111.232 E9.33025
G1 X40.96 Y110.691 E9.36317
G1 X40.481 Y110.368 E9.38239
G1 X38.156 Y108.896 E9.47391
G1 X35.806 Y107.5 E9.56482
G1 X33.349 Y106.131 E9.65837
G1 X32.902 Y105.834 E9.67622
G1 X32.503 Y105.475 E9.69407
G1 X32.163 Y105.061 E9.71189
G1 X31.888 Y104.601 E9.72972
G1 X31.684 Y104.105 E9.74755
G1 X31.556 Y103.584 E9.7654
G1 X31.499 Y102.766 E9.79267
G1 X31.497 Y97.663 E9.9624
G1 X31.507 Y96.956 E9.98591
G1 X31.555 Y96.422 E10.00375
G1 X31.681 Y95.901 E10.02158
G1 X31.884 Y95.404 E10.03943
G1 X32.157 Y94.943 E10.05725
G1 X32.497 Y94.528 E10.0751
G1 X33.11 Y94.012 E10.10175
G1 X33.363 Y93.856 E10.11163
G1 X34.372 Y93.293 E10.15006
G1 X34.91 Y93.001 E10.17042
G1 X37.28 Y91.627 E10.26154
G1 X39.63 Y90.176 E10.3534
G1 X40.911 Y89.345 E10.40418
G1 X41.747 Y88.793 E10.4375
G1 X42.295 Y88.496 E10.45823
G0 F3600 X42.454 Y88.863
G1 F900 X43.338 Y88.479 E10.49029
G1 X44.197 Y88.123 E10.52122
G1 X44.827 Y87.872 E10.54377
G1 X45.533 Y87.681 E10.5681
G1 X46.555 Y87.527 E10.60247
G1 X47.457 Y87.409 E10.63273
G1 X48.12 Y87.332 E10.65493
G1 X48.705 Y87.303 E10.67441
G1 X48.806 Y87.301 E10.67777
G1 X166.093 Y87.3 E14.57875
G1 X166.84 Y87.31 E14.6036
G1 X167.343 Y87.357 E14.6204
G1 X167.833 Y87.483 E14.63723
G1 X168.296 Y87.685 E14.65403
G1 X168.723 Y87.957 E14.67087
G1 X169.228 Y88.415 E14.69355
G1 X169.56 Y88.796 E14.71035
G1 X169.828 Y89.225 E14.72718
G1 X170.025 Y89.69 E14.74397
G1 X170.147 Y90.181 E14.7608
G1 X170.189 Y90.652 E14.77653
G1 X170.199 Y91.3 E14.79808
G1 X170.199 Y108.639 E15.37478
G1 X170.189 Y109.341 E15.39813
G1 X170.142 Y109.844 E15.41494
G1 X170.016 Y110.334 E15.43176
G1 X169.814 Y110.797 E15.44856
G1 X169.543 Y111.224 E15.46539
G1 X169.077 Y111.735 E15.48839
G1 X168.695 Y112.066 E15.5052
G1 X168.266 Y112.333 E15.52201
G1 X167.8 Y112.529 E15.53882
G1 X167.308 Y112.649 E15.55566
G1 X166.845 Y112.69 E15.57112
G1 X166.172 Y112.7 E15.59351
G1 X49.16 Y112.7 E19.48534
G1 X48.462 Y112.69 E19.50856
G1 X47.881 Y112.644 E19.52795
G1 X47.599 Y112.609 E19.5374
G1 X46.3 Y112.437 E19.58098
G1 X45.615 Y112.338 E19.604
G1 X44.9 Y112.148 E19.62861
G1 X43.953 Y111.774 E19.66247
G1 X43.168 Y111.448 E19.69074
G1 X42.487 Y111.154 E19.71541
G1 X42.008 Y110.897 E19.73349
G1 X41.183 Y110.359 E19.76625
G1 X40.697 Y110.031 E19.78575
G1 X38.368 Y108.557 E19.87743
G1 X36.01 Y107.156 E19.96865
G1 X33.544 Y105.781 E20.06256
G1 X33.124 Y105.5 E20.07937
G1 X32.753 Y105.157 E20.09617
G1 X32.441 Y104.759 E20.11299
G1 X32.196 Y104.317 E20.1298
G1 X32.023 Y103.842 E20.14662
G1 X31.927 Y103.346 E20.16342
G1 X31.899 Y102.755 E20.1831
G1 X31.897 Y97.669 E20.35226
G1 X31.907 Y96.962 E20.37578
G1 X31.954 Y96.458 E20.39261
G1 X32.08 Y95.969 E20.40941
G1 X32.281 Y95.505 E20.42623
G1 X32.553 Y95.079 E20.44304
G1 X32.889 Y94.701 E20.45986
G1 X33.332 Y94.344 E20.47878
G1 X33.558 Y94.206 E20.48759
G1 X34.562 Y93.645 E20.52584
G1 X35.095 Y93.356 E20.54601
G1 X37.485 Y91.971 E20.63788
G1 X39.825 Y90.525 E20.72937
G1 X41.153 Y89.664 E20.78201
G1 X41.154 Y89.665 E20.78206
G1 X41.968 Y89.127 E20.81451
G1 X42.454 Y88.863 E20.83291
G1 F2400 E18.33291
;MESH:dd3d_-_Samsung_Remote_Battery_Lid_v2.stl
G0 F3600 X41.443 Y92.706
G0 X42.225 Y93.724
G0 X40.003 Y97.683
G0 X39.948 Y97.6
;TYPE:WALL-INNER
G1 F2400 E20.83291
G1 F900 X40.796 Y95.554 E20.90657
G1 X42.211 Y93.71 E20.98388
G1 X44.056 Y92.295 E21.06121
G1 X46.197 Y91.407 E21.1383
G1 X48.539 Y91.1 E21.21687
G1 X166.399 Y91.1 E25.1369
G1 X166.399 Y108.9 E25.72894
G1 X48.539 Y108.9 E29.64897
G1 X46.197 Y108.591 E29.72755
G1 X44.056 Y107.703 E29.80464
G1 X42.211 Y106.288 E29.88197
G1 X40.796 Y104.443 E29.95931
G1 X39.948 Y102.398 E30.03294
G1 X39.627 Y102.398 E30.04362
G1 X39.393 Y100.629 E30.10296
G1 X39.394 Y99.372 E30.14477
G1 X39.627 Y97.6 E30.20422
G1 X39.948 Y97.6 E30.21489
G0 F3600 X39.681 Y97.2
;TYPE:WALL-OUTER
G1 F900 X40.295 Y95.715 E30.26834
G1 X40.447 Y95.351 E30.28146
G1 X41.926 Y93.425 E30.36223
G1 X43.852 Y91.947 E30.44297
G1 X46.096 Y91.016 E30.52378
G1 X48.51 Y90.7 E30.60475
G1 X166.718 Y90.7 E34.53637
G1 X166.799 Y90.781 E34.54018
G1 X166.799 Y109.218 E35.1534
G1 X166.717 Y109.3 E35.15725
G1 X48.51 Y109.3 E39.08883
G1 X46.096 Y108.982 E39.16982
G1 X43.852 Y108.051 E39.25062
G1 X41.926 Y106.573 E39.33137
G1 X40.448 Y104.647 E39.41212
G1 X39.681 Y102.798 E39.47869
G1 X39.354 Y102.798 E39.48957
G1 X39.24 Y102.524 E39.49944
G1 X38.993 Y100.658 E39.56205
G1 X38.994 Y99.343 E39.60578
G1 X39.24 Y97.472 E39.66855
G1 X39.353 Y97.2 E39.67834
G1 X39.681 Y97.2 E39.68925
G0 F3600 X39.757 Y97.016
G0 X39.968 Y97.99
;TYPE:SKIN
G1 F900 X40.209 Y97.99 E39.69727
G1 X41.138 Y95.751 E39.7779
G1 X42.49 Y93.989 E39.85176
G1 X44.253 Y92.637 E39.92566
G1 X46.305 Y91.785 E39.99956
G1 X48.56 Y91.49 E40.0752
G1 X166.009 Y91.49 E43.98157
G1 X166.009 Y108.51 E44.54766
G1 X48.56 Y108.51 E48.45402
G1 X46.305 Y108.213 E48.52967
G1 X44.253 Y107.361 E48.60357
G1 X42.49 Y106.009 E48.67747
G1 X41.138 Y104.246 E48.75136
G1 X40.209 Y102.008 E48.83196
G1 X39.968 Y102.008 E48.83997
G1 X39.783 Y100.608 E48.88694
G1 X39.784 Y99.393 E48.92735
G1 X39.968 Y97.99 E48.97442
G0 F3600 X44.459 Y107.25
G1 F900 X41.246 Y104.038 E49.12552
G1 X41.176 Y103.968
G0 F3600 X40.846 Y103.071
G1 F900 X45.425 Y107.651 E49.34093
G1 X45.495 Y107.721
G0 F3600 X46.38 Y108.04
G1 F900 X40.445 Y102.104 E49.62012
G1 X40.375 Y102.034
G0 F3600 X40.032 Y101.126
G1 F900 X47.032 Y108.126 E49.94937
G0 F3600 X47.683 Y108.212
G1 F900 X39.962 Y100.491 E50.31255
G0 F3600 X39.963 Y99.926
G1 F900 X48.335 Y108.298 E50.70634
G0 F3600 X48.932 Y108.329
G1 F900 X39.968 Y99.365 E51.12798
G0 F3600 X40.033 Y98.864
G1 F900 X49.498 Y108.329 E51.57318
G0 F3600 X50.063 Y108.329
G1 F900 X40.099 Y98.364 E52.04188
G0 F3600 X40.37 Y98.07
G1 F900 X50.629 Y108.329 E52.52444
G0 F3600 X51.195 Y108.329
G1 F900 X40.536 Y97.67 E53.0258
G0 F3600 X40.702 Y97.271
G1 F900 X51.76 Y108.329 E53.54594
G0 F3600 X52.326 Y108.329
G1 F900 X40.868 Y96.871 E54.08489
G0 F3600 X41.034 Y96.471
G1 F900 X52.892 Y108.329 E54.64265
G0 F3600 X53.457 Y108.329
G1 F900 X41.2 Y96.071 E55.2192
G0 F3600 X41.399 Y95.705
G1 F900 X54.023 Y108.329 E55.813
G0 F3600 X54.589 Y108.329
G1 F900 X41.645 Y95.385 E56.42185
G0 F3600 X41.891 Y95.065
G1 F900 X55.155 Y108.329 E57.04574
G0 F3600 X55.72 Y108.329
G1 F900 X42.136 Y94.745 E57.68469
G0 F3600 X42.381 Y94.424
G1 F900 X56.286 Y108.329 E58.33874
G0 F3600 X56.852 Y108.329
G1 F900 X42.63 Y94.108 E59.00768
G0 F3600 X42.951 Y93.862
G1 F900 X57.417 Y108.329 E59.68814
G0 F3600 X57.983 Y108.329
G1 F900 X43.271 Y93.617 E60.38014
G0 F3600 X43.591 Y93.372
G1 F900 X58.549 Y108.329 E61.0837
G0 F3600 X59.114 Y108.329
G1 F900 X43.911 Y93.125 E61.79883
G0 F3600 X44.231 Y92.88
G1 F900 X59.68 Y108.329 E62.5255
G0 F3600 X60.246 Y108.329
G1 F900 X44.603 Y92.686 E63.2613
G0 F3600 X45.003 Y92.52
G1 F900 X60.811 Y108.329 E64.00488
G0 F3600 X61.377 Y108.329
G1 F900 X45.403 Y92.355 E64.75625
G0 F3600 X45.802 Y92.189
G1 F900 X61.943 Y108.329 E65.51545
G0 F3600 X62.508 Y108.329
G1 F900 X46.202 Y92.022 E66.28246
G0 F3600 X46.664 Y91.918
G1 F900 X63.074 Y108.329 E67.05436
G0 F3600 X63.64 Y108.329
G1 F900 X47.164 Y91.853 E67.82934
G0 F3600 X47.664 Y91.788
G1 F900 X64.206 Y108.329 E68.6074
G0 F3600 X64.771 Y108.329
G1 F900 X48.165 Y91.723 E69.38849
G0 F3600 X48.677 Y91.67
G1 F900 X65.337 Y108.329 E70.17211
G0 F3600 X65.903 Y108.329
G1 F900 X49.243 Y91.67 E70.95572
G0 F3600 X49.809 Y91.67
G1 F900 X66.468 Y108.329 E71.73931
G0 F3600 X67.034 Y108.329
G1 F900 X50.374 Y91.67 E72.52292
G0 F3600 X50.94 Y91.67
G1 F900 X67.6 Y108.329 E73.30653
G0 F3600 X68.165 Y108.329
G1 F900 X51.506 Y91.67 E74.09012
G0 F3600 X52.072 Y91.67
G1 F900 X68.731 Y108.329 E74.87371
G0 F3600 X69.297 Y108.329
G1 F900 X52.637 Y91.67 E75.65732
G0 F3600 X53.203 Y91.67
G1 F900 X69.862 Y108.329 E76.44091
G0 F3600 X70.428 Y108.329
G1 F900 X53.769 Y91.67 E77.22449
G0 F3600 X54.334 Y91.67
G1 F900 X70.994 Y108.329 E78.00811
G0 F3600 X71.559 Y108.329
G1 F900 X54.9 Y91.67 E78.79169
G0 F3600 X55.466 Y91.67
G1 F900 X72.125 Y108.329 E79.57528
G0 F3600 X72.691 Y108.329
G1 F900 X56.031 Y91.67 E80.35889
G0 F3600 X56.597 Y91.67
G1 F900 X73.256 Y108.329 E81.14248
G0 F3600 X73.822 Y108.329
G1 F900 X57.163 Y91.67 E81.92607
G0 F3600 X57.728 Y91.67
G1 F900 X74.388 Y108.329 E82.70968
G0 F3600 X74.954 Y108.329
G1 F900 X58.294 Y91.67 E83.49329
G0 F3600 X58.86 Y91.67
G1 F900 X75.519 Y108.329 E84.27688
G0 F3600 X76.085 Y108.329
G1 F900 X59.425 Y91.67 E85.06049
G0 F3600 X59.991 Y91.67
G1 F900 X76.651 Y108.329 E85.84411
G0 F3600 X77.216 Y108.329
G1 F900 X60.557 Y91.67 E86.62769
G0 F3600 X61.123 Y91.67
G1 F900 X77.782 Y108.329 E87.41128
G0 F3600 X78.348 Y108.329
G1 F900 X61.688 Y91.67 E88.19489
G0 F3600 X62.254 Y91.67
G1 F900 X78.913 Y108.329 E88.97848
G0 F3600 X79.479 Y108.329
G1 F900 X62.82 Y91.67 E89.76207
G0 F3600 X63.385 Y91.67
G1 F900 X80.045 Y108.329 E90.54568
G0 F3600 X80.61 Y108.329
G1 F900 X63.951 Y91.67 E91.32927
G0 F3600 X64.517 Y91.67
G1 F900 X81.176 Y108.329 E92.11286
G0 F3600 X81.742 Y108.329
G1 F900 X65.082 Y91.67 E92.89647
G0 F3600 X65.648 Y91.67
G1 F900 X82.307 Y108.329 E93.68006
G0 F3600 X82.873 Y108.329
G1 F900 X66.214 Y91.67 E94.46365
G0 F3600 X66.779 Y91.67
G1 F900 X83.439 Y108.329 E95.24726
G0 F3600 X84.004 Y108.329
G1 F900 X67.345 Y91.67 E96.03085
G0 F3600 X67.911 Y91.67
G1 F900 X84.57 Y108.329 E96.81444
G0 F3600 X85.136 Y108.329
G1 F900 X68.476 Y91.67 E97.59805
G0 F3600 X69.042 Y91.67
G1 F900 X85.702 Y108.329 E98.38166
G0 F3600 X86.267 Y108.329
G1 F900 X69.608 Y91.67 E99.16525
G0 F3600 X70.173 Y91.67
G1 F900 X86.833 Y108.329 E99.94886
G0 F3600 X87.399 Y108.329
G1 F900 X70.739 Y91.67 E100.73247
G0 F3600 X71.305 Y91.67
G1 F900 X87.964 Y108.329 E101.51606
G0 F3600 X88.53 Y108.329
G1 F900 X71.871 Y91.67 E102.29965
G0 F3600 X72.436 Y91.67
G1 F900 X89.096 Y108.329 E103.08326
G0 F3600 X89.661 Y108.329
G1 F900 X73.002 Y91.67 E103.86685
G0 F3600 X73.568 Y91.67
G1 F900 X90.227 Y108.329 E104.65044
G0 F3600 X90.793 Y108.329
G1 F900 X74.133 Y91.67 E105.43405
G0 F3600 X74.699 Y91.67
G1 F900 X91.358 Y108.329 E106.21764
G0 F3600 X91.924 Y108.329
G1 F900 X75.265 Y91.67 E107.00122
G0 F3600 X75.83 Y91.67
G1 F900 X92.49 Y108.329 E107.78484
G0 F3600 X93.055 Y108.329
G1 F900 X76.396 Y91.67 E108.56843
G0 F3600 X76.962 Y91.67
G1 F900 X93.621 Y108.329 E109.35201
G0 F3600 X94.187 Y108.329
G1 F900 X77.527 Y91.67 E110.13563
G0 F3600 X78.093 Y91.67
G1 F900 X94.753 Y108.329 E110.91924
G0 F3600 X95.318 Y108.329
G1 F900 X78.659 Y91.67 E111.70283
G0 F3600 X79.224 Y91.67
G1 F900 X95.884 Y108.329 E112.48644
G0 F3600 X96.45 Y108.329
G1 F900 X79.79 Y91.67 E113.27005
G0 F3600 X80.356 Y91.67
G1 F900 X97.015 Y108.329 E114.05364
G0 F3600 X97.581 Y108.329
G1 F900 X80.922 Y91.67 E114.83723
G0 F3600 X81.487 Y91.67
G1 F900 X98.147 Y108.329 E115.62084
G0 F3600 X98.712 Y108.329
G1 F900 X82.053 Y91.67 E116.40443
G0 F3600 X82.619 Y91.67
G1 F900 X99.278 Y108.329 E117.18801
G0 F3600 X99.844 Y108.329
G1 F900 X83.184 Y91.67 E117.97163
G0 F3600 X83.75 Y91.67
G1 F900 X100.409 Y108.329 E118.75521
G0 F3600 X100.975 Y108.329
G1 F900 X84.316 Y91.67 E119.5388
G0 F3600 X84.881 Y91.67
G1 F900 X101.541 Y108.329 E120.32241
G0 F3600 X102.106 Y108.329
G1 F900 X85.447 Y91.67 E121.106
G0 F3600 X86.013 Y91.67
G1 F900 X102.672 Y108.329 E121.88959
G0 F3600 X103.238 Y108.329
G1 F900 X86.578 Y91.67 E122.6732
G0 F3600 X87.144 Y91.67
G1 F900 X103.803 Y108.329 E123.45679
G0 F3600 X104.369 Y108.329
G1 F900 X87.71 Y91.67 E124.24038
G0 F3600 X88.275 Y91.67
G1 F900 X104.935 Y108.329 E125.02399
G0 F3600 X105.501 Y108.329
G1 F900 X88.841 Y91.67 E125.8076
G0 F3600 X89.407 Y91.67
G1 F900 X106.066 Y108.329 E126.59119
G0 F3600 X106.632 Y108.329
G1 F900 X89.972 Y91.67 E127.3748
G0 F3600 X90.538 Y91.67
G1 F900 X107.198 Y108.329 E128.15841
G0 F3600 X107.763 Y108.329
G1 F900 X91.104 Y91.67 E128.942
G0 F3600 X91.67 Y91.67
G1 F900 X108.329 Y108.329 E129.72559
G0 F3600 X108.895 Y108.329
G1 F900 X92.235 Y91.67 E130.5092
G0 F3600 X92.801 Y91.67
G1 F900 X109.46 Y108.329 E131.29279
G0 F3600 X110.026 Y108.329
G1 F900 X93.367 Y91.67 E132.07638
G0 F3600 X93.932 Y91.67
G1 F900 X110.592 Y108.329 E132.85999
G0 F3600 X111.157 Y108.329
G1 F900 X94.498 Y91.67 E133.64358
G0 F3600 X95.064 Y91.67
G1 F900 X111.723 Y108.329 E134.42717
G0 F3600 X112.289 Y108.329
G1 F900 X95.629 Y91.67 E135.21078
G0 F3600 X96.195 Y91.67
G1 F900 X112.854 Y108.329 E135.99437
G0 F3600 X113.42 Y108.329
G1 F900 X96.761 Y91.67 E136.77796
G0 F3600 X97.326 Y91.67
G1 F900 X113.986 Y108.329 E137.56157
G0 F3600 X114.552 Y108.329
G1 F900 X97.892 Y91.67 E138.34518
G0 F3600 X98.458 Y91.67
G1 F900 X115.117 Y108.329 E139.12877
G0 F3600 X115.683 Y108.329
G1 F900 X99.023 Y91.67 E139.91238
G0 F3600 X99.589 Y91.67
G1 F900 X116.249 Y108.329 E140.69599
G0 F3600 X116.814 Y108.329
G1 F900 X100.155 Y91.67 E141.47958
G0 F3600 X100.72 Y91.67
G1 F900 X117.38 Y108.329 E142.26319
G0 F3600 X117.946 Y108.329
G1 F900 X101.286 Y91.67 E143.0468
G0 F3600 X101.852 Y91.67
G1 F900 X118.511 Y108.329 E143.83039
G0 F3600 X119.077 Y108.329
G1 F900 X102.418 Y91.67 E144.61398
G0 F3600 X102.983 Y91.67
G1 F900 X119.643 Y108.329 E145.39759
G0 F3600 X120.208 Y108.329
G1 F900 X103.549 Y91.67 E146.18118
G0 F3600 X104.115 Y91.67
G1 F900 X120.774 Y108.329 E146.96477
G0 F3600 X121.34 Y108.329
G1 F900 X104.68 Y91.67 E147.74838
G0 F3600 X105.246 Y91.67
G1 F900 X121.905 Y108.329 E148.53197
G0 F3600 X122.471 Y108.329
G1 F900 X105.812 Y91.67 E149.31556
G0 F3600 X106.377 Y91.67
G1 F900 X123.037 Y108.329 E150.09917
G0 F3600 X123.602 Y108.329
G1 F900 X106.943 Y91.67 E150.88276
G0 F3600 X107.509 Y91.67
G1 F900 X124.168 Y108.329 E151.66635
G0 F3600 X124.734 Y108.329
G1 F900 X108.074 Y91.67 E152.44996
G0 F3600 X108.64 Y91.67
G1 F900 X125.3 Y108.329 E153.23357
G0 F3600 X125.865 Y108.329
G1 F900 X109.206 Y91.67 E154.01716
G0 F3600 X109.771 Y91.67
G1 F900 X126.431 Y108.329 E154.80077
G0 F3600 X126.997 Y108.329
G1 F900 X110.337 Y91.67 E155.58438
G0 F3600 X110.903 Y91.67
