;FLAVOR:Marlin
;TIME:4041
;Filament used: 3.73038m
;Layer height: 0.2
;Generated with Cura_SteamEngine 3.6.0
M140 S60
M105
M190 S60
M104 S205
M105
M109 S205
M82 ;absolute extrusion mode
G21 ;metric values
G90 ;absolute positioning
M82 ;set extruder to absolute mode
M107 ;start with the fan off
G28 X0 Y0 ;move X/Y to min endstops
G28 Z0 ;move Z to min endstops
G1 Z15.0 F120 ;move the platform down 15mm
G92 E0 ;zero the extruded length
G1 F200 E6 ;extrude 6 mm of feed stock
G92 E0 ;zero the extruded length again
M117 Printing...
G1 F120
G92 E0
G1 F2400 E-2.5
;LAYER_COUNT:21
;LAYER:0
M107
G0 F3600 X25.063 Y34.238 Z0.2
;TYPE:SKIRT
G1 F2400 E0
G1 F1500 X25.609 Y33.873 E0.02184
G1 X29.945 Y31.514 E0.18602
G1 X34.4 Y28.801 E0.35951
G1 X34.877 Y28.557 E0.37733
G1 X35.138 Y28.459 E0.3866
G1 X35.62 Y28.299 E0.40349
G1 X36.14 Y28.169 E0.42132
G1 X36.854 Y28.117 E0.44513
G1 X41.168 Y28.236 E0.58867
G1 X47.374 Y28.13 E0.79511
G1 X47.91 Y28.16 E0.81297
G1 X48.335 Y28.243 E0.82737
G1 X52.067 Y29.205 E0.95556
G1 X54.74 Y29.804 E1.04666
G1 X57.375 Y30.313 E1.13593
G1 X62.779 Y31.125 E1.31768
G1 X68.221 Y31.632 E1.49947
G1 X73.677 Y31.829 E1.68105
G1 X79.12 Y31.717 E1.86212
G1 X84.546 Y31.298 E2.04313
G1 X89.997 Y30.565 E2.22606
G1 X92.627 Y30.098 E2.31491
G1 X97.416 Y29.125 E2.47744
G1 X97.827 Y29.066 E2.49125
G1 X99.212 Y28.948 E2.53749
G1 X99.569 Y28.935 E2.54937
G1 X100.915 Y28.954 E2.59414
G1 X101.264 Y28.976 E2.60577
G1 X102.658 Y29.132 E2.65243
G1 X103.009 Y29.189 E2.66425
G1 X104.299 Y29.464 E2.70812
G1 X104.68 Y29.567 E2.72125
G1 X106.48 Y30.163 E2.78431
G1 X106.995 Y30.38 E2.8029
G1 X108.964 Y31.393 E2.87655
G1 X109.35 Y31.623 E2.89149
G1 X110.481 Y32.397 E2.93708
G1 X110.761 Y32.609 E2.94876
G1 X111.806 Y33.485 E2.99411
G1 X112.062 Y33.722 E3.00571
G1 X113.018 Y34.696 E3.05111
G1 X113.254 Y34.962 E3.06293
G1 X114.121 Y36.04 E3.10895
G1 X114.329 Y36.325 E3.12068
G1 X115.063 Y37.447 E3.16528
G1 X115.223 Y37.718 E3.17574
G1 X118.69 Y44.191 E3.41997
G1 X121.542 Y48.816 E3.6007
G1 X124.662 Y53.291 E3.78214
G1 X128.034 Y57.587 E3.96378
G1 X131.636 Y61.676 E4.14503
G1 X135.482 Y65.574 E4.32716
G1 X140.341 Y70.016 E4.54612
G1 X140.467 Y70.137 E4.55193
G1 X142.605 Y72.291 E4.65287
G1 X142.765 Y72.463 E4.66069
G1 X145.52 Y75.628 E4.80025
G1 X145.676 Y75.82 E4.80848
G1 X147.828 Y78.664 E4.9271
G1 X147.96 Y78.85 E4.93468
G1 X149.661 Y81.422 E5.03725
G1 X149.782 Y81.619 E5.04494
G1 X151.824 Y85.185 E5.18161
G1 X151.94 Y85.405 E5.18988
G1 X153.536 Y88.7 E5.31165
G1 X153.629 Y88.909 E5.31926
G1 X154.776 Y91.72 E5.42024
G1 X154.84 Y91.888 E5.42622
G1 X155.711 Y94.369 E5.51368
G1 X155.779 Y94.586 E5.52124
G1 X156.919 Y98.638 E5.66124
G1 X156.978 Y98.878 E5.66946
G1 X157.713 Y102.404 E5.78926
G1 X157.75 Y102.613 E5.79632
G1 X158.147 Y105.303 E5.88676
G1 X158.17 Y105.493 E5.89312
G1 X158.451 Y108.49 E5.99324
G1 X158.466 Y108.726 E6.0011
G1 X158.583 Y112.916 E6.14052
G1 X158.581 Y113.161 E6.14867
G1 X158.437 Y116.738 E6.26774
G1 X158.421 Y116.964 E6.27527
G1 X158.104 Y120.025 E6.37762
G1 X158.072 Y120.259 E6.38548
G1 X157.365 Y124.408 E6.52547
G1 X157.32 Y124.63 E6.533
G1 X156.7 Y127.258 E6.62281
G1 X156.649 Y127.45 E6.62941
G1 X155.642 Y130.861 E6.7477
G1 X155.577 Y131.06 E6.75467
G1 X154.662 Y133.605 E6.84462
G1 X154.591 Y133.785 E6.85106
G1 X153.403 Y136.604 E6.9528
G1 X153.306 Y136.816 E6.96056
G1 X151.468 Y140.493 E7.09728
G1 X151.35 Y140.709 E7.10547
G1 X149.507 Y143.84 E7.22631
G1 X149.389 Y144.029 E7.23372
G1 X147.709 Y146.517 E7.33357
G1 X147.569 Y146.709 E7.34147
G1 X144.975 Y150.051 E7.48218
G1 X144.815 Y150.243 E7.49049
G1 X142.43 Y152.912 E7.60954
G1 X142.274 Y153.076 E7.61707
G1 X140.076 Y155.244 E7.71975
G1 X139.905 Y155.402 E7.7275
G1 X136.804 Y158.089 E7.86397
G1 X136.613 Y158.243 E7.87213
G1 X133.699 Y160.438 E7.99347
G1 X133.513 Y160.569 E8.00104
G1 X131.017 Y162.213 E8.10045
G1 X130.818 Y162.335 E8.10821
G1 X127.2 Y164.395 E8.24668
G1 X126.983 Y164.509 E8.25484
G1 X123.724 Y166.081 E8.37518
G1 X123.529 Y166.169 E8.3823
G1 X121.001 Y167.208 E8.4732
G1 X120.834 Y167.272 E8.47915
G1 X118.309 Y168.166 E8.56824
G1 X118.125 Y168.225 E8.57467
G1 X115.148 Y169.103 E8.6779
G1 X114.925 Y169.161 E8.68556
G1 X110.93 Y170.065 E8.8218
G1 X110.709 Y170.108 E8.82929
G1 X107.999 Y170.546 E8.92059
G1 X107.8 Y170.572 E8.92727
G1 X104.237 Y170.945 E9.04642
G1 X104.015 Y170.962 E9.05382
G1 X101.025 Y171.089 E9.15336
G1 X100.789 Y171.091 E9.16121
G1 X96.59 Y170.994 E9.30091
G1 X96.341 Y170.98 E9.3092
G1 X92.729 Y170.645 E9.42985
G1 X92.508 Y170.617 E9.43726
G1 X89.547 Y170.157 E9.53693
G1 X89.314 Y170.113 E9.54481
G1 X85.211 Y169.195 E9.68465
G1 X84.972 Y169.133 E9.69287
G1 X81.499 Y168.101 E9.81337
G1 X81.283 Y168.029 E9.82094
G1 X78.445 Y166.987 E9.9215
G1 X78.23 Y166.9 E9.92921
G1 X74.475 Y165.239 E10.06578
G1 X74.254 Y165.133 E10.07393
G1 X71.009 Y163.425 E10.1959
G1 X70.809 Y163.311 E10.20355
G1 X68.221 Y161.73 E10.30442
G1 X68.025 Y161.601 E10.31223
G1 X64.626 Y159.207 E10.4505
G1 X64.431 Y159.06 E10.45862
G1 X61.643 Y156.798 E10.57804
G1 X61.473 Y156.651 E10.58551
G1 X59.246 Y154.601 E10.68619
G1 X59.077 Y154.435 E10.69406
G1 X56.199 Y151.414 E10.83284
G1 X56.034 Y151.228 E10.84111
G1 X53.7 Y148.412 E10.96276
G1 X53.563 Y148.235 E10.9702
G1 X51.806 Y145.824 E11.06943
G1 X51.673 Y145.629 E11.07728
G1 X49.41 Y142.054 E11.218
G1 X49.283 Y141.837 E11.22637
G1 X47.572 Y138.662 E11.34633
G1 X47.472 Y138.462 E11.35376
G1 X46.202 Y135.71 E11.45457
G1 X46.13 Y135.543 E11.46062
G1 X45.143 Y133.084 E11.54875
G1 X45.065 Y132.871 E11.55629
G1 X43.752 Y128.89 E11.69572
G1 X43.683 Y128.653 E11.70393
G1 X42.794 Y125.171 E11.82345
G1 X42.747 Y124.962 E11.83058
G1 X42.234 Y122.305 E11.92058
G1 X42.203 Y122.119 E11.92686
G1 X41.784 Y119.106 E12.02803
G1 X41.77 Y118.987 E12.03202
G1 X40.952 Y111.213 E12.29201
G1 X40.047 Y105.838 E12.4733
G1 X38.839 Y100.529 E12.65439
G1 X38.128 Y97.911 E12.74462
G1 X36.47 Y92.702 E12.92644
G1 X34.526 Y87.611 E13.10769
G1 X32.288 Y82.621 E13.28958
G1 X29.79 Y77.799 E13.47021
G1 X27.002 Y73.089 E13.65225
G1 X24.041 Y68.667 E13.82925
G1 X23.854 Y68.355 E13.84135
G1 X22.327 Y65.486 E13.94945
G1 X18.761 Y59.535 E14.1802
G1 X18.52 Y59.056 E14.19803
G1 X18.409 Y58.745 E14.20901
G1 X18.266 Y58.281 E14.22516
G1 X18.146 Y57.758 E14.24301
G1 X18.108 Y57.087 E14.26536
G1 X18.215 Y54.209 E14.36115
G1 X18.129 Y46.613 E14.61381
G1 X18.163 Y46.078 E14.63164
G1 X18.276 Y45.553 E14.6495
G1 X18.466 Y45.052 E14.66733
G1 X18.641 Y44.722 E14.67975
G1 X21.852 Y39.362 E14.88757
G1 X23.83 Y35.689 E15.02632
G1 X24.119 Y35.237 E15.04416
G1 X24.343 Y34.967 E15.05583
G1 X24.673 Y34.606 E15.0721
G1 X25.063 Y34.238 E15.08993
G0 F3600 X25.338 Y34.531
G1 F1500 X25.8 Y34.224 E15.10838
G1 X30.157 Y31.853 E15.27336
G1 X34.608 Y29.143 E15.44669
G1 X35.264 Y28.839 E15.47073
G1 X35.746 Y28.679 E15.48762
G1 X36.237 Y28.558 E15.50444
G1 X36.842 Y28.517 E15.52461
G1 X41.141 Y28.636 E15.66765
G1 X47.381 Y28.529 E15.87523
G1 X47.886 Y28.561 E15.89206
G1 X48.235 Y28.63 E15.90389
G1 X51.969 Y29.593 E16.03215
G1 X54.681 Y30.201 E16.12459
G1 X57.309 Y30.708 E16.21361
G1 X62.738 Y31.524 E16.3962
G1 X68.186 Y32.031 E16.57819
G1 X73.671 Y32.229 E16.76074
G1 X79.124 Y32.117 E16.94214
G1 X84.611 Y31.694 E17.12518
G1 X90.028 Y30.965 E17.30698
G1 X92.738 Y30.483 E17.39853
G1 X97.496 Y29.517 E17.56001
G1 X97.861 Y29.465 E17.57227
G1 X99.246 Y29.347 E17.6185
G1 X99.563 Y29.335 E17.62905
G1 X100.909 Y29.354 E17.67383
G1 X101.22 Y29.374 E17.68419
G1 X102.614 Y29.53 E17.73085
G1 X102.925 Y29.58 E17.74132
G1 X104.215 Y29.855 E17.78519
G1 X104.554 Y29.947 E17.79688
G1 X106.354 Y30.543 E17.85994
G1 X106.812 Y30.735 E17.87646
G1 X108.781 Y31.748 E17.95011
G1 X109.124 Y31.953 E17.9634
G1 X110.255 Y32.727 E18.00898
G1 X110.504 Y32.916 E18.01938
G1 X111.549 Y33.792 E18.06473
G1 X111.777 Y34.002 E18.07504
G1 X112.733 Y34.976 E18.12043
G1 X112.943 Y35.212 E18.13094
G1 X113.81 Y36.29 E18.17695
G1 X113.994 Y36.544 E18.18738
G1 X114.728 Y37.666 E18.23198
G1 X114.871 Y37.907 E18.2413
G1 X118.34 Y44.384 E18.48568
G1 X121.217 Y49.05 E18.668
G1 X124.343 Y53.533 E18.84977
G1 X127.727 Y57.844 E19.03205
G1 X131.342 Y61.948 E19.21396
G1 X135.199 Y65.858 E19.39663
G1 X140.071 Y70.311 E19.61616
G1 X140.183 Y70.419 E19.62134
G1 X142.321 Y72.573 E19.72228
G1 X142.464 Y72.726 E19.72924
G1 X145.219 Y75.891 E19.86881
G1 X145.357 Y76.061 E19.87609
G1 X147.509 Y78.905 E19.99471
G1 X147.626 Y79.071 E20.00146
G1 X149.327 Y81.643 E20.10402
G1 X149.435 Y81.818 E20.11086
G1 X151.477 Y85.384 E20.24754
G1 X151.58 Y85.579 E20.25487
G1 X153.176 Y88.874 E20.37665
G1 X153.259 Y89.06 E20.38342
G1 X154.406 Y91.871 E20.4844
G1 X154.462 Y92.02 E20.48969
G1 X155.333 Y94.501 E20.57715
G1 X155.394 Y94.694 E20.58388
G1 X156.534 Y98.746 E20.72388
G1 X156.587 Y98.96 E20.73121
G1 X157.322 Y102.486 E20.85101
G1 X157.355 Y102.672 E20.85729
G1 X157.752 Y105.362 E20.94773
G1 X157.772 Y105.53 E20.95336
G1 X158.053 Y108.527 E21.05348
G1 X158.066 Y108.737 E21.06048
G1 X158.183 Y112.927 E21.19989
G1 X158.181 Y113.145 E21.20714
G1 X158.037 Y116.722 E21.32621
G1 X158.023 Y116.923 E21.33291
G1 X157.706 Y119.984 E21.43526
G1 X157.678 Y120.192 E21.44224
G1 X156.971 Y124.341 E21.58223
G1 X156.93 Y124.538 E21.58892
G1 X156.31 Y127.166 E21.67873
G1 X156.265 Y127.337 E21.68461
G1 X155.258 Y130.748 E21.8029
G1 X155.2 Y130.925 E21.8091
G1 X154.285 Y133.47 E21.89905
G1 X154.223 Y133.63 E21.90476
G1 X153.035 Y136.449 E22.0065
G1 X152.948 Y136.637 E22.01339
G1 X151.11 Y140.314 E22.15012
G1 X151.006 Y140.506 E22.15738
G1 X149.163 Y143.637 E22.27822
G1 X149.057 Y143.805 E22.28483
G1 X147.377 Y146.293 E22.38468
G1 X147.253 Y146.464 E22.3917
G1 X144.659 Y149.806 E22.53241
G1 X144.517 Y149.976 E22.53978
G1 X142.132 Y152.645 E22.65883
G1 X141.993 Y152.791 E22.66553
G1 X139.795 Y154.959 E22.76822
G1 X139.644 Y155.099 E22.77507
G1 X136.543 Y157.786 E22.91154
G1 X136.372 Y157.924 E22.91885
G1 X133.458 Y160.119 E23.04019
G1 X133.293 Y160.235 E23.0469
G1 X130.797 Y161.879 E23.1463
G1 X130.62 Y161.988 E23.15322
G1 X127.002 Y164.048 E23.29169
G1 X126.809 Y164.149 E23.29894
G1 X123.55 Y165.721 E23.41928
G1 X123.376 Y165.799 E23.42562
G1 X120.848 Y166.838 E23.51653
G1 X120.7 Y166.895 E23.5218
G1 X118.175 Y167.789 E23.61089
G1 X118.012 Y167.841 E23.61659
G1 X115.035 Y168.719 E23.71982
G1 X114.836 Y168.771 E23.72666
G1 X110.841 Y169.675 E23.86289
G1 X110.646 Y169.713 E23.8695
G1 X107.936 Y170.151 E23.9608
G1 X107.758 Y170.175 E23.96678
G1 X104.195 Y170.548 E24.08593
G1 X103.998 Y170.562 E24.0925
G1 X101.008 Y170.689 E24.19204
G1 X100.798 Y170.691 E24.19902
G1 X96.599 Y170.594 E24.33872
G1 X96.377 Y170.581 E24.34612
G1 X92.765 Y170.246 E24.46677
G1 X92.57 Y170.222 E24.4733
G1 X89.609 Y169.762 E24.57297
G1 X89.401 Y169.723 E24.58
G1 X85.298 Y168.805 E24.71984
G1 X85.086 Y168.749 E24.72714
G1 X81.613 Y167.717 E24.84764
G1 X81.421 Y167.654 E24.85436
G1 X78.583 Y166.612 E24.95492
G1 X78.391 Y166.534 E24.96181
G1 X74.636 Y164.873 E25.09837
G1 X74.441 Y164.779 E25.10557
G1 X71.196 Y163.071 E25.22754
G1 X71.018 Y162.97 E25.23435
G1 X68.43 Y161.389 E25.33522
G1 X68.255 Y161.274 E25.34218
G1 X64.856 Y158.88 E25.48046
G1 X64.683 Y158.749 E25.48768
G1 X61.895 Y156.487 E25.60709
G1 X61.744 Y156.356 E25.61374
G1 X59.517 Y154.306 E25.71441
G1 X59.367 Y154.159 E25.7214
G1 X56.489 Y151.138 E25.86017
G1 X56.342 Y150.973 E25.86752
G1 X54.008 Y148.157 E25.98917
G1 X53.886 Y148 E25.99578
G1 X52.129 Y145.589 E26.09501
G1 X52.011 Y145.416 E26.10197
G1 X49.748 Y141.841 E26.2427
G1 X49.635 Y141.647 E26.25017
G1 X47.924 Y138.472 E26.37013
G1 X47.835 Y138.295 E26.37671
G1 X46.565 Y135.543 E26.47752
G1 X46.501 Y135.394 E26.48292
G1 X45.514 Y132.935 E26.57105
G1 X45.445 Y132.745 E26.57777
G1 X44.132 Y128.764 E26.71719
G1 X44.07 Y128.554 E26.72448
G1 X43.181 Y125.072 E26.844
G1 X43.14 Y124.887 E26.8503
G1 X42.627 Y122.23 E26.94031
G1 X42.6 Y122.064 E26.9459
G1 X42.181 Y119.051 E27.04708
G1 X42.168 Y118.945 E27.05063
G1 X41.35 Y111.168 E27.31072
G1 X40.438 Y105.754 E27.49333
G1 X39.228 Y100.432 E27.67486
G1 X38.514 Y97.804 E27.76543
G1 X36.846 Y92.565 E27.9483
G1 X34.895 Y87.456 E28.1302
G1 X32.651 Y82.452 E28.3126
G1 X30.139 Y77.603 E28.49423
G1 X27.34 Y72.876 E28.67695
G1 X24.373 Y68.444 E28.85434
G1 X24.207 Y68.167 E28.86508
G1 X22.678 Y65.295 E28.9733
G1 X19.104 Y59.33 E29.20458
G1 X18.879 Y58.877 E29.22141
G1 X18.791 Y58.627 E29.23022
G1 X18.648 Y58.163 E29.24637
G1 X18.538 Y57.67 E29.26317
G1 X18.508 Y57.102 E29.28209
G1 X18.615 Y54.219 E29.37804
G1 X18.529 Y46.608 E29.6312
G1 X18.563 Y46.104 E29.648
G1 X18.677 Y45.611 E29.66483
G1 X18.984 Y44.928 E29.68974
G1 X22.208 Y39.546 E29.89841
G1 X24.183 Y35.879 E30.03693
G1 X24.457 Y35.454 E30.05375
G1 X24.638 Y35.237 E30.06315
G1 X24.968 Y34.876 E30.07942
G1 X25.338 Y34.531 E30.09625
G1 F2400 E27.59625
;MESH:spirographV11Gear12.stl
G0 F3600 X26.882 Y36.529
G0 X27.656 Y37.554
G0 X35.689 Y46.958
G0 X35.689 Y47.058
;TYPE:WALL-INNER
G1 F2400 E30.09625
G1 F1500 X35.39 Y47.089 E30.10624
G1 X35.099 Y47.164 E30.11624
G1 X34.799 Y47.305 E30.12726
G1 X34.596 Y47.441 E30.13539
G1 X34.473 Y47.541 E30.14066
G1 X34.297 Y47.726 E30.14916
G1 X34.115 Y47.984 E30.15966
G1 X33.981 Y48.274 E30.17028
G1 X33.907 Y48.537 E30.17937
G1 X33.871 Y48.828 E30.18912
G1 X33.871 Y48.989 E30.19448
G1 X33.899 Y49.237 E30.20278
G1 X33.981 Y49.553 E30.21364
G1 X34.109 Y49.825 E30.22363
G1 X34.271 Y50.065 E30.23327
G1 X34.378 Y50.183 E30.23856
G1 X34.53 Y50.327 E30.24553
G1 X34.654 Y50.419 E30.25066
G1 X34.708 Y50.459 E30.2529
G1 X34.822 Y50.528 E30.25733
G1 X34.841 Y50.54 E30.25808
G1 X35.072 Y50.643 E30.26649
G1 X35.087 Y50.65 E30.26704
G1 X35.27 Y50.702 E30.27337
G1 X35.335 Y50.714 E30.27557
G1 X35.514 Y50.748 E30.28163
G1 X35.721 Y50.76 E30.28852
G1 X35.971 Y50.744 E30.29685
G1 X36.128 Y50.714 E30.30217
G1 X36.349 Y50.648 E30.30984
G1 X36.533 Y50.57 E30.31649
G1 X36.673 Y50.497 E30.32174
G1 X36.909 Y50.328 E30.3314
G1 X37.122 Y50.119 E30.34132
G1 X37.317 Y49.842 E30.35259
G1 X37.422 Y49.631 E30.36043
G1 X37.478 Y49.484 E30.36566
G1 X37.542 Y49.229 E30.3744
G1 X37.572 Y48.913 E30.38496
G1 X37.547 Y48.614 E30.39494
G1 X37.478 Y48.334 E30.40453
G1 X37.467 Y48.307 E30.4055
G1 X37.42 Y48.188 E30.40976
G1 X37.37 Y48.086 E30.41353
G1 X37.318 Y47.979 E30.41749
G1 X37.228 Y47.852 E30.42267
G1 X37.121 Y47.701 E30.42882
G1 X37.089 Y47.669 E30.43033
G1 X37.057 Y47.638 E30.43181
G1 X36.903 Y47.485 E30.43903
G1 X36.646 Y47.31 E30.44937
G1 X36.407 Y47.193 E30.45822
G1 X36.258 Y47.141 E30.46347
G1 X36.031 Y47.087 E30.47123
G1 X35.689 Y47.058 E30.48265
G0 F3600 X35.689 Y46.958
G0 X36.422 Y47.157
G0 X36.928 Y47.455
G0 X37.352 Y47.959
G0 X37.586 Y48.608
G0 X37.581 Y49.235
G0 X37.395 Y49.742
G0 X35.944 Y52.209
G0 X35.846 Y52.226
G1 F1500 X35.757 Y51.905 E30.49373
G1 X35.663 Y51.686 E30.50165
G1 X35.584 Y51.546 E30.507
G1 X35.432 Y51.338 E30.51557
G1 X35.205 Y51.109 E30.52629
G1 X35.113 Y51.045 E30.53002
G1 X35.058 Y51.007 E30.53196
G1 X34.945 Y50.928 E30.53576
G1 X34.711 Y50.821 E30.54241
G1 X34.658 Y50.796 E30.54396
G1 X34.612 Y50.782 E30.54499
G1 X34.427 Y50.726 E30.55098
G1 X34.268 Y50.696 E30.55636
G1 X34.018 Y50.681 E30.56469
G1 X33.822 Y50.693 E30.57122
G1 X33.633 Y50.723 E30.57759
G1 X33.397 Y50.784 E30.58569
G1 X33.099 Y50.924 E30.59664
G1 X32.894 Y51.061 E30.60484
G1 X32.771 Y51.163 E30.61016
G1 X32.573 Y51.369 E30.61966
G1 X32.411 Y51.61 E30.62932
G1 X32.28 Y51.894 E30.63972
G1 X32.206 Y52.157 E30.64881
G1 X32.181 Y52.309 E30.65393
G1 X32.167 Y52.532 E30.66136
G1 X32.182 Y52.75 E30.66863
G1 X32.205 Y52.902 E30.67375
G1 X32.28 Y53.166 E30.68287
G1 X32.412 Y53.452 E30.69335
G1 X32.571 Y53.686 E30.70276
G1 X32.677 Y53.803 E30.70801
G1 X32.828 Y53.946 E30.71493
G1 X33.004 Y54.077 E30.72223
G1 X33.141 Y54.161 E30.72757
G1 X33.39 Y54.271 E30.73662
G1 X33.673 Y54.348 E30.74638
G1 X33.692 Y54.353 E30.74703
G1 X33.925 Y54.376 E30.75482
G1 X33.992 Y54.383 E30.75706
G1 X34.163 Y54.368 E30.76277
G1 X34.33 Y54.353 E30.76835
G1 X34.444 Y54.327 E30.77224
G1 X34.474 Y54.32 E30.77326
G1 X34.557 Y54.3 E30.7761
G1 X34.709 Y54.247 E30.78145
G1 X34.945 Y54.13 E30.79021
