;FLAVOR:Marlin
;TIME:2228
;Filament used: 1.34919m
;Layer height: 0.16
;MINX:12.511
;MINY:78.228
;MINZ:0.3
;MAXX:187.487
;MAXY:121.768
;MAXZ:1.9
;Generated with Cura_SteamEngine 4.6.1
M140 S70
M105
M190 S70
M104 S225
M105
M109 S225
M82 ;absolute extrusion mode
; START CODE
G21 ;metric values
G90 ;absolute positioning
M82 ;set extruder to absolute mode
M107 ;start with the fan off
G28 X0 Y0 ;move X/Y to min endstops
G28 Z0 ;move Z to min endstops
G1 Z15.0 F80 ;move the platform down 15mm
G92 E0 ;zero the extruded length
G1 F200 E6 ;extrude 6 mm of feed stock
G92 E0 ;zero the extruded length again
G1 F80
;Put printing message on LCD screen
M117 Printing...
G92 E0
G92 E0
G1 F1500 E-6.5
;LAYER_COUNT:11
;LAYER:0
M107
G0 F2400 X93.316 Y108.881 Z0.3
;TYPE:SKIRT
G1 F1500 E0
G1 F1050 X90.641 Y109.071 E0.13245
G1 X87.951 Y109.338 E0.26597
G1 X85.301 Y109.677 E0.39792
G1 X82.638 Y110.095 E0.53106
G1 X80.046 Y110.577 E0.66128
G1 X77.424 Y111.141 E0.79375
G1 X74.78 Y111.789 E0.9282
G1 X72.192 Y112.501 E1.06078
G1 X69.655 Y113.278 E1.19183
G1 X67.104 Y114.139 E1.32481
G1 X64.584 Y115.068 E1.45746
G1 X64.075 Y115.272 E1.48455
G1 X63.008 Y115.684 E1.54104
G1 X61.987 Y115.998 E1.5938
G1 X61.456 Y116.121 E1.62072
G1 X60.631 Y116.25 E1.66196
G1 X60.073 Y116.303 E1.68965
G1 X58.533 Y116.426 E1.76595
G1 X55.874 Y116.715 E1.89806
G1 X53.204 Y117.082 E2.03117
G1 X50.539 Y117.524 E2.1646
G1 X49.759 Y117.673 E2.20382
G1 X48.84 Y117.812 E2.24973
G1 X47.475 Y117.926 E2.31738
G1 X44.758 Y118.195 E2.45223
G1 X42.112 Y118.532 E2.58398
G1 X39.453 Y118.947 E2.7169
G1 X37.542 Y119.295 E2.81284
G1 X37.077 Y119.358 E2.83601
G1 X36.204 Y119.437 E2.87931
G1 X33.453 Y119.693 E3.01577
G1 X30.792 Y120.017 E3.14817
G1 X28.15 Y120.415 E3.28014
G1 X26.753 Y120.67 E3.35028
G1 X25.493 Y120.887 E3.41342
G1 X24.764 Y120.96 E3.44961
G1 X23.825 Y120.961 E3.49599
G1 X22.948 Y120.873 E3.53952
G1 X22.17 Y120.707 E3.57881
G1 X21.702 Y120.575 E3.60283
G1 X21.094 Y120.362 E3.63465
G1 X20.606 Y120.125 E3.66145
G1 X20.103 Y119.848 E3.68981
G1 X19.69 Y119.601 E3.71358
G1 X18.946 Y119.043 E3.75951
G1 X18.469 Y118.598 E3.79173
G1 X18.14 Y118.26 E3.81503
G1 X17.72 Y117.771 E3.84687
G1 X17.407 Y117.308 E3.87447
G1 X17.119 Y116.828 E3.90212
G1 X16.943 Y116.521 E3.91959
G1 X16.663 Y115.94 E3.95145
G1 X16.472 Y115.388 E3.9803
G1 X16.319 Y114.848 E4.00802
G1 X16.122 Y113.931 E4.05435
G1 X13.438 Y93.685 E5.06307
G1 X13.35 Y92.941 E5.10007
G1 X13.31 Y92.291 E5.13224
G1 X13.316 Y91.502 E5.17121
G1 X13.365 Y90.859 E5.20306
G1 X13.47 Y90.32 E5.23018
G1 X13.593 Y89.828 E5.25523
G1 X13.702 Y89.435 E5.27538
G1 X14.026 Y88.588 E5.32017
G1 X14.376 Y87.912 E5.35776
G1 X14.632 Y87.483 E5.38244
G1 X14.996 Y86.951 E5.41428
G1 X15.355 Y86.537 E5.44134
G1 X15.715 Y86.164 E5.46695
G1 X15.985 Y85.897 E5.4857
G1 X16.474 Y85.477 E5.51754
G1 X17.043 Y85.087 E5.55161
G1 X17.777 Y84.661 E5.59353
G1 X18.358 Y84.383 E5.62534
G1 X18.87 Y84.207 E5.65208
G1 X19.456 Y84.039 E5.68219
G1 X20.018 Y83.911 E5.71066
G1 X20.773 Y83.798 E5.74836
G1 X21.322 Y83.747 E5.7756
G1 X22.845 Y83.625 E5.85106
G1 X25.531 Y83.333 E5.98451
G1 X28.189 Y82.968 E6.11702
G1 X30.88 Y82.52 E6.25176
G1 X31.634 Y82.377 E6.28967
G1 X32.559 Y82.237 E6.33588
G1 X33.913 Y82.125 E6.40298
G1 X36.6 Y81.861 E6.53633
G1 X39.289 Y81.52 E6.67021
G1 X41.951 Y81.105 E6.80328
G1 X43.353 Y80.85 E6.87366
G1 X44.269 Y80.704 E6.91947
G1 X45.04 Y80.621 E6.95777
G1 X46.613 Y80.496 E7.03571
G1 X49.278 Y80.209 E7.1681
G1 X51.897 Y79.852 E7.29865
G1 X55.848 Y79.173 E7.49666
G1 X56.588 Y79.1 E7.53339
G1 X57.146 Y79.085 E7.56096
G1 X57.632 Y79.088 E7.58496
G1 X58.062 Y79.112 E7.60623
G1 X59.103 Y79.214 E7.65789
G1 X59.823 Y79.295 E7.69368
G1 X62.456 Y79.519 E7.8242
G1 X65.162 Y79.672 E7.95806
G1 X67.836 Y79.748 E8.09019
G1 X70.513 Y79.748 E8.22241
G1 X73.192 Y79.672 E8.35478
G1 X75.889 Y79.52 E8.4882
G1 X78.538 Y79.295 E8.61951
G1 X80.594 Y79.069 E8.72167
G1 X81.24 Y79.032 E8.75363
G1 X118.129 Y79.028 E10.57563
G1 X118.901 Y79.039 E10.61376
G1 X120.172 Y79.145 E10.67675
G1 X121.896 Y79.333 E10.76241
G1 X124.562 Y79.547 E10.89451
G1 X127.232 Y79.686 E11.02656
G1 X129.944 Y79.751 E11.16055
G1 X132.619 Y79.739 E11.29267
G1 X135.298 Y79.651 E11.42506
G1 X137.938 Y79.49 E11.5557
G1 X140.933 Y79.218 E11.70424
G1 X141.834 Y79.122 E11.74899
G1 X142.834 Y79.085 E11.79841
G1 X143.218 Y79.087 E11.81738
G1 X143.99 Y79.155 E11.85566
G1 X144.894 Y79.303 E11.9009
G1 X146.095 Y79.527 E11.96124
G1 X148.792 Y79.952 E12.0961
G1 X151.413 Y80.289 E12.22662
G1 X154.128 Y80.561 E12.36139
G1 X155.511 Y80.668 E12.4299
G1 X156.062 Y80.74 E12.45734
G1 X156.824 Y80.882 E12.49563
G1 X159.448 Y81.331 E12.62711
G1 X162.109 Y81.71 E12.75987
G1 X164.803 Y82.016 E12.89379
G1 X167.289 Y82.227 E13.01702
G1 X167.955 Y82.31 E13.05016
G1 X168.764 Y82.448 E13.0907
G1 X170.034 Y82.683 E13.15449
G1 X172.656 Y83.094 E13.28558
G1 X175.298 Y83.431 E13.41713
G1 X179.36 Y83.805 E13.6186
G1 X180.136 Y83.936 E13.65747
G1 X180.688 Y84.073 E13.68556
G1 X181.115 Y84.193 E13.70747
G1 X181.721 Y84.41 E13.73926
G1 X182.211 Y84.652 E13.76625
G1 X182.94 Y85.074 E13.80786
G1 X183.667 Y85.598 E13.85212
G1 X184.28 Y86.153 E13.89296
G1 X184.605 Y86.488 E13.91602
G1 X185.025 Y86.978 E13.94789
G1 X185.328 Y87.428 E13.97469
G1 X185.597 Y87.875 E14.00045
G1 X185.787 Y88.206 E14.0193
G1 X186.068 Y88.787 E14.05118
G1 X186.31 Y89.481 E14.08748
G1 X186.514 Y90.233 E14.12597
G1 X186.636 Y90.866 E14.15781
G1 X186.677 Y91.432 E14.18584
G1 X186.687 Y91.982 E14.21301
G1 X186.662 Y92.594 E14.24326
G1 X186.54 Y93.815 E14.30387
G1 X186.43 Y94.693 E14.34757
G1 X184.001 Y113.15 E15.26705
G1 X183.888 Y113.928 E15.30588
G1 X183.748 Y114.611 E15.34031
G1 X183.555 Y115.317 E15.37646
G1 X183.343 Y115.926 E15.40831
G1 X183.093 Y116.439 E15.4365
G1 X182.806 Y116.955 E15.46566
G1 X182.636 Y117.246 E15.48231
G1 X182.274 Y117.779 E15.51413
G1 X181.907 Y118.203 E15.54183
G1 X181.534 Y118.59 E15.56837
G1 X181.243 Y118.874 E15.58846
G1 X180.551 Y119.432 E15.63236
G1 X179.868 Y119.87 E15.67244
G1 X179.484 Y120.084 E15.69415
G1 X178.903 Y120.363 E15.72598
G1 X178.386 Y120.541 E15.75299
G1 X177.835 Y120.699 E15.7813
G1 X177.473 Y120.794 E15.79979
G1 X176.841 Y120.917 E15.83159
G1 X176.326 Y120.959 E15.85711
G1 X175.322 Y120.962 E15.9067
G1 X174.454 Y120.877 E15.94978
G1 X173.713 Y120.741 E15.98699
G1 X171.075 Y120.289 E16.11918
G1 X168.407 Y119.909 E16.25228
G1 X165.734 Y119.606 E16.38515
G1 X163.057 Y119.378 E16.51785
G1 X162.551 Y119.31 E16.54307
G1 X161.785 Y119.168 E16.58155
G1 X159.156 Y118.718 E16.71329
G1 X156.495 Y118.339 E16.84604
G1 X153.801 Y118.033 E16.97996
G1 X151.315 Y117.822 E17.10319
G1 X150.65 Y117.739 E17.13629
G1 X149.875 Y117.607 E17.17512
G1 X148.616 Y117.373 E17.23836
G1 X145.988 Y116.961 E17.36975
G1 X143.332 Y116.621 E17.502
G1 X139.242 Y116.244 E17.70487
G1 X138.456 Y116.11 E17.74425
G1 X137.849 Y115.956 E17.77518
G1 X137.162 Y115.743 E17.81071
G1 X134.189 Y114.598 E17.96806
G1 X131.68 Y113.712 E18.09948
G1 X129.103 Y112.883 E18.23319
G1 X126.525 Y112.133 E18.3658
G1 X123.947 Y111.462 E18.49737
G1 X121.335 Y110.86 E18.62976
G1 X118.661 Y110.322 E18.76448
G1 X116.081 Y109.881 E18.89376
G1 X113.415 Y109.501 E19.02677
G1 X110.719 Y109.194 E19.16079
G1 X108.09 Y108.97 E19.29111
G1 X105.385 Y108.817 E19.42493
G1 X102.693 Y108.74 E19.55794
G1 X101.319 Y108.73 E19.62581
G1 X98.667 Y108.73 E19.75679
G1 X95.989 Y108.768 E19.88908
G1 X93.316 Y108.881 E20.02122
G1 F1500 E13.52122
G0 F2400 X175.297 Y116.436
G0 X176.257 Y116.436
G0 X177.18 Y116.189
G0 X178.084 Y115.636
G0 X178.761 Y114.905
G0 X179.166 Y114.202
G0 X179.403 Y113.319
G0 X182.159 Y92.322
G0 X182.159 Y91.47
G0 X181.859 Y90.456
G0 X181.432 Y89.716
G0 X180.665 Y88.986
G0 X179.784 Y88.521
G0 X178.999 Y88.312
G0 X143.201 Y83.613
G0 X142.349 Y83.613
G0 X141.334 Y83.912
G0 X140.593 Y84.34
G0 X139.916 Y85.017
G0 X127.262 Y79.288
G1 F1500 E20.02122
G1 F1050 X129.917 Y79.351 E20.15239
G1 X132.604 Y79.339 E20.2851
G1 X135.258 Y79.252 E20.41626
G1 X137.946 Y79.088 E20.54927
G1 X140.92 Y78.818 E20.69676
G1 X141.792 Y78.725 E20.74008
G1 X142.827 Y78.685 E20.79123
G1 X143.223 Y78.687 E20.81079
G1 X144.055 Y78.761 E20.85205
G1 X144.959 Y78.909 E20.89729
G1 X146.193 Y79.138 E20.95928
G1 X148.834 Y79.553 E21.09133
G1 X151.471 Y79.893 E21.22265
G1 X154.153 Y80.162 E21.35578
G1 X155.541 Y80.269 E21.42454
G1 X156.135 Y80.347 E21.45413
G1 X156.822 Y80.475 E21.48865
G1 X159.541 Y80.94 E21.62489
G1 X162.174 Y81.315 E21.75625
G1 X164.811 Y81.615 E21.88734
G1 X167.323 Y81.828 E22.01185
G1 X168.023 Y81.916 E22.0467
G1 X168.832 Y82.054 E22.08723
G1 X170.097 Y82.288 E22.15077
G1 X172.698 Y82.696 E22.28081
G1 X175.36 Y83.035 E22.41335
G1 X179.396 Y83.407 E22.61354
G1 X180.232 Y83.548 E22.65541
G1 X180.784 Y83.685 E22.6835
G1 X181.226 Y83.809 E22.70618
G1 X181.856 Y84.033 E22.7392
G1 X182.407 Y84.304 E22.76953
G1 X182.845 Y84.552 E22.79439
G1 X183.145 Y84.731 E22.81165
G1 X183.928 Y85.295 E22.85931
G1 X184.567 Y85.875 E22.90193
G1 X184.892 Y86.21 E22.92498
G1 X185.329 Y86.717 E22.95804
G1 X185.671 Y87.222 E22.98817
G1 X185.94 Y87.669 E23.01394
G1 X186.135 Y88.01 E23.03334
G1 X186.428 Y88.611 E23.06636
G1 X186.69 Y89.356 E23.10537
G1 X186.902 Y90.133 E23.14515
G1 X187.029 Y90.79 E23.1782
G1 X187.077 Y91.425 E23.20965
G1 X187.087 Y91.975 E23.23682
G1 X187.06 Y92.634 E23.2694
G1 X186.938 Y93.855 E23.33
G1 X186.827 Y94.744 E23.37425
G1 X184.397 Y113.202 E24.29378
G1 X184.284 Y113.985 E24.33286
G1 X184.138 Y114.701 E24.36895
G1 X183.94 Y115.426 E24.40607
G1 X183.721 Y116.058 E24.43911
G1 X183.443 Y116.633 E24.47065
G1 X183.156 Y117.149 E24.49981
G1 X182.98 Y117.45 E24.51704
G1 X182.605 Y118.004 E24.55008
G1 X182.195 Y118.48 E24.58111
G1 X181.822 Y118.867 E24.60766
G1 X181.52 Y119.163 E24.62854
G1 X180.775 Y119.764 E24.67582
G1 X180.063 Y120.22 E24.71758
G1 X179.679 Y120.434 E24.73929
G1 X179.076 Y120.724 E24.77234
G1 X178.497 Y120.925 E24.80261
G1 X177.946 Y121.083 E24.83092
G1 X177.574 Y121.181 E24.84992
G1 X176.918 Y121.31 E24.88295
G1 X176.338 Y121.358 E24.91169
G1 X175.828 Y121.368 E24.93688
G1 X175.316 Y121.361 E24.96218
G1 X174.382 Y121.27 E25.00852
G1 X173.698 Y121.144 E25.04288
G1 X170.982 Y120.68 E25.17897
G1 X168.343 Y120.304 E25.31063
G1 X165.727 Y120.008 E25.44066
G1 X163.023 Y119.777 E25.5747
G1 X162.478 Y119.703 E25.60187
G1 X161.788 Y119.575 E25.63653
G1 X159.063 Y119.109 E25.77307
G1 X156.43 Y118.734 E25.90443
G1 X153.793 Y118.434 E26.03552
G1 X151.281 Y118.221 E26.16003
G1 X150.583 Y118.133 E26.19478
G1 X149.808 Y118.001 E26.23361
G1 X148.553 Y117.768 E26.29666
G1 X145.947 Y117.36 E26.42694
G1 X143.273 Y117.017 E26.56009
G1 X139.205 Y116.642 E26.76187
G1 X138.359 Y116.498 E26.80425
G1 X137.741 Y116.341 E26.83575
G1 X137.021 Y116.118 E26.87298
G1 X134.048 Y114.972 E27.03035
G1 X131.54 Y114.086 E27.16172
G1 X129.007 Y113.272 E27.29313
G1 X126.417 Y112.518 E27.42637
G1 X123.862 Y111.853 E27.55677
G1 X121.237 Y111.248 E27.68982
G1 X118.619 Y110.722 E27.82171
G1 X115.988 Y110.271 E27.95355
G1 X113.35 Y109.896 E28.08516
G1 X110.711 Y109.595 E28.21634
G1 X108.034 Y109.367 E28.34904
G1 X105.385 Y109.217 E28.48009
G1 X102.679 Y109.14 E28.6138
G1 X101.316 Y109.13 E28.68112
G1 X98.672 Y109.13 E28.81171
G1 X96.012 Y109.168 E28.9431
G1 X93.325 Y109.282 E29.07594
G1 X90.676 Y109.47 E29.2071
G1 X88.005 Y109.734 E29.33967
G1 X85.348 Y110.074 E29.47197
G1 X82.731 Y110.486 E29.60282
G1 X80.097 Y110.975 E29.73514
G1 X77.497 Y111.535 E29.86651
G1 X74.885 Y112.175 E29.99933
G1 X72.333 Y112.877 E30.13006
G1 X69.752 Y113.667 E30.26338
G1 X67.232 Y114.517 E30.39473
G1 X64.735 Y115.438 E30.52618
G1 X64.219 Y115.645 E30.55364
G1 X63.152 Y116.057 E30.61014
G1 X62.098 Y116.383 E30.66463
G1 X61.525 Y116.515 E30.69367
G1 X60.669 Y116.648 E30.73646
G1 X60.111 Y116.701 E30.76414
G1 X58.572 Y116.824 E30.8404
G1 X55.935 Y117.11 E30.97141
G1 X53.257 Y117.478 E31.10492
G1 X50.634 Y117.913 E31.23624
G1 X49.834 Y118.066 E31.27647
G1 X48.874 Y118.211 E31.32442
G1 X47.476 Y118.328 E31.39372
G1 X44.811 Y118.591 E31.52598
G1 X42.157 Y118.93 E31.65813
G1 X39.501 Y119.344 E31.7909
G1 X37.613 Y119.688 E31.88569
G1 X37.112 Y119.756 E31.91066
G1 X36.241 Y119.834 E31.95385
G1 X33.506 Y120.089 E32.08952
G1 X30.858 Y120.412 E32.22128
G1 X28.221 Y120.809 E32.35299
G1 X26.825 Y121.064 E32.42308
G1 X25.561 Y121.281 E32.48643
G1 X24.776 Y121.36 E32.52539
G1 X23.819 Y121.361 E32.57266
G1 X22.874 Y121.267 E32.61957
G1 X22.062 Y121.092 E32.66059
G1 X21.594 Y120.96 E32.68461
G1 X20.962 Y120.74 E32.71766
G1 X20.413 Y120.475 E32.74777
G1 X19.91 Y120.198 E32.77613
G1 X19.48 Y119.941 E32.80088
G1 X18.679 Y119.34 E32.85034
G1 X18.182 Y118.877 E32.88389
G1 X17.853 Y118.539 E32.90718
G1 X17.416 Y118.033 E32.9402
G1 X17.064 Y117.514 E32.97118
G1 X16.776 Y117.034 E32.99883
G1 X16.595 Y116.717 E33.01686
G1 X16.302 Y116.115 E33.04992
G1 X16.087 Y115.497 E33.08224
G1 X15.934 Y114.957 E33.10996
G1 X15.729 Y114.007 E33.15797
G1 X13.041 Y93.737 E34.16789
G1 X12.953 Y92.987 E34.20519
G1 X12.91 Y92.305 E34.23894
G1 X12.916 Y91.496 E34.2789
G1 X12.966 Y90.829 E34.31194
G1 X13.082 Y90.223 E34.34241
G1 X13.205 Y89.731 E34.36746
G1 X13.318 Y89.326 E34.38823
G1 X13.666 Y88.414 E34.43644
G1 X14.032 Y87.707 E34.47576
G1 X14.288 Y87.278 E34.50044
G1 X14.665 Y86.725 E34.53349
G1 X15.068 Y86.259 E34.56392
G1 X15.428 Y85.886 E34.58953
G1 X15.706 Y85.611 E34.60884
G1 X16.212 Y85.173 E34.64189
G1 X16.822 Y84.753 E34.67847
G1 X17.582 Y84.311 E34.7219
G1 X18.185 Y84.022 E34.75492
G1 X18.76 Y83.823 E34.78498
G1 X19.346 Y83.655 E34.81509
G1 X19.951 Y83.517 E34.84574
G1 X20.736 Y83.4 E34.88494
G1 X21.285 Y83.349 E34.91217
G1 X22.842 Y83.223 E34.98932
G1 X25.47 Y82.938 E35.11988
G1 X28.135 Y82.572 E35.25275
G1 X30.784 Y82.131 E35.38539
G1 X31.559 Y81.984 E35.42435
G1 X32.526 Y81.838 E35.47265
G1 X33.907 Y81.723 E35.54109
G1 X36.582 Y81.461 E35.67385
G1 X39.209 Y81.128 E35.80464
G1 X41.858 Y80.715 E35.93706
G1 X43.281 Y80.456 E36.00849
G1 X44.207 Y80.309 E36.0548
G1 X45.003 Y80.223 E36.09435
G1 X46.54 Y80.101 E36.1705
G1 X49.218 Y79.813 E36.30353
G1 X51.86 Y79.452 E36.43524
G1 X55.78 Y78.779 E36.63168
G1 X56.578 Y78.7 E36.67129
G1 X57.136 Y78.685 E36.69886
G1 X57.638 Y78.688 E36.72366
G1 X58.101 Y78.714 E36.74656
G1 X59.142 Y78.816 E36.79822
G1 X59.831 Y78.894 E36.83247
G1 X62.512 Y79.122 E36.96537
G1 X65.162 Y79.272 E37.09646
G1 X67.847 Y79.348 E37.22913
G1 X70.502 Y79.348 E37.36027
G1 X73.192 Y79.272 E37.49318
G1 X75.834 Y79.123 E37.62388
G1 X78.505 Y78.896 E37.75628
G1 X80.551 Y78.671 E37.85794
G1 X81.227 Y78.632 E37.89139
G1 X118.129 Y78.628 E39.71403
G1 X118.907 Y78.639 E39.75246
G1 X119.371 Y78.664 E39.77541
G1 X120.211 Y78.746 E39.81709
G1 X121.939 Y78.935 E39.90295
G1 X124.614 Y79.15 E40.0355
G1 X127.262 Y79.288 E40.16646
G1 F1500 E33.66646
G0 F2400 X178.999 Y88.312
G0 X179.927 Y88.561
G0 X180.828 Y89.111
G0 X181.432 Y89.716
G0 X181.937 Y90.646
G0 X182.159 Y91.47
G0 X182.159 Y92.322
G0 X179.403 Y113.319
G0 X179.166 Y114.202
G0 X178.687 Y115.032
G0 X177.921 Y115.761
G0 X177.18 Y116.189
G0 X176.257 Y116.436
G0 X93.335 Y109.682
G1 F1500 E40.16646
G1 F1050 X90.707 Y109.868 E40.29659
G1 X88.023 Y110.134 E40.4298
G1 X85.428 Y110.466 E40.55902
G1 X82.794 Y110.88 E40.69071
G1 X80.19 Y111.364 E40.82153
G1 X77.598 Y111.922 E40.95249
G1 X74.98 Y112.564 E41.08562
G1 X72.419 Y113.268 E41.21681
G1 X69.892 Y114.042 E41.34734
G1 X67.362 Y114.896 E41.47923
G1 X64.887 Y115.808 E41.60951
G1 X64.363 Y116.018 E41.63739
G1 X63.296 Y116.43 E41.69388
G1 X62.79 Y116.6 E41.72025
G1 X62.208 Y116.767 E41.75015
G1 X61.595 Y116.909 E41.78123
G1 X60.706 Y117.046 E41.82566
G1 X60.148 Y117.099 E41.85334
G1 X58.613 Y117.222 E41.9294
G1 X55.965 Y117.509 E42.06096
G1 X53.335 Y117.871 E42.19208
G1 X50.695 Y118.309 E42.32426
G1 X49.909 Y118.459 E42.36378
G1 X49.416 Y118.544 E42.38849
G1 X48.907 Y118.609 E42.41383
G1 X47.555 Y118.722 E42.48084
G1 X44.865 Y118.988 E42.61435
G1 X42.193 Y119.329 E42.7474
G1 X39.601 Y119.733 E42.87696
G1 X37.685 Y120.082 E42.97315
G1 X37.148 Y120.155 E42.99992
G1 X36.26 Y120.235 E43.04396
G1 X33.555 Y120.486 E43.17814
G1 X30.899 Y120.81 E43.31029
