;FLAVOR:Marlin
;TIME:10885
;Filament used: 6.54291m
;Layer height: 0.16
;MINX:12.508
;MINY:6.228
;MINZ:0.3
;MAXX:187.487
;MAXY:193.768
;MAXZ:1.9
;Generated with Cura_SteamEngine 4.6.1
M140 S70
M105
M190 S70
M104 S225
M105
M109 S225
M82 ;absolute extrusion mode
; START CODE
G21 ;metric values
G90 ;absolute positioning
M82 ;set extruder to absolute mode
M107 ;start with the fan off
G28 X0 Y0 ;move X/Y to min endstops
G28 Z0 ;move Z to min endstops
G1 Z15.0 F80 ;move the platform down 15mm
G92 E0 ;zero the extruded length
G1 F200 E6 ;extrude 6 mm of feed stock
G92 E0 ;zero the extruded length again
G1 F80
;Put printing message on LCD screen
M117 Printing...
G92 E0
G92 E0
G1 F1500 E-6.5
;LAYER_COUNT:11
;LAYER:0
M107
G0 F2400 X93.316 Y180.881 Z0.3
;TYPE:SKIRT
G1 F1500 E0
G1 F1050 X90.641 Y181.071 E0.13245
G1 X87.951 Y181.338 E0.26597
G1 X85.301 Y181.677 E0.39792
G1 X82.638 Y182.095 E0.53106
G1 X80.046 Y182.577 E0.66128
G1 X77.424 Y183.141 E0.79375
G1 X74.78 Y183.789 E0.9282
G1 X72.192 Y184.501 E1.06078
G1 X69.655 Y185.278 E1.19183
G1 X67.104 Y186.139 E1.32481
G1 X64.584 Y187.068 E1.45746
G1 X64.075 Y187.272 E1.48455
G1 X63.008 Y187.684 E1.54104
G1 X61.987 Y187.998 E1.5938
G1 X61.456 Y188.121 E1.62072
G1 X60.631 Y188.25 E1.66196
G1 X60.073 Y188.303 E1.68965
G1 X58.533 Y188.426 E1.76595
G1 X55.874 Y188.715 E1.89806
G1 X53.204 Y189.082 E2.03117
G1 X50.539 Y189.524 E2.1646
G1 X49.759 Y189.673 E2.20382
G1 X48.864 Y189.808 E2.24852
G1 X47.507 Y189.923 E2.31579
G1 X44.758 Y190.195 E2.45223
G1 X42.112 Y190.532 E2.58397
G1 X39.453 Y190.947 E2.71689
G1 X37.542 Y191.295 E2.81283
G1 X37.077 Y191.358 E2.83601
G1 X36.204 Y191.437 E2.8793
G1 X33.453 Y191.693 E3.01577
G1 X30.792 Y192.017 E3.14817
G1 X28.15 Y192.415 E3.28013
G1 X26.753 Y192.67 E3.35027
G1 X25.493 Y192.887 E3.41342
G1 X24.764 Y192.96 E3.44961
G1 X23.825 Y192.961 E3.49599
G1 X22.948 Y192.873 E3.53952
G1 X22.17 Y192.707 E3.57881
G1 X21.702 Y192.575 E3.60283
G1 X21.094 Y192.362 E3.63465
G1 X20.606 Y192.125 E3.66144
G1 X20.103 Y191.848 E3.6898
G1 X19.69 Y191.601 E3.71357
G1 X18.946 Y191.043 E3.75951
G1 X18.469 Y190.598 E3.79173
G1 X18.14 Y190.26 E3.81502
G1 X17.72 Y189.771 E3.84686
G1 X17.407 Y189.308 E3.87447
G1 X17.119 Y188.828 E3.90211
G1 X16.943 Y188.521 E3.91959
G1 X16.663 Y187.94 E3.95145
G1 X16.472 Y187.388 E3.9803
G1 X16.319 Y186.848 E4.00802
G1 X16.122 Y185.931 E4.05434
G1 X13.438 Y165.685 E5.06307
G1 X13.35 Y164.941 E5.10007
G1 X13.31 Y164.291 E5.13224
G1 X13.316 Y163.49 E5.1718
G1 X13.377 Y162.767 E5.20764
G1 X13.524 Y161.823 E5.25482
G1 X13.649 Y161.097 E5.29121
G1 X14.025 Y158.474 E5.42209
G1 X14.331 Y155.813 E5.55438
G1 X14.566 Y153.103 E5.68874
G1 X14.718 Y150.475 E5.81875
G1 X14.798 Y147.762 E5.95281
G1 X14.802 Y145.086 E6.08498
G1 X14.73 Y142.418 E6.21681
G1 X14.581 Y139.739 E6.34933
G1 X14.357 Y137.065 E6.48186
G1 X13.982 Y133.798 E6.64429
G1 X13.438 Y129.685 E6.8492
G1 X13.349 Y128.935 E6.8865
G1 X13.31 Y128.274 E6.91921
G1 X13.316 Y127.491 E6.95788
G1 X13.377 Y126.769 E6.99367
G1 X13.524 Y125.824 E7.04091
G1 X13.649 Y125.097 E7.07734
G1 X14.025 Y122.474 E7.20822
G1 X14.331 Y119.813 E7.34052
G1 X14.566 Y117.103 E7.47487
G1 X14.718 Y114.475 E7.60489
G1 X14.798 Y111.762 E7.73894
G1 X14.802 Y109.086 E7.87111
G1 X14.73 Y106.418 E8.00294
G1 X14.581 Y103.739 E8.13546
G1 X14.357 Y101.065 E8.268
G1 X13.982 Y97.798 E8.43042
G1 X13.438 Y93.685 E8.63533
G1 X13.349 Y92.935 E8.67264
G1 X13.31 Y92.274 E8.70534
G1 X13.316 Y91.491 E8.74401
G1 X13.377 Y90.769 E8.7798
G1 X13.524 Y89.824 E8.82704
G1 X13.649 Y89.097 E8.86347
G1 X14.025 Y86.474 E8.99435
G1 X14.331 Y83.813 E9.12665
G1 X14.566 Y81.103 E9.261
G1 X14.718 Y78.475 E9.39102
G1 X14.798 Y75.762 E9.52507
G1 X14.802 Y73.086 E9.65724
G1 X14.73 Y70.418 E9.78907
G1 X14.581 Y67.739 E9.92159
G1 X14.357 Y65.065 E10.05413
G1 X13.982 Y61.798 E10.21655
G1 X13.438 Y57.685 E10.42146
G1 X13.349 Y56.935 E10.45877
G1 X13.31 Y56.274 E10.49147
G1 X13.316 Y55.491 E10.53015
G1 X13.377 Y54.769 E10.56593
G1 X13.524 Y53.824 E10.61317
G1 X13.649 Y53.097 E10.6496
G1 X14.025 Y50.474 E10.78048
G1 X14.331 Y47.813 E10.91278
G1 X14.566 Y45.103 E11.04713
G1 X14.718 Y42.475 E11.17715
G1 X14.798 Y39.762 E11.31121
G1 X14.802 Y37.086 E11.44338
G1 X14.73 Y34.418 E11.5752
G1 X14.581 Y31.739 E11.70772
G1 X14.357 Y29.065 E11.84026
G1 X13.982 Y25.798 E12.00268
G1 X13.438 Y21.685 E12.2076
G1 X13.349 Y20.935 E12.2449
G1 X13.31 Y20.274 E12.2776
G1 X13.316 Y19.501 E12.31578
G1 X13.365 Y18.859 E12.34759
G1 X13.471 Y18.316 E12.37491
G1 X13.594 Y17.825 E12.39991
G1 X13.702 Y17.435 E12.4199
G1 X14.026 Y16.588 E12.46469
G1 X14.376 Y15.912 E12.50229
G1 X14.632 Y15.483 E12.52696
G1 X14.996 Y14.951 E12.5588
G1 X15.355 Y14.537 E12.58587
G1 X15.715 Y14.164 E12.61147
G1 X15.985 Y13.897 E12.63023
G1 X16.474 Y13.477 E12.66206
G1 X17.043 Y13.087 E12.69614
G1 X17.777 Y12.661 E12.73805
G1 X18.358 Y12.383 E12.76986
G1 X18.87 Y12.207 E12.7966
G1 X19.456 Y12.039 E12.82671
G1 X20.018 Y11.911 E12.85518
G1 X20.773 Y11.798 E12.89289
G1 X21.322 Y11.747 E12.92012
G1 X22.845 Y11.625 E12.99558
G1 X25.531 Y11.333 E13.12903
G1 X28.189 Y10.968 E13.26155
G1 X30.88 Y10.52 E13.39629
G1 X31.634 Y10.377 E13.43419
G1 X32.559 Y10.237 E13.4804
G1 X33.913 Y10.125 E13.5475
G1 X36.6 Y9.861 E13.68086
G1 X39.289 Y9.52 E13.81473
G1 X41.951 Y9.105 E13.9478
G1 X43.353 Y8.85 E14.01818
G1 X44.269 Y8.704 E14.064
G1 X45.04 Y8.621 E14.1023
G1 X46.613 Y8.496 E14.18024
G1 X49.278 Y8.209 E14.31262
G1 X51.897 Y7.852 E14.44318
G1 X55.848 Y7.173 E14.64118
G1 X56.588 Y7.1 E14.67791
G1 X57.146 Y7.085 E14.70548
G1 X57.632 Y7.088 E14.72948
G1 X58.062 Y7.112 E14.75076
G1 X59.103 Y7.214 E14.80242
G1 X59.823 Y7.295 E14.8382
G1 X62.456 Y7.519 E14.96872
G1 X65.162 Y7.672 E15.10259
G1 X67.836 Y7.748 E15.23471
G1 X70.513 Y7.748 E15.36693
G1 X73.192 Y7.672 E15.49931
G1 X75.889 Y7.52 E15.63273
G1 X78.538 Y7.295 E15.76403
G1 X80.594 Y7.069 E15.8662
G1 X81.24 Y7.032 E15.89815
G1 X118.129 Y7.028 E17.72015
G1 X118.901 Y7.039 E17.75828
G1 X120.172 Y7.145 E17.82128
G1 X121.896 Y7.333 E17.90693
G1 X124.562 Y7.547 E18.03903
G1 X127.232 Y7.686 E18.17109
G1 X129.944 Y7.751 E18.30508
G1 X132.619 Y7.739 E18.4372
G1 X135.298 Y7.651 E18.56959
G1 X137.938 Y7.49 E18.70022
G1 X140.933 Y7.218 E18.84876
G1 X141.834 Y7.122 E18.89351
G1 X142.834 Y7.085 E18.94294
G1 X143.218 Y7.087 E18.96191
G1 X143.99 Y7.155 E19.00018
G1 X144.894 Y7.303 E19.04543
G1 X146.095 Y7.527 E19.10577
G1 X148.792 Y7.952 E19.24062
G1 X151.413 Y8.289 E19.37114
G1 X154.128 Y8.561 E19.50591
G1 X155.511 Y8.668 E19.57442
G1 X156.062 Y8.74 E19.60187
G1 X156.824 Y8.882 E19.64015
G1 X159.448 Y9.331 E19.77164
G1 X162.109 Y9.71 E19.9044
G1 X164.803 Y10.016 E20.03831
G1 X167.289 Y10.227 E20.16154
G1 X167.955 Y10.31 E20.19469
G1 X168.764 Y10.448 E20.23522
G1 X170.034 Y10.683 E20.29901
G1 X172.656 Y11.094 E20.4301
G1 X175.298 Y11.431 E20.56165
G1 X179.36 Y11.805 E20.76313
G1 X180.136 Y11.936 E20.802
G1 X180.688 Y12.073 E20.83009
G1 X181.115 Y12.193 E20.85199
G1 X181.721 Y12.41 E20.88379
G1 X182.211 Y12.652 E20.91078
G1 X182.94 Y13.074 E20.95238
G1 X183.667 Y13.598 E20.99664
G1 X184.28 Y14.153 E21.03749
G1 X184.605 Y14.488 E21.06054
G1 X185.025 Y14.978 E21.09242
G1 X185.328 Y15.428 E21.11921
G1 X185.597 Y15.875 E21.14498
G1 X185.787 Y16.206 E21.16383
G1 X186.068 Y16.787 E21.19571
G1 X186.31 Y17.481 E21.23201
G1 X186.514 Y18.233 E21.27049
G1 X186.636 Y18.866 E21.30233
G1 X186.677 Y19.432 E21.33036
G1 X186.687 Y19.982 E21.35753
G1 X186.662 Y20.594 E21.38778
G1 X186.54 Y21.815 E21.44839
G1 X186.426 Y22.723 E21.49359
G1 X186.013 Y25.858 E21.64977
G1 X185.691 Y28.6 E21.78613
G1 X185.452 Y31.297 E21.91986
G1 X185.292 Y33.936 E22.05044
G1 X185.207 Y36.607 E22.18243
G1 X185.196 Y39.318 E22.31634
G1 X185.262 Y41.96 E22.44687
G1 X185.404 Y44.66 E22.58041
G1 X185.622 Y47.335 E22.71297
G1 X185.912 Y49.971 E22.84395
G1 X186.477 Y53.878 E23.03893
G1 X186.607 Y54.666 E23.07838
G1 X186.676 Y55.413 E23.11543
G1 X186.687 Y55.985 E23.14368
G1 X186.662 Y56.605 E23.17433
G1 X186.54 Y57.818 E23.23455
G1 X186.426 Y58.723 E23.2796
G1 X186.013 Y61.858 E23.43578
G1 X185.691 Y64.6 E23.57214
G1 X185.452 Y67.297 E23.70587
G1 X185.292 Y69.936 E23.83645
G1 X185.207 Y72.607 E23.96844
G1 X185.196 Y75.318 E24.10234
G1 X185.262 Y77.96 E24.23288
G1 X185.404 Y80.66 E24.36642
G1 X185.622 Y83.335 E24.49898
G1 X185.912 Y85.971 E24.62996
G1 X186.477 Y89.878 E24.82494
G1 X186.607 Y90.666 E24.86438
G1 X186.676 Y91.413 E24.90144
G1 X186.687 Y91.985 E24.92969
G1 X186.662 Y92.605 E24.96034
G1 X186.54 Y93.818 E25.02056
G1 X186.426 Y94.723 E25.06561
G1 X186.013 Y97.858 E25.22179
G1 X185.691 Y100.6 E25.35815
G1 X185.452 Y103.297 E25.49188
G1 X185.292 Y105.936 E25.62246
G1 X185.207 Y108.607 E25.75445
G1 X185.196 Y111.318 E25.88835
G1 X185.262 Y113.96 E26.01889
G1 X185.404 Y116.66 E26.15243
G1 X185.622 Y119.335 E26.28499
G1 X185.912 Y121.971 E26.41597
G1 X186.477 Y125.878 E26.61095
G1 X186.607 Y126.666 E26.65039
G1 X186.676 Y127.413 E26.68745
G1 X186.687 Y127.985 E26.7157
G1 X186.662 Y128.605 E26.74635
G1 X186.54 Y129.818 E26.80656
G1 X186.426 Y130.723 E26.85162
G1 X186.013 Y133.858 E27.0078
G1 X185.691 Y136.6 E27.14416
G1 X185.452 Y139.297 E27.27789
G1 X185.292 Y141.936 E27.40847
G1 X185.207 Y144.607 E27.54046
G1 X185.196 Y147.318 E27.67436
G1 X185.262 Y149.96 E27.8049
G1 X185.404 Y152.66 E27.93844
G1 X185.622 Y155.335 E28.071
G1 X185.912 Y157.971 E28.20198
G1 X186.477 Y161.878 E28.39696
G1 X186.607 Y162.666 E28.4364
G1 X186.676 Y163.413 E28.47346
G1 X186.687 Y163.985 E28.50171
G1 X186.662 Y164.605 E28.53236
G1 X186.54 Y165.818 E28.59257
G1 X186.43 Y166.693 E28.63613
G1 X184.001 Y185.15 E29.55561
G1 X183.888 Y185.928 E29.59444
G1 X183.748 Y186.611 E29.62887
G1 X183.555 Y187.317 E29.66502
G1 X183.343 Y187.926 E29.69687
G1 X183.093 Y188.439 E29.72506
G1 X182.806 Y188.955 E29.75422
G1 X182.636 Y189.246 E29.77087
G1 X182.274 Y189.779 E29.80269
G1 X181.907 Y190.203 E29.83039
G1 X181.534 Y190.59 E29.85693
G1 X181.243 Y190.874 E29.87702
G1 X180.551 Y191.432 E29.92092
G1 X179.868 Y191.87 E29.961
G1 X179.484 Y192.084 E29.98271
G1 X178.903 Y192.363 E30.01455
G1 X178.386 Y192.541 E30.04155
G1 X177.835 Y192.699 E30.06986
G1 X177.473 Y192.794 E30.08835
G1 X176.841 Y192.917 E30.12015
G1 X176.326 Y192.959 E30.14567
G1 X175.322 Y192.962 E30.19526
G1 X174.454 Y192.877 E30.23834
G1 X173.713 Y192.741 E30.27555
G1 X171.075 Y192.289 E30.40774
G1 X168.407 Y191.909 E30.54085
G1 X165.734 Y191.606 E30.67371
G1 X163.057 Y191.378 E30.80641
G1 X162.551 Y191.31 E30.83163
G1 X161.785 Y191.168 E30.87011
G1 X159.156 Y190.718 E31.00185
G1 X156.495 Y190.339 E31.1346
G1 X153.801 Y190.033 E31.26852
G1 X151.315 Y189.822 E31.39175
G1 X150.65 Y189.739 E31.42485
G1 X149.875 Y189.607 E31.46368
G1 X148.616 Y189.373 E31.52692
G1 X145.988 Y188.961 E31.65831
G1 X143.332 Y188.621 E31.79056
G1 X139.242 Y188.244 E31.99343
G1 X138.456 Y188.11 E32.03281
G1 X137.849 Y187.956 E32.06374
G1 X137.162 Y187.743 E32.09927
G1 X134.189 Y186.598 E32.25662
G1 X131.68 Y185.712 E32.38804
G1 X129.103 Y184.883 E32.52175
G1 X126.525 Y184.133 E32.65436
G1 X123.947 Y183.462 E32.78593
G1 X121.335 Y182.86 E32.91833
G1 X118.661 Y182.322 E33.05304
G1 X116.081 Y181.881 E33.18232
G1 X113.415 Y181.501 E33.31533
G1 X110.719 Y181.194 E33.44935
G1 X108.09 Y180.97 E33.57967
G1 X105.385 Y180.817 E33.71349
G1 X102.693 Y180.74 E33.8465
G1 X101.319 Y180.73 E33.91437
G1 X98.667 Y180.73 E34.04535
G1 X95.989 Y180.768 E34.17764
G1 X93.316 Y180.881 E34.30978
G1 F1500 E27.80978
G0 F2400 X24.706 Y188.436
G0 X23.648 Y188.411
G0 X22.82 Y188.188
G0 X21.917 Y187.637
G0 X21.313 Y187.032
G0 X20.833 Y186.202
G0 X20.613 Y185.377
G0 X17.841 Y164.384
G0 X17.841 Y163.471
G0 X18.14 Y162.457
G0 X18.568 Y161.716
G0 X19.334 Y160.987
G0 X20.075 Y160.559
G0 X101.272 Y140.192
G0 X139.604 Y147.737
G0 X175.297 Y152.436
G0 X176.257 Y152.436
G0 X177.18 Y152.189
G0 X178.084 Y151.636
G0 X178.761 Y150.905
G0 X179.166 Y150.202
G0 X179.403 Y149.319
G0 X182.159 Y128.322
G0 X182.159 Y19.47
G0 X181.859 Y18.456
G0 X181.432 Y17.716
G0 X180.665 Y16.986
G0 X179.784 Y16.521
G0 X178.999 Y16.312
G0 X143.201 Y11.613
G0 X142.349 Y11.613
G0 X141.334 Y11.912
G0 X140.593 Y12.34
G0 X139.916 Y13.017
G0 X127.262 Y7.288
G1 F1500 E34.30978
G1 F1050 X129.917 Y7.351 E34.44095
G1 X132.604 Y7.339 E34.57366
G1 X135.258 Y7.252 E34.70482
G1 X137.946 Y7.088 E34.83783
G1 X140.92 Y6.818 E34.98532
G1 X141.792 Y6.725 E35.02864
G1 X142.827 Y6.685 E35.0798
G1 X143.223 Y6.687 E35.09935
G1 X144.055 Y6.761 E35.14061
G1 X144.959 Y6.909 E35.18585
G1 X146.193 Y7.138 E35.24784
G1 X148.834 Y7.553 E35.37989
G1 X151.471 Y7.893 E35.51121
G1 X154.153 Y8.162 E35.64434
G1 X155.541 Y8.269 E35.7131
G1 X156.135 Y8.347 E35.74269
G1 X156.822 Y8.475 E35.77721
G1 X159.541 Y8.94 E35.91345
G1 X162.174 Y9.315 E36.04481
G1 X164.811 Y9.615 E36.1759
G1 X167.323 Y9.828 E36.30041
G1 X168.023 Y9.916 E36.33526
G1 X168.832 Y10.054 E36.37579
G1 X170.097 Y10.288 E36.43933
G1 X172.698 Y10.696 E36.56937
G1 X175.36 Y11.035 E36.70191
G1 X179.396 Y11.407 E36.9021
G1 X180.232 Y11.548 E36.94397
G1 X180.784 Y11.685 E36.97207
G1 X181.226 Y11.809 E36.99474
G1 X181.856 Y12.033 E37.02776
G1 X182.407 Y12.304 E37.05809
G1 X182.845 Y12.552 E37.08295
G1 X183.145 Y12.731 E37.10021
G1 X183.928 Y13.295 E37.14787
G1 X184.567 Y13.875 E37.19049
G1 X184.892 Y14.21 E37.21355
G1 X185.329 Y14.717 E37.24661
G1 X185.671 Y15.222 E37.27673
G1 X185.94 Y15.669 E37.3025
G1 X186.135 Y16.01 E37.3219
G1 X186.428 Y16.611 E37.35492
G1 X186.69 Y17.356 E37.39393
G1 X186.902 Y18.133 E37.43371
G1 X187.029 Y18.79 E37.46676
G1 X187.077 Y19.425 E37.49821
G1 X187.087 Y19.975 E37.52538
G1 X187.06 Y20.634 E37.55796
G1 X186.938 Y21.855 E37.61856
G1 X186.822 Y22.774 E37.66432
G1 X186.41 Y25.904 E37.82024
G1 X186.088 Y28.645 E37.95656
G1 X185.854 Y31.285 E38.08746
G1 X185.691 Y33.974 E38.22052
G1 X185.607 Y36.62 E38.35127
G1 X185.596 Y39.31 E38.48414
G1 X185.662 Y41.965 E38.61531
G1 X185.803 Y44.64 E38.74762
G1 X186.02 Y47.295 E38.87919
G1 X186.309 Y49.93 E39.01011
G1 X186.861 Y53.749 E39.2007
G1 X187.002 Y54.6 E39.2433
G1 X187.076 Y55.405 E39.28323
G1 X187.087 Y55.977 E39.31149
G1 X187.06 Y56.645 E39.34451
G1 X186.938 Y57.858 E39.40472
G1 X186.822 Y58.774 E39.45033
G1 X186.41 Y61.904 E39.60626
G1 X186.088 Y64.645 E39.74257
G1 X185.854 Y67.285 E39.87347
G1 X185.691 Y69.974 E40.00653
G1 X185.607 Y72.62 E40.13728
G1 X185.596 Y75.31 E40.27015
G1 X185.662 Y77.965 E40.40132
G1 X185.803 Y80.64 E40.53363
G1 X186.02 Y83.295 E40.6652
G1 X186.309 Y85.93 E40.79613
G1 X186.861 Y89.749 E40.98671
G1 X187.002 Y90.6 E41.02932
G1 X187.076 Y91.405 E41.06924
G1 X187.087 Y91.977 E41.0975
G1 X187.06 Y92.645 E41.13052
G1 X186.938 Y93.858 E41.19073
G1 X186.822 Y94.774 E41.23634
G1 X186.41 Y97.904 E41.39227
G1 X186.088 Y100.645 E41.52858
G1 X185.854 Y103.285 E41.65948
G1 X185.691 Y105.974 E41.79254
G1 X185.607 Y108.62 E41.9233
G1 X185.596 Y111.31 E42.05616
G1 X185.662 Y113.965 E42.18733
G1 X185.803 Y116.64 E42.31964
G1 X186.02 Y119.295 E42.45121
G1 X186.309 Y121.93 E42.58214
G1 X186.861 Y125.749 E42.77272
G1 X187.002 Y126.6 E42.81533
G1 X187.076 Y127.405 E42.85525
G1 X187.087 Y127.977 E42.88351
G1 X187.06 Y128.645 E42.91653
G1 X186.938 Y129.858 E42.97675
G1 X186.822 Y130.774 E43.02235
G1 X186.41 Y133.904 E43.17828
G1 X186.088 Y136.645 E43.31459
G1 X185.854 Y139.285 E43.44549
G1 X185.691 Y141.974 E43.57855
G1 X185.607 Y144.62 E43.70931
G1 X185.596 Y147.31 E43.84217
G1 X185.662 Y149.965 E43.97335
G1 X185.803 Y152.64 E44.10565
G1 X186.02 Y155.295 E44.23722
G1 X186.309 Y157.93 E44.36815
G1 X186.861 Y161.749 E44.55873
G1 X187.002 Y162.6 E44.60134
G1 X187.076 Y163.405 E44.64127
G1 X187.087 Y163.977 E44.66952
G1 X187.06 Y164.645 E44.70254
G1 X186.938 Y165.858 E44.76276
G1 X186.827 Y166.744 E44.80686
G1 X184.397 Y185.202 E45.72639
G1 X184.284 Y185.985 E45.76547
G1 X184.138 Y186.701 E45.80156
G1 X183.94 Y187.426 E45.83868
G1 X183.721 Y188.058 E45.87171
G1 X183.443 Y188.633 E45.90326
G1 X183.156 Y189.149 E45.93242
G1 X182.98 Y189.45 E45.94964
G1 X182.605 Y190.004 E45.98269
G1 X182.195 Y190.48 E46.01371
G1 X181.822 Y190.867 E46.04026
G1 X181.52 Y191.163 E46.06115
