;FLAVOR:Marlin
;TIME:1515
;Filament used: 0.526646m
;Layer height: 0.12
;Generated with Cura_SteamEngine 3.6.0
M140 S60
M105
M190 S60
M104 S210
M105
M109 S210
M82 ;absolute extrusion mode
G21 ;metric values
G90 ;absolute positioning
M82 ;set extruder to absolute mode
M107 ;start with the fan off
G28 X0 Y0 ;move X/Y to min endstops
G28 Z0 ;move Z to min endstops
G1 Z15.0 F120 ;move the platform down 15mm
G92 E0 ;zero the extruded length
G1 F200 E6 ;extrude 6 mm of feed stock
G92 E0 ;zero the extruded length again
M117 Printing...
G1 F120
G92 E0
G1 F2400 E-2.5
;LAYER_COUNT:12
;LAYER:0
M107
G0 F3600 X70.345 Y90.014 Z0.2
;TYPE:SKIRT
G1 F2400 E0
G1 F900 X70.687 Y89.761 E0.01415
G1 X71.585 Y89.175 E0.04981
G1 X71.978 Y88.952 E0.06484
G1 X73.052 Y88.43 E0.10456
G1 X73.594 Y88.219 E0.1239
G1 X75.221 Y87.732 E0.18039
G1 X75.742 Y87.617 E0.19814
G1 X76.655 Y87.486 E0.22881
G1 X77.036 Y87.452 E0.24154
G1 X78.06 Y87.415 E0.27562
G1 X78.463 Y87.423 E0.28902
G1 X83.217 Y87.784 E0.4476
G1 X88.671 Y87.957 E0.62909
G1 X94.148 Y87.821 E0.81131
G1 X99.532 Y87.423 E0.99087
G1 X100.019 Y87.42 E1.00707
G1 X107.952 Y87.909 E1.27142
G1 X113.435 Y87.928 E1.45379
G1 X116.115 Y87.823 E1.543
G1 X121.532 Y87.423 E1.72366
G1 X121.922 Y87.415 E1.73663
G1 X122.956 Y87.451 E1.77104
G1 X123.388 Y87.492 E1.78548
G1 X124.499 Y87.666 E1.82288
G1 X125.015 Y87.787 E1.84051
G1 X126.478 Y88.244 E1.89148
G1 X126.974 Y88.44 E1.90922
G1 X127.984 Y88.929 E1.94655
G1 X128.365 Y89.143 E1.96108
G1 X129.259 Y89.719 E1.99645
G1 X129.594 Y89.963 E2.01024
G1 X130.389 Y90.616 E2.04445
G1 X130.707 Y90.911 E2.05888
G1 X131.476 Y91.716 E2.09591
G1 X131.763 Y92.056 E2.11071
G1 X132.422 Y92.943 E2.14746
G1 X132.659 Y93.306 E2.16188
G1 X133.186 Y94.23 E2.19726
G1 X133.367 Y94.594 E2.21078
G1 X133.75 Y95.486 E2.24307
G1 X133.899 Y95.901 E2.25773
G1 X134.244 Y97.088 E2.29885
G1 X134.339 Y97.506 E2.3131
G1 X134.483 Y98.377 E2.34247
G1 X134.526 Y98.765 E2.35545
G1 X134.586 Y99.85 E2.39159
G1 X134.582 Y100.299 E2.40653
G1 X134.503 Y101.433 E2.44434
G1 X134.449 Y101.855 E2.45849
G1 X134.258 Y102.861 E2.49254
G1 X134.153 Y103.275 E2.50675
G1 X133.831 Y104.293 E2.54226
G1 X133.68 Y104.688 E2.55633
G1 X133.24 Y105.663 E2.5919
G1 X133.037 Y106.049 E2.60641
G1 X132.47 Y106.984 E2.64278
G1 X132.149 Y107.431 E2.66108
G1 X131.073 Y108.713 E2.71675
G1 X130.675 Y109.119 E2.73566
G1 X125.085 Y113.967 E2.98176
G1 X121.185 Y117.773 E3.16301
G1 X117.514 Y121.785 E3.34388
G1 X114.055 Y126.023 E3.52583
G1 X110.211 Y131.366 E3.74475
G1 X110.078 Y131.54 E3.75203
G1 X109.413 Y132.355 E3.78702
G1 X109.141 Y132.653 E3.80044
G1 X108.468 Y133.311 E3.83174
G1 X108.177 Y133.567 E3.84464
G1 X107.362 Y134.208 E3.87912
G1 X107.01 Y134.452 E3.89337
G1 X106.083 Y135.017 E3.92947
G1 X105.697 Y135.221 E3.944
G1 X104.684 Y135.681 E3.981
G1 X104.25 Y135.845 E3.99643
G1 X103.113 Y136.193 E4.03598
G1 X102.706 Y136.292 E4.04991
G1 X101.819 Y136.454 E4.0799
G1 X101.419 Y136.504 E4.09331
G1 X100.315 Y136.58 E4.13011
G1 X99.881 Y136.584 E4.14455
G1 X98.807 Y136.528 E4.18032
G1 X98.352 Y136.475 E4.19555
G1 X97.188 Y136.264 E4.2349
G1 X96.643 Y136.121 E4.25364
G1 X95.085 Y135.577 E4.30853
G1 X94.59 Y135.361 E4.32649
G1 X93.665 Y134.872 E4.36129
G1 X93.294 Y134.646 E4.37574
G1 X92.369 Y134.004 E4.41319
G1 X92.023 Y133.731 E4.42785
G1 X91.233 Y133.025 E4.46309
G1 X90.961 Y132.755 E4.47583
G1 X90.361 Y132.091 E4.5056
G1 X90.087 Y131.748 E4.5202
G1 X88.492 Y129.48 E4.61242
G1 X85.222 Y125.088 E4.79454
G1 X81.717 Y120.899 E4.97621
G1 X77.98 Y116.914 E5.15791
G1 X76.044 Y115.017 E5.24806
G1 X74.048 Y113.17 E5.33851
G1 X69.72 Y109.479 E5.5277
G1 X69.463 Y109.238 E5.53942
G1 X68.439 Y108.175 E5.58851
G1 X68.046 Y107.688 E5.60932
G1 X67.131 Y106.329 E5.66381
G1 X66.82 Y105.763 E5.68529
G1 X66.187 Y104.318 E5.73776
G1 X65.979 Y103.697 E5.75955
G1 X65.591 Y102.046 E5.81595
G1 X65.505 Y101.48 E5.835
G1 X65.422 Y100.324 E5.87354
G1 X65.418 Y99.882 E5.88825
G1 X65.471 Y98.846 E5.92275
G1 X65.518 Y98.422 E5.93694
G1 X65.704 Y97.336 E5.97358
G1 X65.796 Y96.936 E5.98723
G1 X66.065 Y96.014 E6.01918
G1 X66.205 Y95.621 E6.03305
G1 X66.638 Y94.596 E6.07006
G1 X66.822 Y94.221 E6.08396
G1 X67.308 Y93.364 E6.11672
G1 X67.543 Y93.002 E6.13108
G1 X68.233 Y92.067 E6.16973
G1 X68.515 Y91.731 E6.18432
G1 X69.215 Y90.991 E6.2182
G1 X69.521 Y90.703 E6.23217
G1 X70.345 Y90.014 E6.2679
G0 F3600 X70.601 Y90.321
G1 F900 X70.905 Y90.096 E6.28048
G1 X71.803 Y89.51 E6.31614
G1 X72.153 Y89.312 E6.32952
G1 X73.227 Y88.79 E6.36923
G1 X73.708 Y88.602 E6.38641
G1 X75.335 Y88.115 E6.4429
G1 X75.799 Y88.013 E6.4587
G1 X76.712 Y87.882 E6.48938
G1 X77.05 Y87.852 E6.50066
G1 X78.074 Y87.815 E6.53474
G1 X78.432 Y87.822 E6.54665
G1 X83.196 Y88.184 E6.70556
G1 X88.668 Y88.357 E6.88765
G1 X94.167 Y88.221 E7.0706
G1 X99.561 Y87.822 E7.2505
G1 X99.994 Y87.819 E7.2649
G1 X107.943 Y88.309 E7.52979
G1 X113.426 Y88.328 E7.71216
G1 X116.158 Y88.221 E7.80309
G1 X121.561 Y87.822 E7.98329
G1 X121.908 Y87.815 E7.99483
G1 X122.942 Y87.851 E8.02924
G1 X123.326 Y87.888 E8.04207
G1 X124.437 Y88.062 E8.07947
G1 X124.896 Y88.169 E8.09515
G1 X126.359 Y88.626 E8.14613
G1 X126.799 Y88.8 E8.16187
G1 X127.809 Y89.289 E8.19919
G1 X128.148 Y89.479 E8.21211
G1 X129.042 Y90.055 E8.24749
G1 X129.34 Y90.272 E8.25975
G1 X130.135 Y90.925 E8.29396
G1 X130.418 Y91.188 E8.30681
G1 X131.187 Y91.993 E8.34384
G1 X131.442 Y92.295 E8.35699
G1 X132.101 Y93.182 E8.39374
G1 X132.312 Y93.505 E8.40657
G1 X132.839 Y94.429 E8.44195
G1 X132.999 Y94.751 E8.45391
G1 X133.382 Y95.643 E8.4862
G1 X133.515 Y96.013 E8.49928
G1 X133.86 Y97.2 E8.54039
G1 X133.944 Y97.571 E8.55304
G1 X134.088 Y98.442 E8.5824
G1 X134.126 Y98.787 E8.59395
G1 X134.186 Y99.872 E8.63009
G1 X134.183 Y100.271 E8.64336
G1 X134.104 Y101.405 E8.68117
G1 X134.056 Y101.78 E8.69374
G1 X133.865 Y102.786 E8.7278
G1 X133.772 Y103.154 E8.74043
G1 X133.45 Y104.172 E8.77594
G1 X133.316 Y104.523 E8.78844
G1 X132.876 Y105.498 E8.82401
G1 X132.695 Y105.841 E8.83691
G1 X132.128 Y106.776 E8.87328
G1 X131.843 Y107.174 E8.88956
G1 X130.767 Y108.456 E8.94523
G1 X130.413 Y108.816 E8.96202
G1 X124.818 Y113.669 E9.20836
G1 X120.902 Y117.49 E9.39034
G1 X117.209 Y121.526 E9.57229
G1 X113.748 Y125.766 E9.75433
G1 X109.887 Y131.133 E9.97423
G1 X109.768 Y131.287 E9.98071
G1 X109.103 Y132.102 E10.01569
G1 X108.861 Y132.367 E10.02763
G1 X108.188 Y133.025 E10.05893
G1 X107.929 Y133.252 E10.07039
G1 X107.114 Y133.893 E10.10487
G1 X106.801 Y134.11 E10.11754
G1 X105.874 Y134.675 E10.15365
G1 X105.532 Y134.857 E10.16653
G1 X104.519 Y135.317 E10.20354
G1 X104.133 Y135.463 E10.21726
G1 X102.996 Y135.811 E10.25681
G1 X102.634 Y135.899 E10.2692
G1 X101.747 Y136.061 E10.29919
G1 X101.392 Y136.105 E10.31109
G1 X100.288 Y136.181 E10.3479
G1 X99.901 Y136.185 E10.36077
G1 X98.827 Y136.129 E10.39654
G1 X98.423 Y136.082 E10.41007
G1 X97.259 Y135.871 E10.44941
G1 X96.775 Y135.743 E10.46606
G1 X95.217 Y135.199 E10.52095
G1 X94.776 Y135.007 E10.53695
G1 X93.851 Y134.518 E10.57175
G1 X93.522 Y134.318 E10.58455
G1 X92.597 Y133.676 E10.622
G1 X92.29 Y133.433 E10.63503
G1 X91.5 Y132.727 E10.67027
G1 X91.258 Y132.486 E10.68163
G1 X90.658 Y131.822 E10.71139
G1 X90.414 Y131.518 E10.72436
G1 X88.824 Y129.257 E10.81629
G1 X85.525 Y124.827 E11
G1 X82.024 Y120.642 E11.18148
G1 X78.258 Y116.626 E11.36459
G1 X76.314 Y114.72 E11.45514
G1 X74.323 Y112.879 E11.54533
G1 X69.98 Y109.175 E11.73518
G1 X69.751 Y108.96 E11.74563
G1 X68.727 Y107.897 E11.79472
G1 X68.378 Y107.464 E11.81322
G1 X67.463 Y106.105 E11.86771
G1 X67.186 Y105.602 E11.88681
G1 X66.553 Y104.157 E11.93928
G1 X66.369 Y103.605 E11.95863
G1 X65.981 Y101.954 E12.01504
G1 X65.904 Y101.451 E12.03197
G1 X65.821 Y100.295 E12.07051
G1 X65.817 Y99.903 E12.08355
G1 X65.87 Y98.867 E12.11805
G1 X65.912 Y98.49 E12.13067
G1 X66.098 Y97.404 E12.16732
G1 X66.18 Y97.048 E12.17947
G1 X66.449 Y96.126 E12.21141
G1 X66.573 Y95.777 E12.22373
G1 X67.006 Y94.752 E12.26074
G1 X67.17 Y94.418 E12.27312
G1 X67.656 Y93.561 E12.30588
G1 X67.865 Y93.24 E12.31862
G1 X68.555 Y92.305 E12.35727
G1 X68.805 Y92.006 E12.37024
G1 X69.505 Y91.266 E12.40412
G1 X69.777 Y91.01 E12.41654
G1 X70.601 Y90.321 E12.45226
G1 F2400 E9.95226
;MESH:Mario Coin v1.stl(2)
G0 F3600 X74.982 Y90.82
G0 X75.415 Y92.03
G0 X78.381 Y91.708
G0 X78.385 Y91.609
;TYPE:WALL-INNER
G1 F2400 E12.45226
G1 F900 X78.882 Y91.646 E12.46884
G1 X79.38 Y91.714 E12.48556
G1 X79.862 Y91.809 E12.5019
G1 X80.364 Y91.939 E12.51914
G1 X80.838 Y92.093 E12.53572
G1 X81.297 Y92.273 E12.55212
G1 X81.76 Y92.488 E12.5691
G1 X82.212 Y92.732 E12.58618
G1 X82.632 Y92.991 E12.60259
G1 X83.025 Y93.268 E12.61859
G1 X83.437 Y93.597 E12.63612
G1 X83.821 Y93.942 E12.65329
G1 X84.153 Y94.28 E12.66905
G1 X84.493 Y94.668 E12.68621
G1 X84.793 Y95.057 E12.70255
G1 X85.085 Y95.484 E12.71975
G1 X85.34 Y95.911 E12.73629
G1 X85.573 Y96.362 E12.75318
G1 X85.777 Y96.82 E12.76985
G1 X85.949 Y97.278 E12.78613
G1 X86.098 Y97.759 E12.80287
G1 X86.216 Y98.245 E12.81951
G1 X86.308 Y98.754 E12.83671
G1 X86.368 Y99.246 E12.8532
G1 X86.398 Y99.743 E12.86976
G1 X86.398 Y100.257 E12.88685
G1 X86.369 Y100.742 E12.90301
G1 X86.308 Y101.243 E12.9198
G1 X86.216 Y101.755 E12.9371
G1 X86.099 Y102.235 E12.95353
G1 X85.95 Y102.72 E12.97041
G1 X85.777 Y103.18 E12.98676
G1 X85.573 Y103.638 E13.00343
G1 X85.34 Y104.089 E13.02031
G1 X85.085 Y104.516 E13.03686
G1 X84.793 Y104.943 E13.05406
G1 X84.493 Y105.332 E13.0704
G1 X84.153 Y105.72 E13.08756
G1 X83.821 Y106.058 E13.10332
G1 X83.437 Y106.403 E13.12049
G1 X83.025 Y106.732 E13.13802
G1 X82.632 Y107.009 E13.15401
G1 X82.212 Y107.268 E13.17043
G1 X81.76 Y107.512 E13.18751
G1 X81.297 Y107.727 E13.20449
G1 X80.838 Y107.907 E13.22089
G1 X80.364 Y108.061 E13.23746
G1 X79.862 Y108.191 E13.25471
G1 X79.38 Y108.286 E13.27105
G1 X78.882 Y108.354 E13.28777
G1 X78.385 Y108.391 E13.30434
G1 X77.885 Y108.399 E13.32098
G1 X77.369 Y108.375 E13.33816
G1 X76.857 Y108.322 E13.35528
G1 X76.387 Y108.243 E13.37113
G1 X75.898 Y108.132 E13.38781
G1 X75.408 Y107.989 E13.40478
G1 X74.939 Y107.821 E13.42135
G1 X74.463 Y107.617 E13.43858
G1 X74.025 Y107.397 E13.45488
G1 X73.578 Y107.14 E13.47203
G1 X73.168 Y106.869 E13.48838
G1 X72.768 Y106.57 E13.50499
G1 X72.385 Y106.245 E13.52169
G1 X72.022 Y105.897 E13.53842
G1 X71.664 Y105.512 E13.55591
G1 X71.357 Y105.14 E13.57195
G1 X71.066 Y104.738 E13.58845
G1 X70.789 Y104.303 E13.60561
G1 X70.544 Y103.865 E13.6223
G1 X70.327 Y103.415 E13.63891
G1 X70.14 Y102.957 E13.65537
G1 X69.979 Y102.483 E13.67202
G1 X69.841 Y101.985 E13.68921
G1 X69.736 Y101.49 E13.70604
G1 X69.661 Y100.999 E13.72256
G1 X69.618 Y100.516 E13.73868
G1 X69.602 Y100.006 E13.75566
G1 X69.618 Y99.48 E13.77316
G1 X69.661 Y99.001 E13.78915
G1 X69.736 Y98.51 E13.80567
G1 X69.841 Y98.014 E13.82254
G1 X69.977 Y97.519 E13.83961
G1 X70.14 Y97.043 E13.85634
G1 X70.329 Y96.581 E13.87295
G1 X70.544 Y96.135 E13.88941
G1 X70.789 Y95.697 E13.90611
G1 X71.059 Y95.273 E13.92283
G1 X71.364 Y94.851 E13.94014
G1 X71.673 Y94.478 E13.95625
G1 X72.025 Y94.099 E13.97346
G1 X72.387 Y93.753 E13.99011
G1 X72.76 Y93.437 E14.00637
G1 X73.168 Y93.131 E14.02334
G1 X73.581 Y92.858 E14.0398
G1 X74.025 Y92.603 E14.05683
G1 X74.469 Y92.38 E14.07336
G1 X74.934 Y92.181 E14.09018
G1 X75.409 Y92.011 E14.10696
G1 X75.898 Y91.868 E14.1239
G1 X76.387 Y91.757 E14.14058
G1 X76.857 Y91.678 E14.15643
G1 X77.369 Y91.625 E14.17355
G1 X77.885 Y91.601 E14.19073
G1 X78.385 Y91.609 E14.20737
G0 F3600 X78.381 Y91.708
G0 X83.752 Y105.986
G0 X84.088 Y106.356
;TYPE:WALL-OUTER
G1 F900 X83.687 Y106.716 E14.22529
G1 X83.275 Y107.045 E14.24283
G1 X82.855 Y107.341 E14.25992
G1 X82.407 Y107.618 E14.27744
G1 X81.933 Y107.873 E14.29534
G1 X81.466 Y108.09 E14.31246
G1 X80.971 Y108.284 E14.33015
G1 X80.476 Y108.445 E14.34746
G1 X79.955 Y108.58 E14.36536
G1 X79.443 Y108.681 E14.38272
G1 X78.918 Y108.753 E14.40034
G1 X78.403 Y108.791 E14.41752
G1 X77.873 Y108.799 E14.43515
G1 X77.342 Y108.775 E14.45283
G1 X76.815 Y108.72 E14.47045
G1 X76.304 Y108.634 E14.48769
G1 X75.79 Y108.518 E14.50521
G1 X75.282 Y108.369 E14.52282
G1 X74.792 Y108.194 E14.54013
G1 X74.298 Y107.982 E14.55801
G1 X73.831 Y107.748 E14.57538
G1 X73.378 Y107.487 E14.59277
G1 X72.937 Y107.196 E14.61034
G1 X72.517 Y106.881 E14.6278
G1 X72.115 Y106.54 E14.64534
G1 X71.735 Y106.176 E14.66284
G1 X71.371 Y105.785 E14.6806
G1 X71.042 Y105.387 E14.69778
G1 X70.735 Y104.962 E14.71522
G1 X70.445 Y104.508 E14.73314
G1 X70.189 Y104.049 E14.75062
G1 X69.963 Y103.581 E14.7679
G1 X69.761 Y103.086 E14.78568
G1 X69.595 Y102.598 E14.80283
G1 X69.455 Y102.092 E14.82029
G1 X69.343 Y101.565 E14.83821
G1 X69.264 Y101.045 E14.8557
G1 X69.218 Y100.531 E14.87287
G1 X69.202 Y100.006 E14.89034
G1 X69.218 Y99.468 E14.90824
G1 X69.264 Y98.955 E14.92537
G1 X69.343 Y98.435 E14.94286
G1 X69.455 Y97.908 E14.96078
G1 X69.595 Y97.4 E14.97831
G1 X69.761 Y96.914 E14.99539
G1 X69.965 Y96.415 E15.01332
G1 X70.189 Y95.951 E15.03046
G1 X70.445 Y95.492 E15.04794
G1 X70.735 Y95.038 E15.06585
G1 X71.044 Y94.611 E15.08339
G1 X71.371 Y94.215 E15.10047
G1 X71.738 Y93.82 E15.1184
G1 X72.118 Y93.457 E15.13588
G1 X72.52 Y93.117 E15.15339
G1 X72.937 Y92.804 E15.17073
G1 X73.381 Y92.511 E15.18843
G1 X73.831 Y92.252 E15.20569
G1 X74.298 Y92.018 E15.22307
G1 X74.793 Y91.806 E15.24098
G1 X75.282 Y91.631 E15.25825
G1 X75.79 Y91.482 E15.27586
G1 X76.304 Y91.366 E15.29339
G1 X76.815 Y91.28 E15.31062
G1 X77.342 Y91.225 E15.32824
G1 X77.873 Y91.201 E15.34592
G1 X78.403 Y91.209 E15.36355
G1 X78.918 Y91.247 E15.38073
G1 X79.443 Y91.319 E15.39835
G1 X79.955 Y91.42 E15.41571
G1 X80.476 Y91.555 E15.43361
G1 X80.971 Y91.716 E15.45092
G1 X81.466 Y91.91 E15.46861
G1 X81.933 Y92.127 E15.48573
G1 X82.407 Y92.382 E15.50364
G1 X82.855 Y92.659 E15.52116
G1 X83.275 Y92.955 E15.53825
G1 X83.687 Y93.284 E15.55578
G1 X84.088 Y93.644 E15.57371
G1 X84.448 Y94.01 E15.59078
G1 X84.803 Y94.416 E15.60872
G1 X85.118 Y94.823 E15.62584
G1 X85.415 Y95.258 E15.64335
G1 X85.691 Y95.72 E15.66125
G1 X85.933 Y96.187 E15.67875
G1 X86.147 Y96.668 E15.69626
G1 X86.328 Y97.15 E15.71338
G1 X86.487 Y97.665 E15.73131
G1 X86.608 Y98.165 E15.74842
G1 X86.702 Y98.683 E15.76593
G1 X86.766 Y99.205 E15.78342
G1 X86.798 Y99.743 E15.80135
G1 X86.798 Y100.257 E15.81844
G1 X86.767 Y100.783 E15.83597
G1 X86.702 Y101.314 E15.85376
G1 X86.608 Y101.835 E15.87137
G1 X86.487 Y102.335 E15.88848
G1 X86.329 Y102.848 E15.90633
G1 X86.147 Y103.332 E15.92353
G1 X85.933 Y103.813 E15.94104
G1 X85.691 Y104.28 E15.95853
G1 X85.415 Y104.742 E15.97643
G1 X85.118 Y105.177 E15.99395
G1 X84.803 Y105.584 E16.01107
G1 X84.448 Y105.99 E16.02901
G1 X84.088 Y106.356 E16.04608
G0 F3600 X83.939 Y106.489
G0 X83.607 Y106.117
G0 X83.551 Y105.776
;TYPE:SKIN
G1 F900 X83.185 Y106.105 E16.06245
G1 X82.789 Y106.421 E16.0793
G1 X82.427 Y106.677 E16.09405
G1 X82.017 Y106.93 E16.11007
G1 X81.58 Y107.166 E16.12659
G1 X81.155 Y107.364 E16.14219
G1 X80.712 Y107.538 E16.15802
G1 X80.257 Y107.685 E16.17392
G1 X79.764 Y107.813 E16.19086
G1 X79.318 Y107.901 E16.20598
G1 X78.833 Y107.968 E16.22226
G1 X78.379 Y108.001 E16.2374
G1 X77.897 Y108.009 E16.25344
G1 X77.391 Y107.985 E16.27029
G1 X76.9 Y107.934 E16.28671
G1 X76.465 Y107.861 E16.30138
G1 X75.995 Y107.755 E16.3174
G1 X75.528 Y107.618 E16.33359
G1 X75.092 Y107.462 E16.34899
G1 X74.624 Y107.261 E16.36593
G1 X74.21 Y107.053 E16.38134
G1 X73.787 Y106.81 E16.39757
G1 X73.388 Y106.547 E16.41346
G1 X73.008 Y106.263 E16.42924
G1 X72.643 Y105.953 E16.44517
G1 X72.301 Y105.626 E16.4609
G1 X71.954 Y105.252 E16.47787
G1 X71.669 Y104.907 E16.49276
G1 X71.387 Y104.517 E16.50876
G1 X71.13 Y104.112 E16.52472
G1 X70.885 Y103.674 E16.54141
G1 X70.684 Y103.259 E16.55675
G1 X70.501 Y102.809 E16.5729
G1 X70.352 Y102.369 E16.58835
G1 X70.223 Y101.901 E16.6045
G1 X70.118 Y101.408 E16.62127
G1 X70.047 Y100.94 E16.63701
G1 X70.008 Y100.503 E16.6516
G1 X69.992 Y100.018 E16.66774
G1 X70.008 Y99.492 E16.68524
G1 X70.047 Y99.06 E16.69967
G1 X70.118 Y98.59 E16.71548
G1 X70.22 Y98.106 E16.73193
G1 X70.35 Y97.634 E16.74822
G1 X70.505 Y97.181 E16.76414
G1 X70.69 Y96.729 E16.78038
G1 X70.885 Y96.326 E16.79527
G1 X71.13 Y95.888 E16.81197
