;FLAVOR:Marlin
;TIME:1594
;Filament used: 0.808276m
;Layer height: 0.16
;MINX:63.352
;MINY:73.137
;MINZ:0.2
;MAXX:132.621
;MAXY:126.857
;MAXZ:9
;Generated with Cura_SteamEngine 4.4.0
M140 S60
M105
M190 S60
M104 S200
M105
M109 S200
M82 ;absolute extrusion mode
; START CODE
G21 ;metric values
G90 ;absolute positioning
M82 ;set extruder to absolute mode
M107 ;start with the fan off
G28 X0 Y0 ;move X/Y to min endstops
G28 Z0 ;move Z to min endstops
G1 Z15.0 F120 ;move the platform down 15mm
G92 E0 ;zero the extruded length
G1 F200 E6 ;extrude 6 mm of feed stock
G92 E0 ;zero the extruded length again
G1 F120
;Put printing message on LCD screen
M117 Printing...
G92 E0
G92 E0
G1 F2400 E-2.5
;LAYER_COUNT:56
;LAYER:0
M107
G0 F3600 X64.75 Y94.529 Z0.2
;TYPE:SKIRT
G1 F2400 E0
G1 F1200 X65.197 Y94.232 E0.01785
G1 X65.682 Y94.004 E0.03567
G1 X66.147 Y93.862 E0.05185
G1 X66.883 Y93.691 E0.07698
G1 X66.937 Y93.679 E0.07882
G1 X68.074 Y93.433 E0.11751
G1 X70.695 Y92.79 E0.20727
G1 X73.343 Y92.061 E0.29862
G1 X75.924 Y91.268 E0.38842
G1 X78.533 Y90.387 E0.48001
G1 X81.077 Y89.447 E0.57022
G1 X83.611 Y88.428 E0.66106
G1 X85.608 Y87.566 E0.7334
G1 X116.635 Y73.75 E1.86305
G1 X116.683 Y73.729 E1.86479
G1 X117.3 Y73.465 E1.88711
G1 X117.771 Y73.301 E1.9037
G1 X117.918 Y73.261 E1.90877
G1 X118.444 Y73.159 E1.92659
G1 X118.98 Y73.137 E1.94443
G1 X119.513 Y73.194 E1.96226
G1 X120.032 Y73.33 E1.98011
G1 X120.525 Y73.542 E1.99796
G1 X120.981 Y73.824 E2.01579
G1 X121.39 Y74.171 E2.03363
G1 X121.743 Y74.575 E2.05147
G1 X122.128 Y75.218 E2.0764
G1 X122.364 Y75.726 E2.09503
G1 X122.389 Y75.781 E2.09704
G1 X122.585 Y76.222 E2.11309
G1 X122.602 Y76.261 E2.1145
G1 X122.889 Y76.928 E2.13866
G1 X122.946 Y77.069 E2.14371
G1 X124.175 Y80.294 E2.2585
G1 X124.352 Y80.737 E2.27437
G1 X124.413 Y80.9 E2.28016
G1 X124.622 Y81.505 E2.30145
G1 X124.643 Y81.568 E2.30366
G1 X124.781 Y81.993 E2.31852
G1 X124.796 Y82.039 E2.32013
G1 X125.008 Y82.723 E2.34394
G1 X125.062 Y82.916 E2.35061
G1 X125.1 Y83.07 E2.35589
G1 X125.91 Y86.121 E2.46088
G1 X126.06 Y86.652 E2.47923
G1 X126.101 Y86.811 E2.48469
G1 X126.227 Y87.348 E2.50304
G1 X126.243 Y87.419 E2.50546
G1 X126.365 Y87.991 E2.52491
G1 X126.373 Y88.033 E2.52633
G1 X126.505 Y88.69 E2.54862
G1 X126.534 Y88.849 E2.554
G1 X126.972 Y91.684 E2.64941
G1 X127.146 Y92.737 E2.68491
G1 X127.161 Y92.839 E2.68834
G1 X127.2 Y93.126 E2.69797
G1 X127.213 Y93.228 E2.70139
G1 X127.296 Y94.003 E2.72731
G1 X127.301 Y94.062 E2.72928
G1 X127.366 Y94.782 E2.75333
G1 X127.377 Y94.93 E2.75826
G1 X127.515 Y97.755 E2.85233
G1 X127.528 Y97.926 E2.85804
G1 X127.532 Y97.981 E2.85987
G1 X127.585 Y98.87 E2.88949
G1 X127.589 Y98.975 E2.89299
G1 X127.6 Y99.337 E2.90503
G1 X127.602 Y99.441 E2.90849
G1 X127.603 Y100.201 E2.93377
G1 X127.603 Y100.258 E2.93567
G1 X127.593 Y100.947 E2.95859
G1 X127.587 Y101.098 E2.96361
G1 X127.423 Y103.997 E3.06019
G1 X127.418 Y104.178 E3.06621
G1 X127.416 Y104.236 E3.06814
G1 X127.394 Y104.71 E3.08392
G1 X127.385 Y104.843 E3.08836
G1 X127.268 Y106.243 E3.13508
G1 X127.257 Y106.362 E3.13906
G1 X127.173 Y107.079 E3.16307
G1 X127.15 Y107.237 E3.16838
G1 X126.691 Y110.063 E3.2636
G1 X126.642 Y110.42 E3.27559
G1 X126.633 Y110.48 E3.27761
G1 X126.576 Y110.851 E3.29009
G1 X126.554 Y110.978 E3.29438
G1 X126.302 Y112.3 E3.33914
G1 X126.277 Y112.422 E3.34328
G1 X126.109 Y113.163 E3.36855
G1 X126.071 Y113.314 E3.37373
G1 X125.289 Y116.185 E3.4727
G1 X125.122 Y116.854 E3.49563
G1 X125.075 Y117.027 E3.5016
G1 X124.755 Y118.084 E3.53833
G1 X124.721 Y118.189 E3.542
G1 X124.427 Y119.063 E3.57267
G1 X124.371 Y119.218 E3.57815
G1 X123.338 Y121.878 E3.67306
G1 X123.272 Y122.061 E3.67953
G1 X123.253 Y122.112 E3.68134
G1 X123.069 Y122.601 E3.69872
G1 X123.021 Y122.723 E3.70308
G1 X122.488 Y123.996 E3.74898
G1 X122.437 Y124.111 E3.75316
G1 X122.135 Y124.767 E3.77718
G1 X121.875 Y125.237 E3.79505
G1 X121.548 Y125.662 E3.81288
G1 X121.162 Y126.034 E3.83071
G1 X120.725 Y126.344 E3.84853
G1 X120.246 Y126.586 E3.86638
G1 X119.737 Y126.755 E3.88422
G1 X119.209 Y126.846 E3.90204
G1 X118.673 Y126.857 E3.91987
G1 X118.141 Y126.788 E3.93772
G1 X117.487 Y126.588 E3.96046
G1 X116.611 Y126.225 E3.992
G1 X116.545 Y126.197 E3.99439
G1 X114.994 Y125.518 E4.0507
G1 X114.974 Y125.509 E4.05143
G1 X85.647 Y112.45 E5.11918
G1 X83.085 Y111.353 E5.21188
G1 X80.557 Y110.353 E5.3023
G1 X77.984 Y109.42 E5.39333
G1 X75.409 Y108.566 E5.48356
G1 X72.807 Y107.785 E5.57392
G1 X70.148 Y107.067 E5.66552
G1 X66.639 Y106.243 E5.78541
G1 X66.207 Y106.15 E5.80011
G1 X65.693 Y105.999 E5.81793
G1 X65.206 Y105.773 E5.83578
G1 X64.759 Y105.477 E5.85361
G1 X64.36 Y105.118 E5.87147
G1 X64.02 Y104.704 E5.88928
G1 X63.744 Y104.244 E5.90713
G1 X63.54 Y103.748 E5.92496
G1 X63.412 Y103.227 E5.94281
G1 X63.364 Y102.735 E5.95925
G1 X63.354 Y102.392 E5.97066
G1 X63.352 Y102.287 E5.97415
G1 X63.352 Y98.006 E6.11654
G1 X63.362 Y97.317 E6.13946
G1 X63.41 Y96.783 E6.15729
G1 X63.537 Y96.261 E6.17516
G1 X63.739 Y95.765 E6.19297
G1 X64.013 Y95.304 E6.21081
G1 X64.353 Y94.889 E6.22865
G1 X64.75 Y94.529 E6.24648
G0 F3600 X65.136 Y94.741
G1 F1200 X65.572 Y94.486 E6.26328
G1 X66.238 Y94.252 E6.28676
G1 X66.974 Y94.081 E6.31189
G1 X67.021 Y94.07 E6.31349
G1 X68.148 Y93.826 E6.35185
G1 X70.825 Y93.169 E6.44353
G1 X73.44 Y92.45 E6.53373
G1 X76.055 Y91.646 E6.62472
G1 X78.663 Y90.765 E6.71628
G1 X81.217 Y89.822 E6.80683
G1 X83.771 Y88.795 E6.89839
G1 X85.802 Y87.918 E6.97197
G1 X116.797 Y74.116 E8.10046
G1 X116.84 Y74.097 E8.10202
G1 X117.457 Y73.833 E8.12434
G1 X117.876 Y73.687 E8.1391
G1 X118.023 Y73.647 E8.14417
G1 X118.52 Y73.553 E8.16099
G1 X119.025 Y73.539 E8.17779
G1 X119.526 Y73.604 E8.1946
G1 X120.011 Y73.748 E8.21142
G1 X120.467 Y73.966 E8.22823
G1 X120.883 Y74.253 E8.24504
G1 X121.249 Y74.602 E8.26186
G1 X121.555 Y75.005 E8.27869
G1 X121.765 Y75.387 E8.29319
G1 X122.001 Y75.895 E8.31182
G1 X122.023 Y75.943 E8.31358
G1 X122.219 Y76.384 E8.32963
G1 X122.234 Y76.419 E8.3309
G1 X122.521 Y77.086 E8.35505
G1 X122.572 Y77.212 E8.35957
G1 X123.79 Y80.408 E8.47333
G1 X123.981 Y80.885 E8.49041
G1 X124.035 Y81.03 E8.49556
G1 X124.244 Y81.635 E8.51685
G1 X124.263 Y81.692 E8.51885
G1 X124.401 Y82.117 E8.53371
G1 X124.414 Y82.158 E8.53514
G1 X124.626 Y82.842 E8.55896
G1 X124.673 Y83.013 E8.56486
G1 X124.713 Y83.172 E8.57031
G1 X125.515 Y86.196 E8.67437
G1 X125.675 Y86.761 E8.6939
G1 X125.711 Y86.902 E8.69874
G1 X125.837 Y87.439 E8.71708
G1 X125.852 Y87.502 E8.71924
G1 X125.974 Y88.074 E8.73869
G1 X125.981 Y88.112 E8.73997
G1 X126.113 Y88.769 E8.76226
G1 X126.138 Y88.91 E8.76703
G1 X126.577 Y91.749 E8.86257
G1 X126.751 Y92.802 E8.89807
G1 X126.765 Y92.893 E8.90113
G1 X126.804 Y93.18 E8.91077
G1 X126.815 Y93.27 E8.91378
G1 X126.898 Y94.045 E8.93971
G1 X126.903 Y94.098 E8.94148
G1 X126.968 Y94.818 E8.96552
G1 X126.977 Y94.95 E8.96992
G1 X127.115 Y97.765 E9.06366
G1 X127.129 Y97.956 E9.07003
G1 X127.132 Y98.005 E9.07167
G1 X127.185 Y98.894 E9.10129
G1 X127.19 Y98.987 E9.10438
G1 X127.201 Y99.349 E9.11643
G1 X127.202 Y99.442 E9.11952
G1 X127.203 Y100.202 E9.1448
G1 X127.203 Y100.252 E9.14646
G1 X127.193 Y100.941 E9.16938
G1 X127.188 Y101.075 E9.17384
G1 X127.025 Y103.961 E9.26998
G1 X127.019 Y104.166 E9.27681
G1 X127.017 Y104.217 E9.2785
G1 X126.995 Y104.691 E9.29429
G1 X126.987 Y104.809 E9.29822
G1 X126.87 Y106.209 E9.34495
G1 X126.859 Y106.315 E9.34849
G1 X126.775 Y107.032 E9.3725
G1 X126.756 Y107.173 E9.37723
G1 X126.297 Y109.995 E9.47233
G1 X126.246 Y110.366 E9.48478
G1 X126.238 Y110.419 E9.48656
G1 X126.181 Y110.79 E9.49905
G1 X126.161 Y110.903 E9.50287
G1 X125.909 Y112.225 E9.54763
G1 X125.887 Y112.334 E9.55133
G1 X125.719 Y113.075 E9.5766
G1 X125.685 Y113.208 E9.58116
G1 X124.905 Y116.069 E9.67979
G1 X124.734 Y116.757 E9.70337
G1 X124.692 Y116.911 E9.70868
G1 X124.372 Y117.968 E9.74541
G1 X124.342 Y118.061 E9.74866
G1 X124.048 Y118.935 E9.77933
G1 X123.998 Y119.074 E9.78425
G1 X122.968 Y121.726 E9.87887
G1 X122.896 Y121.926 E9.88594
G1 X122.879 Y121.971 E9.88754
G1 X122.695 Y122.46 E9.90492
G1 X122.652 Y122.569 E9.90882
G1 X122.119 Y123.842 E9.95472
G1 X122.074 Y123.944 E9.95843
G1 X121.772 Y124.6 E9.98245
G1 X121.525 Y125.041 E9.99926
G1 X121.211 Y125.438 E10.01609
G1 X120.839 Y125.78 E10.0329
G1 X120.418 Y126.06 E10.04972
G1 X119.958 Y126.27 E10.06653
G1 X119.471 Y126.404 E10.08333
G1 X118.968 Y126.46 E10.10017
G1 X118.463 Y126.437 E10.11698
G1 X117.968 Y126.334 E10.1338
G1 X117.64 Y126.218 E10.14537
G1 X116.764 Y125.855 E10.17691
G1 X116.706 Y125.83 E10.17901
G1 X115.155 Y125.151 E10.23532
G1 X115.136 Y125.143 E10.23601
G1 X85.805 Y112.082 E11.30391
G1 X83.253 Y110.99 E11.39623
G1 X80.692 Y109.977 E11.48783
G1 X78.11 Y109.039 E11.5792
G1 X75.544 Y108.189 E11.66911
G1 X72.888 Y107.392 E11.76134
G1 X70.275 Y106.687 E11.85136
G1 X66.718 Y105.85 E11.97289
G1 X66.291 Y105.759 E11.98741
G1 X65.807 Y105.614 E12.00422
G1 X65.351 Y105.395 E12.02104
G1 X64.936 Y105.107 E12.03785
G1 X64.571 Y104.757 E12.05467
G1 X64.266 Y104.354 E12.07148
G1 X64.028 Y103.907 E12.08832
G1 X63.863 Y103.429 E12.10514
G1 X63.763 Y102.723 E12.12885
G1 X63.753 Y102.38 E12.14027
G1 X63.752 Y102.287 E12.14336
G1 X63.752 Y98.012 E12.28555
G1 X63.762 Y97.323 E12.30847
G1 X63.81 Y96.819 E12.3253
G1 X63.936 Y96.33 E12.3421
G1 X64.137 Y95.866 E12.35892
G1 X64.409 Y95.44 E12.37573
G1 X64.745 Y95.062 E12.39255
G1 X65.136 Y94.741 E12.40938
G1 F2400 E9.90938
;MESH:rake_in_the_lake_-_rake.stl
G0 F3600 X72.323 Y96.696
G0 X72.596 Y97.979
G0 X105.445 Y83.928
G0 X105.408 Y84.02
;TYPE:WALL-INNER
G1 F2400 E12.40938
G1 F1200 X105.218 Y84.104 E12.41629
G1 X91.975 Y90.001 E12.89844
G1 X90.927 Y90.468 E12.93661
G1 X90.544 Y90.835 E12.95425
G1 X90.427 Y91.427 E12.97432
G1 X90.688 Y91.978 E12.9946
G1 X91.127 Y92.243 E13.01165
G1 X91.616 Y92.252 E13.02792
G1 X106.486 Y87.419 E13.54796
G1 X106.681 Y87.356 E13.55478
G1 X106.612 Y87.163 E13.55914
G1 X106.225 Y86.092 E13.59702
G1 X105.484 Y84.213 E13.6642
G1 X105.408 Y84.02 E13.66861
G0 F3600 X105.445 Y83.928
G0 X106.926 Y87.849
G0 X106.879 Y87.937
G1 F1200 X106.682 Y88.001 E13.67549
G1 X91.809 Y92.834 E14.19563
G1 X91.424 Y93.116 E14.21151
G1 X91.243 Y93.534 E14.22666
G1 X91.259 Y94.021 E14.24286
G1 X91.59 Y94.492 E14.26201
G1 X91.962 Y94.666 E14.27567
G1 X92.328 Y94.677 E14.28785
G1 X107.595 Y91.431 E14.80698
G1 X107.796 Y91.389 E14.81381
G1 X107.747 Y91.189 E14.8182
G1 X107.474 Y90.084 E14.85605
G1 X106.934 Y88.137 E14.92326
G1 X106.879 Y87.937 E14.92766
G0 F3600 X106.926 Y87.849
G0 X107.946 Y91.956
G0 X108.565 Y95.576
G0 X108.486 Y95.515
G1 F1200 X108.456 Y95.31 E14.93455
G1 X108.186 Y93.473 E14.99631
G1 X107.96 Y92.192 E15.03957
G1 X107.924 Y91.989 E15.04643
G1 X107.722 Y92.032 E15.05083
G1 X93.546 Y95.045 E15.53286
G1 X92.412 Y95.287 E15.57143
G1 X91.914 Y95.623 E15.59141
G1 X91.743 Y96.189 E15.61107
G1 X91.835 Y96.587 E15.62466
G1 X92.121 Y96.995 E15.64123
G1 X92.705 Y97.174 E15.66155
G1 X108.28 Y95.536 E16.18243
G1 X108.486 Y95.515 E16.18683
G0 F3600 X108.565 Y95.576
G0 X108.811 Y99.762
G0 X108.739 Y99.693
G1 F1200 X108.731 Y99.486 E16.19372
G1 X108.652 Y97.63 E16.25551
G1 X108.561 Y96.332 E16.29879
G1 X108.547 Y96.126 E16.30565
G1 X108.342 Y96.147 E16.31005
G1 X92.821 Y97.78 E16.82913
G1 X92.451 Y97.909 E16.84216
G1 X92.094 Y98.327 E16.86044
G1 X92.021 Y98.774 E16.87551
G1 X92.096 Y99.108 E16.88689
G1 X92.421 Y99.54 E16.90487
G1 X92.897 Y99.693 E16.9215
G1 X108.531 Y99.693 E17.44149
G1 X108.532 Y99.693 E17.44152
G1 X108.739 Y99.693 E17.44593
G0 F3600 X108.74 Y100.307
G1 F1200 X108.533 Y100.307 E17.45281
G1 X108.532 Y100.307 E17.45285
G1 X92.913 Y100.307 E17.97234
G1 X92.538 Y100.407 E17.98525
G1 X92.177 Y100.713 E18.00099
G1 X92.002 Y101.305 E18.02152
G1 X92.184 Y101.831 E18.04003
G1 X92.51 Y102.109 E18.05428
G1 X92.818 Y102.22 E18.06517
G1 X108.342 Y103.852 E18.58435
G1 X108.546 Y103.873 E18.59117
G1 X108.56 Y103.668 E18.59554
G1 X108.646 Y102.478 E18.63523
G1 X108.732 Y100.514 E18.70061
G1 X108.74 Y100.307 E18.70502
G0 F3600 X108.812 Y100.238
G0 X108.524 Y104.46
G0 X107.991 Y108.095
G0 X107.935 Y108.013
G1 F1200 X107.967 Y107.806 E18.71199
G1 X108.461 Y104.691 E18.81689
G1 X108.493 Y104.484 E18.82385
G1 X108.285 Y104.463 E18.82829
G1 X92.758 Y102.83 E19.34757
G1 X92.385 Y102.877 E19.36007
G1 X91.938 Y103.198 E19.37837
G1 X91.731 Y103.776 E19.39879
G1 X91.92 Y104.383 E19.41994
G1 X92.413 Y104.713 E19.43967
G1 X107.73 Y107.97 E19.96051
G1 X107.935 Y108.013 E19.96494
G0 F3600 X107.806 Y108.613
G1 F1200 X107.602 Y108.57 E19.97187
G1 X92.319 Y105.32 E20.49155
G1 X91.883 Y105.347 E20.50608
G1 X91.48 Y105.61 E20.52209
G1 X91.205 Y106.196 E20.54362
G1 X91.367 Y106.827 E20.56529
G1 X91.802 Y107.162 E20.58355
G1 X106.677 Y111.997 E21.10377
G1 X106.872 Y112.06 E21.11059
G1 X106.928 Y111.864 E21.11492
G1 X106.929 Y111.862 E21.115
G1 X107.244 Y110.77 E21.1528
G1 X107.754 Y108.815 E21.22
G1 X107.806 Y108.613 E21.22442
G0 F3600 X108.395 Y108.738
G1 F1200 X108.077 Y110.037 E21.2689
G1 X107.461 Y112.251 E21.34534
G1 X120.825 Y116.593 E21.8127
G1 X120.641 Y117.16 E21.83253
G1 X107.264 Y112.834 E22.30013
G1 X106.812 Y114.091 E22.34456
G1 X105.97 Y116.23 E22.42102
G1 X118.802 Y121.946 E22.88824
G1 X118.56 Y122.493 E22.90814
G1 X116.895 Y121.767 E22.96855
G1 X72.593 Y102.04 E24.58152
G1 X71.876 Y102.039 E24.60537
G1 X67.752 Y102.04 E24.74253
G1 X67.552 Y102.04 E24.74918
G1 X67.552 Y101.84 E24.75349
G1 X67.552 Y97.96 E24.88254
G1 X72.592 Y97.96 E25.05017
G1 X118.554 Y77.494 E26.72358
G1 X118.722 Y77.871 E26.73731
G1 X118.803 Y78.053 E26.74393
G1 X118.621 Y78.134 E26.74822
G1 X105.968 Y83.77 E27.20892
G1 X106.743 Y85.731 E27.27905
G1 X107.266 Y87.166 E27.32985
G1 X120.445 Y82.884 E27.79074
G1 X120.635 Y82.823 E27.79738
G1 X120.696 Y83.013 E27.80167
G1 X120.824 Y83.405 E27.81538
G1 X107.461 Y87.748 E28.28272
G1 X108.026 Y89.779 E28.35284
G1 X108.398 Y91.261 E28.40366
G1 X122.144 Y88.34 E28.87106
G1 X122.231 Y88.743 E28.88477
G1 X122.272 Y88.938 E28.8914
G1 X122.077 Y88.979 E28.89569
G1 X108.528 Y91.86 E29.3564
G1 X108.879 Y93.94 E29.42656
G1 X109.094 Y95.452 E29.47736
G1 X110.587 Y95.296 E29.52729
G1 X123.07 Y93.984 E29.94476
G1 X123.132 Y94.573 E29.96446
G1 X109.161 Y96.063 E30.43177
G1 X109.291 Y98.168 E30.50192
G1 X109.349 Y99.693 E30.55267
G1 X123.402 Y99.693 E31.02008
G1 X123.403 Y100.107 E31.03385
G1 X123.403 Y100.307 E31.0405
G1 X123.203 Y100.307 E31.04481
G1 X109.347 Y100.307 E31.50566
G1 X109.299 Y101.713 E31.55245
G1 X109.16 Y103.938 E31.6266
G1 X123.134 Y105.406 E32.09393
G1 X123.09 Y105.818 E32.10772
G1 X123.089 Y105.819 E32.10776
G1 X123.07 Y106.017 E32.11438
G1 X122.872 Y105.997 E32.11865
G1 X109.096 Y104.548 E32.57937
G1 X108.842 Y106.31 E32.63858
G1 X108.525 Y108.139 E32.70032
G1 X122.078 Y111.019 E33.16116
G1 X122.273 Y111.06 E33.16779
G1 X122.232 Y111.255 E33.17208
G1 X122.186 Y111.467 E33.17929
G1 X122.145 Y111.662 E33.18592
G1 X121.95 Y111.621 E33.19021
G1 X108.395 Y108.738 E33.65113
G0 F3600 X108.342 Y108.654
G0 X106.786 Y112.606
G0 X106.696 Y112.648
G1 F1200 X106.496 Y112.583 E33.65813
G1 X91.651 Y107.759 E34.17729
G1 X91.321 Y107.726 E34.18832
G1 X90.969 Y107.832 E34.20055
G1 X90.607 Y108.128 E34.2161
G1 X90.417 Y108.711 E34.23649
G1 X90.622 Y109.283 E34.2567
G1 X90.954 Y109.544 E34.27075
G1 X105.214 Y115.895 E34.78995
G1 X105.402 Y115.978 E34.79679
G1 X105.479 Y115.788 E34.80116
G1 X105.908 Y114.733 E34.83904
G1 X106.408 Y113.39 E34.8867
G1 X106.62 Y112.844 E34.90619
G1 X106.696 Y112.648 E34.91064
G0 F3600 X106.17 Y112.898
;TYPE:WALL-OUTER
G1 F1200 X106.15 Y112.892 E34.91133
G1 X106.136 Y112.888 E34.91182
G1 X91.568 Y108.153 E35.4213
G1 X91.36 Y108.132 E35.42826
G1 X91.16 Y108.192 E35.4352
G1 X90.951 Y108.363 E35.44418
G1 X90.84 Y108.705 E35.45614
G1 X90.96 Y109.04 E35.46798
G1 X91.162 Y109.199 E35.47653
G1 X104.999 Y115.361 E35.98032
G1 X105.187 Y115.444 E35.98715
G1 X105.264 Y115.254 E35.99153
G1 X105.535 Y114.588 E36.01544
G1 X106.03 Y113.259 E36.06261
G1 X106.035 Y113.245 E36.06309
G1 X106.17 Y112.898 E36.07214
G0 F3600 X106.15 Y112.892
G0 X106.136 Y112.888
G0 X105.979 Y112.837
G0 X106.134 Y112.361
G0 X106.89 Y112.095
G0 X107.84 Y108.592
G0 X107.313 Y108.917
