;FLAVOR:Marlin
;TIME:1318
;Filament used: 0.443327m
;Layer height: 0.16
;MINX:92.088
;MINY:92.088
;MINZ:0.2
;MAXX:107.919
;MAXY:107.912
;MAXZ:75.88
;Generated with Cura_SteamEngine 4.4.0
M140 S60
M105
M190 S60
M104 S200
M105
M109 S200
M82 ;absolute extrusion mode
; START CODE
G21 ;metric values
G90 ;absolute positioning
M82 ;set extruder to absolute mode
M107 ;start with the fan off
G28 X0 Y0 ;move X/Y to min endstops
G28 Z0 ;move Z to min endstops
G1 Z15.0 F120 ;move the platform down 15mm
G92 E0 ;zero the extruded length
G1 F200 E6 ;extrude 6 mm of feed stock
G92 E0 ;zero the extruded length again
G1 F120
;Put printing message on LCD screen
M117 Printing...
G92 E0
G92 E0
G1 F2400 E-2.5
;LAYER_COUNT:474
;LAYER:0
M107
G0 F3600 X94.68 Y94.127 Z0.2
;TYPE:SKIRT
G1 F2400 E0
G1 F1200 X94.869 Y93.965 E0.00828
G1 X95.009 Y93.849 E0.01433
G1 X95.232 Y93.671 E0.02382
G1 X96.013 Y93.155 E0.05495
G1 X96.489 Y92.899 E0.07293
G1 X97.353 Y92.531 E0.10416
G1 X97.613 Y92.447 E0.11325
G1 X97.759 Y92.402 E0.11833
G1 X98.003 Y92.331 E0.12678
G1 X98.9 Y92.154 E0.15719
G1 X99.207 Y92.121 E0.16746
G1 X99.34 Y92.108 E0.17191
G1 X99.585 Y92.088 E0.18008
G1 X100.502 Y92.095 E0.21058
G1 X101.015 Y92.144 E0.22772
G1 X101.958 Y92.322 E0.25964
G1 X102.271 Y92.412 E0.27047
G1 X102.388 Y92.448 E0.27454
G1 X102.602 Y92.515 E0.282
G1 X103.445 Y92.862 E0.31232
G1 X103.651 Y92.969 E0.32004
G1 X103.769 Y93.033 E0.32451
G1 X104.035 Y93.18 E0.33462
G1 X104.745 Y93.651 E0.36296
G1 X104.912 Y93.783 E0.37004
G1 X105.045 Y93.893 E0.37578
G1 X105.285 Y94.096 E0.38623
G1 X105.895 Y94.705 E0.4149
G1 X106.078 Y94.921 E0.42432
G1 X106.175 Y95.039 E0.4294
G1 X106.329 Y95.232 E0.43761
G1 X106.786 Y95.907 E0.46472
G1 X106.899 Y96.106 E0.47233
G1 X106.994 Y96.281 E0.47896
G1 X107.136 Y96.555 E0.48922
G1 X107.467 Y97.349 E0.51783
G1 X107.551 Y97.609 E0.52692
G1 X107.601 Y97.772 E0.53259
G1 X107.674 Y98.026 E0.54138
G1 X107.839 Y98.846 E0.5692
G1 X107.868 Y99.089 E0.57734
G1 X107.887 Y99.27 E0.58339
G1 X107.91 Y99.544 E0.59254
G1 X107.919 Y100.286 E0.61722
G1 X107.907 Y100.489 E0.62398
G1 X107.885 Y100.75 E0.63269
G1 X107.847 Y101.096 E0.64427
G1 X107.695 Y101.896 E0.67136
G1 X107.641 Y102.094 E0.67818
G1 X107.585 Y102.285 E0.6848
G1 X107.492 Y102.581 E0.69512
G1 X107.158 Y103.394 E0.72435
G1 X106.996 Y103.71 E0.73617
G1 X106.915 Y103.863 E0.74192
G1 X106.815 Y104.043 E0.74877
G1 X106.289 Y104.817 E0.7799
G1 X105.955 Y105.224 E0.79741
G1 X105.3 Y105.89 E0.82848
G1 X105.082 Y106.075 E0.83799
G1 X104.96 Y106.175 E0.84323
G1 X104.767 Y106.329 E0.85145
G1 X103.986 Y106.844 E0.88256
G1 X103.508 Y107.101 E0.90061
G1 X102.923 Y107.37 E0.92203
G1 X102.561 Y107.495 E0.93477
G1 X102.052 Y107.65 E0.95246
G1 X101.173 Y107.837 E0.98235
G1 X100.962 Y107.863 E0.98942
G1 X100.767 Y107.883 E0.99594
G1 X100.438 Y107.911 E1.00693
G1 X99.563 Y107.912 E1.03603
G1 X99.312 Y107.891 E1.04441
G1 X99.165 Y107.876 E1.04932
G1 X98.907 Y107.847 E1.05796
G1 X98.138 Y107.702 E1.08398
G1 X97.9 Y107.638 E1.09218
G1 X97.678 Y107.573 E1.09987
G1 X97.391 Y107.482 E1.10989
G1 X96.591 Y107.153 E1.13866
G1 X96.351 Y107.03 E1.14763
G1 X96.212 Y106.956 E1.15287
G1 X95.969 Y106.822 E1.1621
G1 X95.255 Y106.348 E1.1906
G1 X95.088 Y106.216 E1.19768
G1 X94.95 Y106.102 E1.20363
G1 X94.7 Y105.89 E1.21454
G1 X94.031 Y105.208 E1.24631
G1 X93.697 Y104.798 E1.2639
G1 X93.182 Y104.038 E1.29443
G1 X93.056 Y103.811 E1.30307
G1 X92.985 Y103.678 E1.30808
G1 X92.869 Y103.454 E1.31647
G1 X92.549 Y102.691 E1.34399
G1 X92.458 Y102.415 E1.35366
G1 X92.399 Y102.226 E1.36024
G1 X92.327 Y101.976 E1.3689
G1 X92.161 Y101.158 E1.39666
G1 X92.132 Y100.917 E1.40473
G1 X92.112 Y100.721 E1.41128
G1 X92.088 Y100.428 E1.42106
G1 X92.094 Y99.519 E1.4513
G1 X92.143 Y98.995 E1.4688
G1 X92.321 Y98.048 E1.50085
G1 X92.406 Y97.751 E1.51112
G1 X92.446 Y97.616 E1.51581
G1 X92.518 Y97.388 E1.52376
G1 X92.858 Y96.565 E1.55338
G1 X92.963 Y96.362 E1.56098
G1 X93.023 Y96.249 E1.56523
G1 X93.158 Y96.003 E1.57457
G1 X93.595 Y95.335 E1.60112
G1 X93.765 Y95.114 E1.61039
G1 X93.919 Y94.923 E1.61855
G1 X94.096 Y94.714 E1.62766
G1 X94.68 Y94.127 E1.6552
G0 F3600 X94.94 Y94.431
G1 F1200 X95.129 Y94.269 E1.66348
G1 X95.259 Y94.162 E1.66908
G1 X95.482 Y93.984 E1.67857
G1 X96.202 Y93.508 E1.70728
G1 X96.678 Y93.252 E1.72525
G1 X97.476 Y92.911 E1.75412
G1 X97.736 Y92.827 E1.7632
G1 X97.871 Y92.786 E1.7679
G1 X98.115 Y92.715 E1.77635
G1 X98.943 Y92.551 E1.80442
G1 X99.25 Y92.518 E1.81469
G1 X99.372 Y92.507 E1.81877
G1 X99.617 Y92.487 E1.82694
G1 X100.464 Y92.493 E1.85512
G1 X100.977 Y92.542 E1.87226
G1 X101.847 Y92.707 E1.90171
G1 X102.16 Y92.797 E1.91254
G1 X102.268 Y92.829 E1.91629
G1 X102.482 Y92.896 E1.92374
G1 X103.261 Y93.217 E1.95177
G1 X103.467 Y93.324 E1.95949
G1 X103.576 Y93.383 E1.96361
G1 X103.842 Y93.53 E1.97372
G1 X104.496 Y93.965 E1.99984
G1 X104.663 Y94.097 E2.00692
G1 X104.787 Y94.198 E2.01224
G1 X105.027 Y94.401 E2.0227
G1 X105.589 Y94.963 E2.04913
G1 X105.772 Y95.179 E2.05855
G1 X105.862 Y95.288 E2.06325
G1 X106.016 Y95.481 E2.07146
G1 X106.438 Y96.105 E2.09652
G1 X106.551 Y96.304 E2.10413
G1 X106.639 Y96.465 E2.11023
G1 X106.781 Y96.739 E2.1205
G1 X107.087 Y97.472 E2.14691
G1 X107.171 Y97.732 E2.156
G1 X107.216 Y97.882 E2.16121
G1 X107.289 Y98.136 E2.17
G1 X107.442 Y98.893 E2.19569
G1 X107.471 Y99.136 E2.20383
G1 X107.488 Y99.303 E2.20941
G1 X107.511 Y99.577 E2.21856
G1 X107.52 Y100.262 E2.24134
G1 X107.508 Y100.465 E2.2481
G1 X107.487 Y100.706 E2.25615
G1 X107.449 Y101.052 E2.26773
G1 X107.309 Y101.791 E2.29274
G1 X107.255 Y101.989 E2.29957
G1 X107.203 Y102.165 E2.30567
G1 X107.11 Y102.461 E2.31599
G1 X106.802 Y103.212 E2.34299
G1 X106.64 Y103.528 E2.3548
G1 X106.565 Y103.669 E2.36011
G1 X106.465 Y103.849 E2.36696
G1 X105.98 Y104.563 E2.39567
G1 X105.646 Y104.97 E2.41318
G1 X105.041 Y105.585 E2.44188
G1 X104.823 Y105.77 E2.45139
G1 X104.711 Y105.862 E2.45621
G1 X104.518 Y106.016 E2.46442
G1 X103.797 Y106.492 E2.49315
G1 X103.319 Y106.749 E2.5112
G1 X102.756 Y107.006 E2.53179
G1 X102.444 Y107.113 E2.54276
G1 X101.935 Y107.268 E2.56046
G1 X101.124 Y107.44 E2.58803
G1 X100.913 Y107.466 E2.5951
G1 X100.733 Y107.485 E2.60112
G1 X100.404 Y107.513 E2.6121
G1 X99.597 Y107.513 E2.63894
G1 X99.346 Y107.492 E2.64732
G1 X99.21 Y107.479 E2.65187
G1 X98.952 Y107.45 E2.6605
G1 X98.242 Y107.315 E2.68454
G1 X98.004 Y107.251 E2.69274
G1 X97.799 Y107.192 E2.69983
G1 X97.512 Y107.101 E2.70984
G1 X96.774 Y106.797 E2.73639
G1 X96.534 Y106.674 E2.74536
G1 X96.405 Y106.605 E2.75023
G1 X96.162 Y106.471 E2.75946
G1 X95.504 Y106.034 E2.78573
G1 X95.337 Y105.902 E2.79281
G1 X95.209 Y105.797 E2.79831
G1 X94.959 Y105.585 E2.80922
G1 X94.342 Y104.956 E2.83852
G1 X94.008 Y104.546 E2.85611
G1 X93.532 Y103.844 E2.88432
G1 X93.406 Y103.617 E2.89296
G1 X93.341 Y103.494 E2.89758
G1 X93.225 Y103.27 E2.90597
G1 X92.928 Y102.566 E2.93139
G1 X92.837 Y102.29 E2.94105
G1 X92.783 Y102.115 E2.94714
G1 X92.711 Y101.865 E2.9558
G1 X92.558 Y101.11 E2.98142
G1 X92.529 Y100.869 E2.98949
G1 X92.511 Y100.688 E2.99554
G1 X92.487 Y100.395 E3.00532
G1 X92.492 Y99.556 E3.03323
G1 X92.541 Y99.032 E3.05073
G1 X92.705 Y98.158 E3.08031
G1 X92.79 Y97.861 E3.09058
G1 X92.828 Y97.737 E3.0949
G1 X92.9 Y97.509 E3.10285
G1 X93.214 Y96.749 E3.1302
G1 X93.319 Y96.546 E3.1378
G1 X93.374 Y96.442 E3.14171
G1 X93.509 Y96.196 E3.15105
G1 X93.912 Y95.578 E3.17558
G1 X94.082 Y95.357 E3.18486
G1 X94.224 Y95.182 E3.19235
G1 X94.401 Y94.973 E3.20146
G1 X94.94 Y94.431 E3.22689
G0 F3600 X95.201 Y94.734
G1 F1200 X95.39 Y94.572 E3.23517
G1 X95.508 Y94.474 E3.24027
G1 X95.731 Y94.296 E3.24976
G1 X96.392 Y93.86 E3.27609
G1 X96.868 Y93.604 E3.29407
G1 X97.599 Y93.292 E3.32051
G1 X97.859 Y93.208 E3.32959
G1 X97.983 Y93.17 E3.33391
G1 X98.227 Y93.099 E3.34236
G1 X98.986 Y92.949 E3.36809
G1 X99.293 Y92.916 E3.37836
G1 X99.405 Y92.906 E3.3821
G1 X99.65 Y92.886 E3.39028
G1 X100.426 Y92.891 E3.41609
G1 X100.939 Y92.94 E3.43323
G1 X101.737 Y93.091 E3.46024
G1 X102.05 Y93.181 E3.47107
G1 X102.149 Y93.211 E3.47451
G1 X102.363 Y93.278 E3.48197
G1 X103.076 Y93.572 E3.50762
G1 X103.282 Y93.679 E3.51534
G1 X103.382 Y93.733 E3.51912
G1 X103.648 Y93.88 E3.52923
G1 X104.248 Y94.279 E3.5532
G1 X104.415 Y94.411 E3.56028
G1 X104.529 Y94.504 E3.56517
G1 X104.769 Y94.707 E3.57563
G1 X105.284 Y95.222 E3.59985
G1 X105.467 Y95.438 E3.60927
G1 X105.549 Y95.538 E3.61357
G1 X105.703 Y95.731 E3.62178
G1 X106.09 Y96.302 E3.64472
G1 X106.203 Y96.501 E3.65233
G1 X106.284 Y96.649 E3.65795
G1 X106.426 Y96.923 E3.66821
G1 X106.706 Y97.595 E3.69242
G1 X106.79 Y97.855 E3.70151
G1 X106.832 Y97.993 E3.70631
G1 X106.905 Y98.247 E3.7151
G1 X107.045 Y98.941 E3.73865
G1 X107.074 Y99.184 E3.74679
G1 X107.09 Y99.337 E3.7519
G1 X107.113 Y99.611 E3.76105
G1 X107.12 Y100.239 E3.78194
G1 X107.108 Y100.442 E3.7887
G1 X107.09 Y100.662 E3.79604
G1 X107.052 Y101.008 E3.80762
G1 X106.923 Y101.686 E3.83057
G1 X106.869 Y101.884 E3.8374
G1 X106.822 Y102.045 E3.84298
G1 X106.729 Y102.341 E3.8533
G1 X106.446 Y103.029 E3.87804
G1 X106.284 Y103.345 E3.88985
G1 X106.215 Y103.475 E3.89475
G1 X106.115 Y103.655 E3.9016
G1 X105.67 Y104.309 E3.92791
G1 X105.336 Y104.716 E3.94542
G1 X104.782 Y105.28 E3.97171
G1 X104.564 Y105.465 E3.98122
G1 X104.461 Y105.549 E3.98564
G1 X104.268 Y105.703 E3.99385
G1 X103.608 Y106.139 E4.02016
G1 X103.13 Y106.396 E4.03821
G1 X102.328 Y106.73 E4.06711
G1 X101.819 Y106.885 E4.08481
G1 X101.075 Y107.043 E4.1101
G1 X100.864 Y107.069 E4.11717
G1 X100.699 Y107.086 E4.12269
G1 X100.37 Y107.114 E4.13367
G1 X99.63 Y107.115 E4.15829
G1 X99.379 Y107.094 E4.16666
G1 X99.255 Y107.081 E4.17081
G1 X98.997 Y107.052 E4.17945
G1 X98.345 Y106.929 E4.20151
G1 X98.107 Y106.865 E4.20971
G1 X97.92 Y106.81 E4.21619
G1 X97.633 Y106.719 E4.22621
G1 X96.956 Y106.441 E4.25055
G1 X96.716 Y106.318 E4.25952
G1 X96.598 Y106.255 E4.26397
G1 X96.355 Y106.121 E4.2732
G1 X95.752 Y105.72 E4.29728
G1 X95.585 Y105.588 E4.30436
G1 X95.467 Y105.492 E4.30942
G1 X95.217 Y105.28 E4.32033
G1 X94.652 Y104.703 E4.34719
G1 X94.318 Y104.293 E4.36477
G1 X93.882 Y103.649 E4.39064
G1 X93.756 Y103.422 E4.39928
G1 X93.696 Y103.31 E4.4035
G1 X93.58 Y103.086 E4.41189
G1 X93.308 Y102.441 E4.43517
G1 X93.217 Y102.165 E4.44484
G1 X93.168 Y102.005 E4.45041
G1 X93.096 Y101.755 E4.45906
G1 X92.956 Y101.063 E4.48254
G1 X92.927 Y100.822 E4.49061
G1 X92.91 Y100.655 E4.4962
G1 X92.886 Y100.362 E4.50598
G1 X92.89 Y99.593 E4.53155
G1 X92.939 Y99.069 E4.54906
G1 X93.09 Y98.268 E4.57617
G1 X93.175 Y97.971 E4.58644
G1 X93.209 Y97.857 E4.5904
G1 X93.281 Y97.629 E4.59835
G1 X93.569 Y96.933 E4.6234
G1 X93.674 Y96.73 E4.63101
G1 X93.725 Y96.634 E4.63462
G1 X93.86 Y96.388 E4.64395
G1 X94.229 Y95.822 E4.66643
G1 X94.399 Y95.601 E4.6757
G1 X94.529 Y95.44 E4.68258
G1 X94.706 Y95.231 E4.69169
G1 X95.201 Y94.734 E4.71502
G0 F3600 X95.461 Y95.038
G1 F1200 X95.65 Y94.876 E4.7233
G1 X95.758 Y94.787 E4.72796
G1 X95.981 Y94.609 E4.73745
G1 X96.581 Y94.212 E4.76138
G1 X97.057 Y93.956 E4.77935
G1 X97.722 Y93.673 E4.80339
G1 X97.982 Y93.589 E4.81248
G1 X98.094 Y93.554 E4.81638
G1 X98.338 Y93.483 E4.82483
G1 X99.028 Y93.347 E4.84822
G1 X99.335 Y93.314 E4.85849
G1 X99.438 Y93.304 E4.86194
G1 X99.683 Y93.284 E4.87011
G1 X100.388 Y93.289 E4.89356
G1 X100.901 Y93.338 E4.9107
G1 X101.626 Y93.476 E4.93525
G1 X101.939 Y93.566 E4.94608
G1 X102.029 Y93.593 E4.9492
G1 X102.243 Y93.66 E4.95666
G1 X102.892 Y93.927 E4.98
G1 X103.098 Y94.034 E4.98772
G1 X103.189 Y94.083 E4.99116
G1 X103.455 Y94.23 E5.00127
G1 X104 Y94.593 E5.02305
G1 X104.167 Y94.725 E5.03013
G1 X104.27 Y94.809 E5.03455
G1 X104.51 Y95.012 E5.04501
G1 X104.979 Y95.48 E5.06704
G1 X105.162 Y95.696 E5.07646
G1 X105.237 Y95.787 E5.08038
G1 X105.391 Y95.98 E5.08859
G1 X105.742 Y96.5 E5.10946
G1 X105.855 Y96.699 E5.11707
G1 X105.928 Y96.833 E5.12215
G1 X106.07 Y97.107 E5.13241
G1 X106.325 Y97.718 E5.15443
G1 X106.409 Y97.978 E5.16352
G1 X106.447 Y98.103 E5.16786
G1 X106.52 Y98.357 E5.17665
G1 X106.648 Y98.988 E5.19807
G1 X106.677 Y99.231 E5.20621
G1 X106.691 Y99.37 E5.21085
G1 X106.714 Y99.644 E5.22
G1 X106.721 Y100.215 E5.23899
G1 X106.709 Y100.418 E5.24576
G1 X106.692 Y100.619 E5.25247
G1 X106.654 Y100.965 E5.26404
G1 X106.537 Y101.58 E5.28486
G1 X106.483 Y101.778 E5.29169
G1 X106.44 Y101.925 E5.29679
G1 X106.347 Y102.221 E5.3071
G1 X106.091 Y102.847 E5.3296
G1 X105.929 Y103.163 E5.34141
G1 X105.866 Y103.281 E5.34586
G1 X105.766 Y103.461 E5.35271
G1 X105.361 Y104.055 E5.37662
G1 X105.027 Y104.462 E5.39413
G1 X104.523 Y104.975 E5.41805
G1 X104.305 Y105.16 E5.42756
G1 X104.212 Y105.237 E5.43158
G1 X104.019 Y105.391 E5.43979
G1 X103.418 Y105.787 E5.46373
G1 X102.94 Y106.044 E5.48178
G1 X102.211 Y106.348 E5.50805
G1 X101.702 Y106.503 E5.52574
G1 X101.026 Y106.646 E5.54873
G1 X100.815 Y106.672 E5.5558
G1 X100.665 Y106.688 E5.56081
G1 X100.336 Y106.716 E5.5718
G1 X99.664 Y106.716 E5.59415
G1 X99.413 Y106.695 E5.60252
G1 X99.299 Y106.684 E5.60633
G1 X99.041 Y106.655 E5.61497
G1 X98.449 Y106.543 E5.63501
G1 X98.211 Y106.479 E5.64321
G1 X98.041 Y106.429 E5.6491
G1 X97.754 Y106.338 E5.65911
G1 X97.139 Y106.085 E5.68123
G1 X96.899 Y105.962 E5.6902
G1 X96.791 Y105.905 E5.69426
G1 X96.548 Y105.771 E5.70349
G1 X96 Y105.406 E5.72539
G1 X95.833 Y105.274 E5.73247
G1 X95.726 Y105.187 E5.73706
G1 X95.476 Y104.975 E5.74796
G1 X94.962 Y104.45 E5.7724
G1 X94.628 Y104.04 E5.78999
G1 X94.232 Y103.455 E5.81348
G1 X94.106 Y103.228 E5.82212
G1 X94.051 Y103.126 E5.82597
G1 X93.935 Y102.902 E5.83436
G1 X93.688 Y102.316 E5.85551
G1 X93.597 Y102.04 E5.86518
G1 X93.552 Y101.894 E5.87026
G1 X93.48 Y101.644 E5.87891
G1 X93.353 Y101.015 E5.90026
G1 X93.324 Y100.774 E5.90833
G1 X93.308 Y100.623 E5.91338
G1 X93.284 Y100.33 E5.92316
G1 X93.288 Y99.631 E5.94641
G1 X93.337 Y99.107 E5.96391
G1 X93.474 Y98.378 E5.98858
G1 X93.559 Y98.081 E5.99886
G1 X93.591 Y97.977 E6.00248
G1 X93.663 Y97.749 E6.01043
G1 X93.924 Y97.116 E6.0332
G1 X94.029 Y96.913 E6.0408
G1 X94.075 Y96.827 E6.04405
G1 X94.21 Y96.581 E6.05338
G1 X94.547 Y96.066 E6.07385
G1 X94.717 Y95.845 E6.08312
G1 X94.835 Y95.699 E6.08937
G1 X95.012 Y95.49 E6.09848
G1 X95.461 Y95.038 E6.11967
G0 F3600 X95.721 Y95.342
G1 F1200 X95.91 Y95.18 E6.12795
G1 X96.007 Y95.099 E6.13215
G1 X96.23 Y94.921 E6.14164
G1 X96.771 Y94.564 E6.1632
G1 X97.247 Y94.308 E6.18117
G1 X97.845 Y94.053 E6.2028
G1 X98.105 Y93.969 E6.21189
G1 X98.206 Y93.938 E6.2154
G1 X98.45 Y93.867 E6.22385
G1 X99.071 Y93.745 E6.2449
G1 X99.378 Y93.712 E6.25517
G1 X99.47 Y93.703 E6.25824
G1 X99.715 Y93.683 E6.26642
G1 X100.35 Y93.687 E6.28754
G1 X100.863 Y93.736 E6.30468
G1 X101.516 Y93.86 E6.32679
G1 X101.829 Y93.95 E6.33762
G1 X101.91 Y93.974 E6.34043
G1 X102.124 Y94.041 E6.34789
G1 X102.707 Y94.282 E6.36887
G1 X102.913 Y94.389 E6.37659
G1 X102.995 Y94.433 E6.37969
G1 X103.261 Y94.58 E6.38979
G1 X103.752 Y94.907 E6.40942
G1 X103.919 Y95.039 E6.4165
G1 X104.012 Y95.114 E6.42047
G1 X104.252 Y95.317 E6.43092
G1 X104.674 Y95.739 E6.45077
G1 X104.857 Y95.955 E6.46019
G1 X104.924 Y96.037 E6.46371
G1 X105.078 Y96.23 E6.47192
G1 X105.395 Y96.697 E6.4907
G1 X105.508 Y96.896 E6.49831
G1 X105.573 Y97.018 E6.50291
G1 X105.715 Y97.292 E6.51317
G1 X105.945 Y97.841 E6.53297
G1 X106.029 Y98.101 E6.54206
G1 X106.063 Y98.214 E6.54598
G1 X106.136 Y98.468 E6.55477
G1 X106.251 Y99.035 E6.57401
G1 X106.28 Y99.278 E6.58215
G1 X106.292 Y99.404 E6.58636
G1 X106.315 Y99.678 E6.59551
G1 X106.322 Y100.191 E6.61257
G1 X106.31 Y100.394 E6.61934
G1 X106.294 Y100.575 E6.62538
G1 X106.256 Y100.921 E6.63696
G1 X106.151 Y101.475 E6.65571
G1 X106.097 Y101.673 E6.66254
G1 X106.058 Y101.805 E6.66711
G1 X105.965 Y102.101 E6.67743
G1 X105.735 Y102.664 E6.69766
G1 X105.573 Y102.98 E6.70947
G1 X105.516 Y103.086 E6.71348
G1 X105.416 Y103.266 E6.72032
G1 X105.052 Y103.802 E6.74187
G1 X104.718 Y104.209 E6.75939
G1 X104.264 Y104.67 E6.78091
G1 X104.046 Y104.855 E6.79042
G1 X103.962 Y104.924 E6.79403
G1 X103.769 Y105.078 E6.80224
G1 X103.229 Y105.435 E6.82377
G1 X102.751 Y105.692 E6.84182
G1 X102.095 Y105.965 E6.86546
G1 X101.586 Y106.12 E6.88315
G1 X100.977 Y106.249 E6.90386
G1 X100.766 Y106.275 E6.91093
G1 X100.631 Y106.289 E6.91544
