;FLAVOR:Marlin
;TIME:1347
;Filament used: 0.462788m
;Layer height: 0.16
;MINX:89.461
;MINY:89.461
;MINZ:0.2
;MAXX:110.539
;MAXY:110.54
;MAXZ:75.88
;Generated with Cura_SteamEngine 4.4.0
M140 S60
M105
M190 S60
M104 S200
M105
M109 S200
M82 ;absolute extrusion mode
; START CODE
G21 ;metric values
G90 ;absolute positioning
M82 ;set extruder to absolute mode
M107 ;start with the fan off
G28 X0 Y0 ;move X/Y to min endstops
G28 Z0 ;move Z to min endstops
G1 Z15.0 F120 ;move the platform down 15mm
G92 E0 ;zero the extruded length
G1 F200 E6 ;extrude 6 mm of feed stock
G92 E0 ;zero the extruded length again
G1 F120
;Put printing message on LCD screen
M117 Printing...
G92 E0
G92 E0
G1 F2400 E-2.5
;LAYER_COUNT:474
;LAYER:0
M107
G0 F3600 X92.567 Y92.526 Z0.2
;TYPE:SKIRT
G1 F2400 E0
G1 F1200 X93.108 Y92.037 E0.02425
G1 X93.523 Y91.696 E0.04212
G1 X94.158 Y91.227 E0.06838
G1 X94.786 Y90.85 E0.09274
G1 X95.263 Y90.594 E0.11074
G1 X95.977 Y90.257 E0.137
G1 X96.692 Y90.002 E0.16225
G1 X97.204 Y89.847 E0.18004
G1 X97.97 Y89.656 E0.2063
G1 X98.724 Y89.547 E0.23164
G1 X99.259 Y89.496 E0.24952
G1 X100.048 Y89.461 E0.27578
G1 X100.725 Y89.495 E0.29833
G1 X101.26 Y89.545 E0.3162
G1 X102.041 Y89.658 E0.34245
G1 X102.79 Y89.844 E0.36812
G1 X103.303 Y89.999 E0.38594
G1 X104.046 Y90.266 E0.4122
G1 X104.73 Y90.59 E0.43737
G1 X105.206 Y90.845 E0.45533
G1 X105.883 Y91.253 E0.48162
G1 X106.472 Y91.692 E0.50606
G1 X106.885 Y92.031 E0.52383
G1 X107.469 Y92.562 E0.55008
G1 X107.964 Y93.11 E0.57464
G1 X108.304 Y93.524 E0.59246
G1 X108.773 Y94.159 E0.61872
G1 X109.149 Y94.785 E0.643
G1 X109.405 Y95.262 E0.66101
G1 X109.742 Y95.976 E0.68727
G1 X109.997 Y96.691 E0.71252
G1 X110.152 Y97.203 E0.73031
G1 X110.343 Y97.969 E0.75657
G1 X110.45 Y98.707 E0.78137
G1 X110.502 Y99.241 E0.79921
G1 X110.539 Y100.03 E0.82549
G1 X110.503 Y100.747 E0.84936
G1 X110.451 Y101.285 E0.86734
G1 X110.335 Y102.067 E0.89363
G1 X110.159 Y102.772 E0.9178
G1 X110.006 Y103.283 E0.93554
G1 X109.742 Y104.027 E0.9618
G1 X109.406 Y104.735 E0.98787
G1 X109.151 Y105.21 E1.0058
G1 X108.743 Y105.886 E1.03206
G1 X108.313 Y106.464 E1.05602
G1 X107.973 Y106.879 E1.07386
G1 X107.442 Y107.464 E1.10014
G1 X106.889 Y107.964 E1.12494
G1 X106.475 Y108.304 E1.14276
G1 X105.84 Y108.773 E1.16901
G1 X105.208 Y109.152 E1.19352
G1 X104.732 Y109.407 E1.21148
G1 X104.018 Y109.744 E1.23774
G1 X103.314 Y109.995 E1.2626
G1 X102.8 Y110.151 E1.28047
G1 X102.034 Y110.342 E1.30673
G1 X101.304 Y110.449 E1.33126
G1 X100.769 Y110.502 E1.34915
G1 X99.98 Y110.54 E1.37542
G1 X99.232 Y110.502 E1.40033
G1 X98.696 Y110.449 E1.41824
G1 X97.916 Y110.332 E1.44448
G1 X97.213 Y110.155 E1.46859
G1 X96.702 Y110.001 E1.48634
G1 X95.959 Y109.735 E1.51259
G1 X95.27 Y109.409 E1.53794
G1 X94.794 Y109.154 E1.5559
G1 X94.117 Y108.746 E1.58219
G1 X93.525 Y108.305 E1.60674
G1 X93.11 Y107.964 E1.62461
G1 X92.526 Y107.432 E1.65088
G1 X92.034 Y106.887 E1.6753
G1 X91.694 Y106.473 E1.69312
G1 X91.225 Y105.838 E1.71938
G1 X90.846 Y105.206 E1.74389
G1 X90.591 Y104.73 E1.76185
G1 X90.254 Y104.016 E1.78811
G1 X89.999 Y103.298 E1.81345
G1 X89.845 Y102.787 E1.8312
G1 X89.655 Y102.02 E1.85748
G1 X89.55 Y101.293 E1.88191
G1 X89.498 Y100.76 E1.89973
G1 X89.461 Y99.972 E1.92596
G1 X89.496 Y99.27 E1.94934
G1 X89.547 Y98.73 E1.96738
G1 X89.661 Y97.948 E1.99367
G1 X89.848 Y97.199 E2.01934
G1 X90.003 Y96.688 E2.0371
G1 X90.27 Y95.945 E2.06336
G1 X90.588 Y95.275 E2.08803
G1 X90.843 Y94.798 E2.10602
G1 X91.25 Y94.121 E2.13229
G1 X91.698 Y93.521 E2.1572
G1 X92.036 Y93.11 E2.1749
G1 X92.567 Y92.526 E2.20115
G0 F3600 X92.863 Y92.796
G1 F1200 X93.362 Y92.347 E2.22348
G1 X93.777 Y92.006 E2.24134
G1 X94.396 Y91.549 E2.26693
G1 X94.976 Y91.203 E2.28939
G1 X95.453 Y90.947 E2.3074
G1 X96.148 Y90.619 E2.33296
G1 X96.808 Y90.384 E2.35626
G1 X97.32 Y90.229 E2.37405
G1 X98.067 Y90.045 E2.39964
G1 X98.762 Y89.945 E2.423
G1 X99.297 Y89.894 E2.44087
G1 X100.065 Y89.861 E2.46644
G1 X100.688 Y89.893 E2.48719
G1 X101.223 Y89.943 E2.50506
G1 X101.984 Y90.054 E2.53064
G1 X102.674 Y90.227 E2.5543
G1 X103.187 Y90.382 E2.57212
G1 X103.911 Y90.643 E2.59772
G1 X104.541 Y90.943 E2.62093
G1 X105.017 Y91.198 E2.63889
G1 X105.676 Y91.596 E2.66449
G1 X106.218 Y92.001 E2.687
G1 X106.631 Y92.34 E2.70477
G1 X107.199 Y92.858 E2.73034
G1 X107.655 Y93.364 E2.75299
G1 X107.995 Y93.778 E2.77081
G1 X108.451 Y94.396 E2.79635
G1 X108.796 Y94.975 E2.81877
G1 X109.052 Y95.452 E2.83678
G1 X109.38 Y96.147 E2.86234
G1 X109.615 Y96.807 E2.88564
G1 X109.77 Y97.319 E2.90343
G1 X109.954 Y98.066 E2.92902
G1 X110.052 Y98.746 E2.95187
G1 X110.104 Y99.28 E2.96972
G1 X110.139 Y100.048 E2.99529
G1 X110.105 Y100.709 E3.0173
G1 X110.053 Y101.247 E3.03528
G1 X109.939 Y102.008 E3.06087
G1 X109.776 Y102.658 E3.08316
G1 X109.623 Y103.169 E3.1009
G1 X109.364 Y103.893 E3.12648
G1 X109.054 Y104.546 E3.15052
G1 X108.799 Y105.021 E3.16845
G1 X108.4 Y105.679 E3.19404
G1 X108.003 Y106.211 E3.21612
G1 X107.663 Y106.626 E3.23397
G1 X107.145 Y107.195 E3.25956
G1 X106.635 Y107.655 E3.2824
G1 X106.221 Y107.995 E3.30022
G1 X105.603 Y108.451 E3.32576
G1 X105.019 Y108.799 E3.34837
G1 X104.543 Y109.054 E3.36634
G1 X103.847 Y109.381 E3.39191
G1 X103.198 Y109.612 E3.41482
G1 X102.684 Y109.768 E3.43269
G1 X101.937 Y109.953 E3.45829
G1 X101.265 Y110.051 E3.48087
G1 X100.73 Y110.104 E3.49875
G1 X99.961 Y110.14 E3.52436
G1 X99.272 Y110.104 E3.54731
G1 X98.736 Y110.051 E3.56522
G1 X97.975 Y109.936 E3.59082
G1 X97.329 Y109.772 E3.61299
G1 X96.818 Y109.618 E3.63074
G1 X96.094 Y109.358 E3.65632
G1 X95.459 Y109.056 E3.67971
G1 X94.983 Y108.801 E3.69767
G1 X94.324 Y108.403 E3.72328
G1 X93.779 Y107.995 E3.74592
G1 X93.364 Y107.654 E3.76379
G1 X92.796 Y107.136 E3.78935
G1 X92.343 Y106.633 E3.81187
G1 X92.003 Y106.219 E3.82969
G1 X91.547 Y105.601 E3.85523
G1 X91.199 Y105.017 E3.87784
G1 X90.944 Y104.541 E3.8958
G1 X90.617 Y103.845 E3.92138
G1 X90.382 Y103.182 E3.94478
G1 X90.228 Y102.671 E3.96253
G1 X90.044 Y101.924 E3.98811
G1 X89.948 Y101.255 E4.01059
G1 X89.896 Y100.722 E4.0284
G1 X89.861 Y99.953 E4.05401
G1 X89.894 Y99.307 E4.07552
G1 X89.945 Y98.767 E4.09356
G1 X90.057 Y98.006 E4.11915
G1 X90.231 Y97.315 E4.14285
G1 X90.386 Y96.804 E4.16061
G1 X90.647 Y96.081 E4.18617
G1 X90.941 Y95.463 E4.20894
G1 X91.196 Y94.986 E4.22693
G1 X91.593 Y94.328 E4.25249
G1 X92.007 Y93.775 E4.27546
G1 X92.345 Y93.364 E4.29316
G1 X92.863 Y92.796 E4.31873
G0 F3600 X93.159 Y93.066
G1 F1200 X93.616 Y92.656 E4.33915
G1 X94.031 Y92.315 E4.35701
G1 X94.634 Y91.871 E4.38192
G1 X95.165 Y91.555 E4.40247
G1 X95.642 Y91.299 E4.42048
G1 X96.319 Y90.981 E4.44535
G1 X96.924 Y90.767 E4.4667
G1 X97.436 Y90.612 E4.48449
G1 X98.162 Y90.434 E4.50935
G1 X98.8 Y90.344 E4.53078
G1 X99.335 Y90.293 E4.54866
G1 X100.082 Y90.261 E4.57353
G1 X100.65 Y90.291 E4.59244
G1 X101.185 Y90.341 E4.61032
G1 X101.925 Y90.451 E4.6352
G1 X102.559 Y90.61 E4.65694
G1 X103.072 Y90.765 E4.67476
G1 X103.775 Y91.02 E4.69964
G1 X104.353 Y91.296 E4.72094
G1 X104.829 Y91.551 E4.7389
G1 X105.468 Y91.939 E4.76376
G1 X105.964 Y92.31 E4.78437
G1 X106.377 Y92.649 E4.80214
G1 X106.929 Y93.154 E4.82702
G1 X107.346 Y93.617 E4.84775
G1 X107.686 Y94.031 E4.86556
G1 X108.129 Y94.634 E4.89045
G1 X108.444 Y95.164 E4.91096
G1 X108.7 Y95.641 E4.92896
G1 X109.018 Y96.318 E4.95384
G1 X109.232 Y96.923 E4.97518
G1 X109.387 Y97.435 E4.99298
G1 X109.565 Y98.161 E5.01784
G1 X109.654 Y98.785 E5.0388
G1 X109.706 Y99.319 E5.05665
G1 X109.739 Y100.066 E5.08152
G1 X109.707 Y100.67 E5.10163
G1 X109.655 Y101.208 E5.11961
G1 X109.543 Y101.948 E5.1445
G1 X109.393 Y102.543 E5.16491
G1 X109.24 Y103.054 E5.18265
G1 X108.987 Y103.758 E5.20754
G1 X108.701 Y104.357 E5.22961
G1 X108.446 Y104.832 E5.24754
G1 X108.058 Y105.471 E5.27241
G1 X107.694 Y105.957 E5.2926
G1 X107.354 Y106.372 E5.31045
G1 X106.849 Y106.925 E5.33536
G1 X106.382 Y107.346 E5.35627
G1 X105.968 Y107.686 E5.37409
G1 X105.365 Y108.129 E5.39897
G1 X104.831 Y108.446 E5.41963
G1 X104.355 Y108.701 E5.43759
G1 X103.677 Y109.019 E5.4625
G1 X103.082 Y109.229 E5.48348
G1 X102.568 Y109.385 E5.50135
G1 X101.842 Y109.564 E5.52622
G1 X101.225 Y109.653 E5.54695
G1 X100.69 Y109.706 E5.56483
G1 X99.943 Y109.74 E5.5897
G1 X99.311 Y109.706 E5.61075
G1 X98.775 Y109.653 E5.62867
G1 X98.036 Y109.54 E5.65353
G1 X97.444 Y109.389 E5.67385
G1 X96.933 Y109.235 E5.69161
G1 X96.229 Y108.981 E5.7165
G1 X95.647 Y108.703 E5.73795
G1 X95.171 Y108.448 E5.75591
G1 X94.532 Y108.06 E5.78077
G1 X94.033 Y107.686 E5.80152
G1 X93.618 Y107.345 E5.81938
G1 X93.066 Y106.84 E5.84426
G1 X92.652 Y106.38 E5.86485
G1 X92.312 Y105.966 E5.88267
G1 X91.869 Y105.363 E5.90755
G1 X91.552 Y104.829 E5.92821
G1 X91.297 Y104.353 E5.94617
G1 X90.979 Y103.675 E5.97108
G1 X90.765 Y103.067 E5.99251
G1 X90.611 Y102.556 E6.01026
G1 X90.433 Y101.829 E6.03516
G1 X90.346 Y101.216 E6.05575
G1 X90.294 Y100.683 E6.07356
G1 X90.261 Y99.935 E6.09847
G1 X90.292 Y99.345 E6.11812
G1 X90.343 Y98.805 E6.13616
G1 X90.453 Y98.065 E6.16104
G1 X90.613 Y97.431 E6.18279
G1 X90.768 Y96.92 E6.20055
G1 X91.023 Y96.217 E6.22542
G1 X91.294 Y95.652 E6.24626
G1 X91.549 Y95.175 E6.26425
G1 X91.936 Y94.535 E6.28913
G1 X92.315 Y94.029 E6.31016
G1 X92.653 Y93.618 E6.32785
G1 X93.159 Y93.066 E6.35276
G0 F3600 X93.454 Y93.337
G1 F1200 X93.87 Y92.965 E6.37132
G1 X94.285 Y92.624 E6.38919
G1 X94.871 Y92.194 E6.41336
G1 X95.354 Y91.908 E6.43203
G1 X95.831 Y91.652 E6.45004
G1 X96.489 Y91.344 E6.4742
G1 X97.04 Y91.15 E6.49363
G1 X97.552 Y90.995 E6.51142
G1 X98.257 Y90.823 E6.53556
G1 X98.838 Y90.742 E6.55507
G1 X99.373 Y90.691 E6.57294
G1 X100.098 Y90.662 E6.59708
G1 X100.613 Y90.69 E6.61423
G1 X101.148 Y90.74 E6.6321
G1 X101.867 Y90.847 E6.65628
G1 X102.443 Y90.993 E6.67604
G1 X102.956 Y91.148 E6.69387
G1 X103.639 Y91.396 E6.71804
G1 X104.164 Y91.648 E6.73741
G1 X104.64 Y91.903 E6.75537
G1 X105.26 Y92.281 E6.77952
G1 X105.71 Y92.619 E6.79824
G1 X106.123 Y92.958 E6.81601
G1 X106.659 Y93.45 E6.84021
G1 X107.036 Y93.871 E6.859
G1 X107.376 Y94.285 E6.87682
G1 X107.806 Y94.871 E6.901
G1 X108.091 Y95.353 E6.91962
G1 X108.347 Y95.83 E6.93763
G1 X108.655 Y96.488 E6.96179
G1 X108.849 Y97.039 E6.98122
G1 X109.004 Y97.551 E6.99901
G1 X109.176 Y98.256 E7.02315
G1 X109.256 Y98.823 E7.04219
G1 X109.308 Y99.357 E7.06004
G1 X109.338 Y100.083 E7.08421
G1 X109.308 Y100.632 E7.10249
G1 X109.256 Y101.17 E7.12047
G1 X109.147 Y101.888 E7.14462
G1 X109.01 Y102.428 E7.16315
G1 X108.857 Y102.939 E7.18089
G1 X108.61 Y103.622 E7.20505
G1 X108.349 Y104.168 E7.22518
G1 X108.094 Y104.643 E7.24311
G1 X107.716 Y105.263 E7.26726
G1 X107.384 Y105.704 E7.28562
G1 X107.044 Y106.119 E7.30347
G1 X106.554 Y106.654 E7.3276
G1 X106.128 Y107.036 E7.34663
G1 X105.714 Y107.376 E7.36444
G1 X105.128 Y107.806 E7.38862
G1 X104.642 Y108.094 E7.40741
G1 X104.166 Y108.349 E7.42537
G1 X103.507 Y108.656 E7.44955
G1 X102.966 Y108.847 E7.46863
G1 X102.452 Y109.003 E7.4865
G1 X101.746 Y109.175 E7.51067
G1 X101.186 Y109.255 E7.52948
G1 X100.651 Y109.308 E7.54736
G1 X99.925 Y109.34 E7.57153
G1 X99.351 Y109.308 E7.59065
G1 X98.815 Y109.255 E7.60857
G1 X98.097 Y109.144 E7.63273
G1 X97.56 Y109.006 E7.65117
G1 X97.049 Y108.852 E7.66892
G1 X96.366 Y108.605 E7.69308
G1 X95.836 Y108.351 E7.71263
G1 X95.36 Y108.096 E7.73059
G1 X94.74 Y107.718 E7.75474
G1 X94.287 Y107.377 E7.7736
G1 X93.872 Y107.036 E7.79146
G1 X93.337 Y106.545 E7.81562
G1 X92.962 Y106.126 E7.83432
G1 X92.622 Y105.712 E7.85214
G1 X92.192 Y105.126 E7.87631
G1 X91.904 Y104.64 E7.8951
G1 X91.649 Y104.164 E7.91306
G1 X91.342 Y103.505 E7.93724
G1 X91.148 Y102.951 E7.95676
G1 X90.994 Y102.44 E7.97452
G1 X90.823 Y101.734 E7.99868
G1 X90.744 Y101.177 E8.01739
G1 X90.692 Y100.644 E8.0352
G1 X90.662 Y99.918 E8.05937
G1 X90.69 Y99.382 E8.07722
G1 X90.741 Y98.842 E8.09526
G1 X90.849 Y98.124 E8.11941
G1 X90.996 Y97.547 E8.13921
G1 X91.151 Y97.036 E8.15697
G1 X91.4 Y96.354 E8.18112
G1 X91.647 Y95.84 E8.20009
G1 X91.902 Y95.363 E8.21808
G1 X92.279 Y94.743 E8.24221
G1 X92.624 Y94.283 E8.26134
G1 X92.962 Y93.872 E8.27904
G1 X93.454 Y93.337 E8.30321
G0 F3600 X93.749 Y93.608
G1 F1200 X94.124 Y93.274 E8.31991
G1 X94.539 Y92.933 E8.33778
G1 X95.107 Y92.517 E8.36119
G1 X95.543 Y92.26 E8.37803
G1 X96.02 Y92.004 E8.39603
G1 X96.658 Y91.707 E8.41944
G1 X97.156 Y91.533 E8.43699
G1 X97.668 Y91.378 E8.45478
G1 X98.352 Y91.213 E8.47818
G1 X98.876 Y91.14 E8.49578
G1 X99.411 Y91.089 E8.51365
G1 X100.114 Y91.062 E8.53705
G1 X100.576 Y91.088 E8.55244
G1 X101.111 Y91.138 E8.57031
G1 X101.807 Y91.243 E8.59372
G1 X102.327 Y91.376 E8.61158
G1 X102.84 Y91.531 E8.6294
G1 X103.501 Y91.773 E8.65281
G1 X103.975 Y92.001 E8.67031
G1 X104.451 Y92.256 E8.68827
G1 X105.051 Y92.623 E8.71166
G1 X105.457 Y92.929 E8.72857
G1 X105.87 Y93.268 E8.74634
G1 X106.388 Y93.745 E8.76976
G1 X106.727 Y94.125 E8.7867
G1 X107.067 Y94.539 E8.80452
G1 X107.482 Y95.108 E8.82794
G1 X107.739 Y95.542 E8.84472
G1 X107.995 Y96.019 E8.86272
G1 X108.292 Y96.657 E8.88613
G1 X108.466 Y97.155 E8.90367
G1 X108.621 Y97.667 E8.92147
G1 X108.786 Y98.351 E8.94487
G1 X108.858 Y98.862 E8.96203
G1 X108.91 Y99.396 E8.97988
G1 X108.938 Y100.1 E9.00331
G1 X108.91 Y100.593 E9.01974
G1 X108.858 Y101.131 E9.03771
G1 X108.751 Y101.827 E9.06113
G1 X108.626 Y102.313 E9.07782
G1 X108.473 Y102.824 E9.09557
G1 X108.234 Y103.486 E9.11898
G1 X107.997 Y103.979 E9.13717
G1 X107.742 Y104.454 E9.1551
G1 X107.374 Y105.054 E9.17851
G1 X107.075 Y105.45 E9.19501
G1 X106.735 Y105.865 E9.21286
G1 X106.259 Y106.384 E9.23628
G1 X105.874 Y106.727 E9.25343
G1 X105.46 Y107.067 E9.27125
G1 X104.891 Y107.482 E9.29467
G1 X104.453 Y107.741 E9.3116
G1 X103.977 Y107.996 E9.32956
G1 X103.338 Y108.293 E9.35299
G1 X102.85 Y108.464 E9.37019
G1 X102.336 Y108.62 E9.38806
G1 X101.651 Y108.786 E9.4115
G1 X101.146 Y108.857 E9.42846
G1 X100.611 Y108.91 E9.44634
G1 X99.908 Y108.939 E9.46975
G1 X99.39 Y108.91 E9.487
G1 X98.854 Y108.857 E9.50492
G1 X98.158 Y108.748 E9.52835
G1 X97.675 Y108.623 E9.54494
G1 X97.164 Y108.469 E9.56269
G1 X96.503 Y108.228 E9.58609
G1 X96.025 Y107.998 E9.60374
G1 X95.549 Y107.743 E9.6217
G1 X94.949 Y107.376 E9.64509
G1 X94.541 Y107.068 E9.66209
G1 X94.126 Y106.727 E9.67996
G1 X93.608 Y106.25 E9.70338
G1 X93.271 Y105.872 E9.72022
G1 X92.931 Y105.458 E9.73804
G1 X92.516 Y104.889 E9.76146
G1 X92.257 Y104.451 E9.77839
G1 X92.002 Y103.975 E9.79635
G1 X91.705 Y103.336 E9.81978
G1 X91.531 Y102.836 E9.83739
G1 X91.377 Y102.325 E9.85514
G1 X91.212 Y101.641 E9.87855
G1 X91.142 Y101.138 E9.89544
G1 X91.09 Y100.605 E9.91325
G1 X91.062 Y99.902 E9.93665
G1 X91.088 Y99.42 E9.9527
G1 X91.139 Y98.88 E9.97074
G1 X91.245 Y98.184 E9.99416
G1 X91.379 Y97.663 E10.01205
G1 X91.534 Y97.152 E10.02981
G1 X91.776 Y96.491 E10.05323
G1 X91.999 Y96.029 E10.07029
G1 X92.254 Y95.552 E10.08828
G1 X92.621 Y94.951 E10.1117
G1 X92.933 Y94.537 E10.12894
G1 X93.271 Y94.126 E10.14664
G1 X93.749 Y93.608 E10.17008
G0 F3600 X94.043 Y93.88
G1 F1200 X94.378 Y93.583 E10.18497
G1 X94.793 Y93.242 E10.20284
G1 X95.343 Y92.841 E10.22548
G1 X95.732 Y92.612 E10.24049
G1 X96.209 Y92.356 E10.2585
G1 X96.827 Y92.07 E10.28115
G1 X97.271 Y91.916 E10.29678
G1 X97.783 Y91.761 E10.31457
G1 X98.446 Y91.602 E10.33725
G1 X98.914 Y91.538 E10.35296
G1 X99.449 Y91.487 E10.37083
G1 X100.129 Y91.462 E10.39346
G1 X100.539 Y91.486 E10.40712
G1 X101.074 Y91.536 E10.425
G1 X101.747 Y91.639 E10.44764
G1 X102.212 Y91.759 E10.46361
G1 X102.725 Y91.914 E10.48144
G1 X103.364 Y92.149 E10.50408
G1 X103.786 Y92.353 E10.51967
G1 X104.262 Y92.608 E10.53763
G1 X104.842 Y92.965 E10.56028
G1 X105.203 Y93.238 E10.57534
G1 X105.616 Y93.577 E10.59311
G1 X106.116 Y94.039 E10.61575
G1 X106.418 Y94.379 E10.63088
G1 X106.758 Y94.793 E10.6487
G1 X107.159 Y95.344 E10.67136
G1 X107.387 Y95.731 E10.6863
G1 X107.643 Y96.208 E10.70431
G1 X107.929 Y96.826 E10.72696
G1 X108.083 Y97.27 E10.74259
G1 X108.238 Y97.782 E10.76038
G1 X108.397 Y98.445 E10.78306
G1 X108.46 Y98.901 E10.79837
G1 X108.512 Y99.435 E10.81621
G1 X108.538 Y100.115 E10.83884
G1 X108.512 Y100.555 E10.8535
G1 X108.46 Y101.093 E10.87148
G1 X108.355 Y101.766 E10.89414
G1 X108.243 Y102.199 E10.90901
G1 X108.09 Y102.71 E10.92675
G1 X107.857 Y103.349 E10.94938
G1 X107.644 Y103.789 E10.96563
