;FLAVOR:Marlin
;TIME:1648
;Filament used: 1.49885m
;Layer height: 0.2
;MINX:59.4
;MINY:49.6
;MINZ:0.2
;MAXX:140.6
;MAXY:149.59
;MAXZ:11
;Generated with Cura_SteamEngine 4.7.1
M140 S60
M105
M190 S60
M104 S200
M105
M109 S200
M82 ;absolute extrusion mode
; START CODE
G21 ;metric values
G90 ;absolute positioning
M82 ;set extruder to absolute mode
M107 ;start with the fan off
G28 X0 Y0 ;move X/Y to min endstops
G28 Z0 ;move Z to min endstops
G1 Z15.0 F120 ;move the platform down 15mm
G92 E0 ;zero the extruded length
G1 F200 E6 ;extrude 6 mm of feed stock
G92 E0 ;zero the extruded length again
G1 F120
;Put printing message on LCD screen
M117 Printing...
G92 E0
G92 E0
G1 F2400 E-2.5
;LAYER_COUNT:55
;LAYER:0
M107
G0 F3600 X69.262 Y55.682 Z0.2
;TYPE:SKIRT
G1 F2400 E0
G1 F1500 X69.611 Y55.266 E0.01806
G1 X69.714 Y55.149 E0.02325
G1 X70.125 Y54.7 E0.04349
G1 X70.249 Y54.571 E0.04944
G1 X70.678 Y54.147 E0.0695
G1 X70.788 Y54.043 E0.07454
G1 X71.193 Y53.675 E0.09274
G1 X71.318 Y53.566 E0.09826
G1 X71.777 Y53.186 E0.11807
G1 X71.908 Y53.083 E0.12362
G1 X72.373 Y52.733 E0.14297
G1 X72.498 Y52.643 E0.1481
G1 X72.975 Y52.315 E0.16735
G1 X73.123 Y52.218 E0.17324
G1 X73.612 Y51.916 E0.19235
G1 X73.757 Y51.831 E0.19794
G1 X74.301 Y51.529 E0.21864
G1 X74.43 Y51.461 E0.22349
G1 X74.897 Y51.226 E0.24088
G1 X75.058 Y51.15 E0.2468
G1 X75.616 Y50.903 E0.26709
G1 X75.76 Y50.843 E0.27228
G1 X76.301 Y50.631 E0.29161
G1 X76.459 Y50.573 E0.29721
G1 X77.017 Y50.384 E0.3168
G1 X77.176 Y50.335 E0.32234
G1 X77.756 Y50.168 E0.34241
G1 X77.904 Y50.128 E0.34751
G1 X78.428 Y50.001 E0.36544
G1 X78.599 Y49.964 E0.37126
G1 X79.2 Y49.849 E0.39161
G1 X79.353 Y49.823 E0.39677
G1 X79.91 Y49.741 E0.4155
G1 X80.081 Y49.72 E0.42123
G1 X80.669 Y49.662 E0.44088
G1 X80.827 Y49.65 E0.44615
G1 X81.471 Y49.615 E0.4676
G1 X81.626 Y49.61 E0.47276
G1 X82.533 Y49.6 E0.50293
G1 X117.507 Y49.6 E1.66617
G1 X118.288 Y49.61 E1.69215
G1 X118.879 Y49.631 E1.71182
G1 X119.055 Y49.642 E1.71768
G1 X119.693 Y49.696 E1.73898
G1 X119.845 Y49.712 E1.74406
G1 X120.362 Y49.778 E1.7614
G1 X120.533 Y49.804 E1.76715
G1 X121.138 Y49.911 E1.78758
G1 X121.66 Y50.023 E1.80534
G1 X121.858 Y50.073 E1.81213
G1 X123.01 Y50.398 E1.85195
G1 X123.426 Y50.533 E1.86649
G1 X123.988 Y50.741 E1.88642
G1 X124.148 Y50.804 E1.89214
G1 X124.672 Y51.027 E1.91108
G1 X124.812 Y51.091 E1.9162
G1 X125.338 Y51.342 E1.93559
G1 X125.493 Y51.42 E1.94136
G1 X125.999 Y51.692 E1.96047
G1 X126.136 Y51.77 E1.96571
G1 X126.653 Y52.078 E1.98573
G1 X126.791 Y52.164 E1.99113
G1 X127.277 Y52.484 E2.01049
G1 X127.421 Y52.584 E2.01632
G1 X127.87 Y52.912 E2.03481
G1 X127.994 Y53.007 E2.04001
G1 X128.463 Y53.382 E2.05998
G1 X128.592 Y53.491 E2.0656
G1 X129.04 Y53.885 E2.08544
G1 X129.157 Y53.992 E2.09071
G1 X129.567 Y54.386 E2.10963
G1 X129.678 Y54.498 E2.11487
G1 X130.068 Y54.907 E2.13367
G1 X130.183 Y55.033 E2.13934
G1 X130.574 Y55.484 E2.15919
G1 X130.681 Y55.613 E2.16477
G1 X131.054 Y56.086 E2.1848
G1 X131.148 Y56.211 E2.19001
G1 X131.467 Y56.654 E2.20816
G1 X131.562 Y56.793 E2.21376
G1 X131.891 Y57.298 E2.23381
G1 X131.978 Y57.439 E2.23932
G1 X132.269 Y57.934 E2.25842
G1 X132.348 Y58.074 E2.26376
G1 X132.627 Y58.601 E2.2836
G1 X132.699 Y58.746 E2.28898
G1 X132.945 Y59.266 E2.30811
G1 X133.014 Y59.42 E2.31373
G1 X133.234 Y59.948 E2.33275
G1 X133.292 Y60.096 E2.33804
G1 X133.501 Y60.667 E2.35826
G1 X133.556 Y60.831 E2.36402
G1 X133.725 Y61.372 E2.38287
G1 X133.77 Y61.527 E2.38824
G1 X133.918 Y62.088 E2.40753
G1 X133.955 Y62.243 E2.41283
G1 X134.079 Y62.815 E2.4323
G1 X134.109 Y62.97 E2.43755
G1 X134.207 Y63.542 E2.45685
G1 X134.233 Y63.721 E2.46287
G1 X134.302 Y64.296 E2.48213
G1 X134.317 Y64.446 E2.48714
G1 X134.364 Y65.05 E2.50729
G1 X134.373 Y65.212 E2.51269
G1 X134.391 Y65.767 E2.53116
G1 X134.393 Y65.933 E2.53668
G1 X134.384 Y66.589 E2.5585
G1 X134.362 Y67.175 E2.57801
G1 X134.297 Y69.949 E2.6703
G1 X134.311 Y72.681 E2.76116
G1 X134.401 Y75.408 E2.85191
G1 X134.57 Y78.134 E2.94275
G1 X134.811 Y80.816 E3.03232
G1 X135.135 Y83.54 E3.12356
G1 X135.536 Y86.261 E3.21503
G1 X136.008 Y88.931 E3.30522
G1 X136.553 Y91.582 E3.39523
G1 X137.183 Y94.265 E3.4869
G1 X137.357 Y94.933 E3.50986
G1 X137.478 Y95.522 E3.52986
G1 X137.502 Y95.716 E3.53636
G1 X137.77 Y98.242 E3.62084
G1 X138.137 Y100.957 E3.71197
G1 X138.579 Y103.652 E3.8028
G1 X139.094 Y106.323 E3.89327
G1 X139.688 Y108.988 E3.98409
G1 X140.212 Y111.089 E4.05611
G1 X140.474 Y112.095 E4.09068
G1 X140.57 Y112.622 E4.1085
G1 X140.598 Y113.22 E4.12841
G1 X140.6 Y113.33 E4.13207
G1 X140.6 Y118.32 E4.29804
G1 X140.59 Y119.046 E4.32219
G1 X140.542 Y119.58 E4.34002
G1 X140.416 Y120.101 E4.35785
G1 X140.207 Y120.612 E4.37621
G1 X139.761 Y121.498 E4.4092
G1 X139.303 Y122.376 E4.44214
G1 X138.102 Y124.851 E4.53364
G1 X136.977 Y127.347 E4.6247
G1 X135.94 Y129.83 E4.7142
G1 X134.961 Y132.374 E4.80486
G1 X134.043 Y134.98 E4.89675
G1 X133.079 Y138.006 E5.00238
G1 X132.933 Y138.489 E5.01917
G1 X132.742 Y139.076 E5.0397
G1 X132.688 Y139.23 E5.04513
G1 X132.484 Y139.772 E5.06439
G1 X132.422 Y139.927 E5.06994
G1 X132.212 Y140.415 E5.08761
G1 X132.139 Y140.574 E5.09343
G1 X131.886 Y141.091 E5.11257
G1 X131.81 Y141.237 E5.11805
G1 X131.549 Y141.714 E5.13613
G1 X131.469 Y141.852 E5.14144
G1 X131.181 Y142.327 E5.15991
G1 X131.091 Y142.468 E5.16548
G1 X130.78 Y142.931 E5.18403
G1 X130.682 Y143.071 E5.18971
G1 X130.358 Y143.507 E5.20778
G1 X130.264 Y143.628 E5.21287
G1 X129.912 Y144.062 E5.23146
G1 X129.789 Y144.205 E5.23773
G1 X129.403 Y144.633 E5.2569
G1 X129.297 Y144.746 E5.26206
G1 X128.939 Y145.11 E5.27904
G1 X128.818 Y145.228 E5.28466
G1 X128.386 Y145.628 E5.30424
G1 X128.262 Y145.737 E5.30973
G1 X127.852 Y146.083 E5.32758
G1 X127.73 Y146.182 E5.3328
G1 X127.287 Y146.524 E5.35142
G1 X127.149 Y146.625 E5.3571
G1 X126.701 Y146.938 E5.37528
G1 X126.231 Y147.239 E5.39384
G1 X126.054 Y147.345 E5.40071
G1 X125.052 Y147.901 E5.43882
G1 X124.7 Y148.079 E5.45194
G1 X124.159 Y148.324 E5.47169
G1 X124.006 Y148.389 E5.47722
G1 X123.509 Y148.587 E5.49501
G1 X123.342 Y148.649 E5.50094
G1 X122.804 Y148.833 E5.51985
G1 X122.653 Y148.881 E5.52512
G1 X122.135 Y149.033 E5.54308
G1 X121.976 Y149.076 E5.54855
G1 X121.416 Y149.213 E5.56773
G1 X121.258 Y149.248 E5.57311
G1 X120.736 Y149.351 E5.59081
G1 X120.568 Y149.38 E5.59648
G1 X120.009 Y149.463 E5.61527
G1 X119.838 Y149.484 E5.621
G1 X119.298 Y149.538 E5.63905
G1 X119.133 Y149.551 E5.64456
G1 X118.556 Y149.582 E5.66378
G1 X118.027 Y149.59 E5.68138
G1 X117.426 Y149.544 E5.70142
G1 X116.65 Y149.419 E5.72757
G1 X115.374 Y149.194 E5.77066
G1 X112.643 Y148.793 E5.86247
G1 X109.974 Y148.479 E5.95185
G1 X107.214 Y148.232 E6.04402
G1 X104.519 Y148.067 E6.13382
G1 X101.794 Y147.978 E6.2245
G1 X99.062 Y147.966 E6.31537
G1 X96.334 Y148.031 E6.40613
G1 X93.605 Y148.174 E6.49702
G1 X90.921 Y148.39 E6.58658
G1 X88.17 Y148.69 E6.67862
G1 X85.468 Y149.063 E6.76934
G1 X83.619 Y149.364 E6.83165
G1 X82.654 Y149.53 E6.86422
G1 X82.03 Y149.582 E6.88504
G1 X81.517 Y149.58 E6.90211
G1 X80.968 Y149.557 E6.92038
G1 X80.42 Y149.511 E6.93867
G1 X80.252 Y149.493 E6.94429
G1 X79.697 Y149.42 E6.96291
G1 X79.539 Y149.396 E6.96823
G1 X79.013 Y149.303 E6.98599
G1 X78.844 Y149.269 E6.99172
G1 X78.262 Y149.137 E7.01157
G1 X78.099 Y149.096 E7.01716
G1 X77.585 Y148.954 E7.0349
G1 X77.426 Y148.906 E7.04042
G1 X76.921 Y148.741 E7.05809
G1 X76.773 Y148.689 E7.06331
G1 X76.23 Y148.485 E7.0826
G1 X76.07 Y148.42 E7.08835
G1 X75.581 Y148.209 E7.10606
G1 X75.43 Y148.14 E7.11158
G1 X74.913 Y147.888 E7.13071
G1 X74.763 Y147.811 E7.13632
G1 X74.282 Y147.548 E7.15456
G1 X74.138 Y147.464 E7.1601
G1 X73.663 Y147.175 E7.17859
G1 X73.527 Y147.088 E7.18396
G1 X73.07 Y146.781 E7.20227
G1 X72.932 Y146.684 E7.20788
G1 X72.494 Y146.359 E7.22602
G1 X72.367 Y146.261 E7.23136
G1 X71.933 Y145.908 E7.24997
G1 X71.794 Y145.789 E7.25605
G1 X71.367 Y145.404 E7.27518
G1 X71.254 Y145.297 E7.28035
G1 X70.89 Y144.939 E7.29733
G1 X70.772 Y144.818 E7.30295
G1 X70.372 Y144.386 E7.32254
G1 X70.263 Y144.262 E7.32803
G1 X69.917 Y143.852 E7.34587
G1 X69.818 Y143.73 E7.3511
G1 X69.476 Y143.287 E7.36971
G1 X69.376 Y143.15 E7.37535
G1 X69.062 Y142.701 E7.39357
G1 X68.756 Y142.224 E7.41242
G1 X68.656 Y142.054 E7.41898
G1 X68.1 Y141.053 E7.45707
G1 X67.913 Y140.684 E7.47083
G1 X67.672 Y140.149 E7.49034
G1 X67.611 Y140.007 E7.49548
G1 X67.413 Y139.512 E7.51322
G1 X67.35 Y139.341 E7.51928
G1 X67.17 Y138.815 E7.53777
G1 X67.136 Y138.71 E7.54144
G1 X66.309 Y136.028 E7.63479
G1 X65.425 Y133.426 E7.72619
G1 X64.48 Y130.883 E7.81642
G1 X63.457 Y128.35 E7.90728
G1 X62.368 Y125.861 E7.99764
G1 X61.186 Y123.354 E8.08983
G1 X60.005 Y121.019 E8.17686
G1 X59.82 Y120.666 E8.19011
G1 X59.607 Y120.173 E8.20797
G1 X59.47 Y119.655 E8.2258
G1 X59.412 Y119.108 E8.24409
G1 X59.4 Y118.67 E8.25866
G1 X59.4 Y113.651 E8.4256
G1 X59.411 Y112.944 E8.44911
G1 X59.46 Y112.408 E8.46702
G1 X59.588 Y111.841 E8.48635
G1 X60.156 Y109.649 E8.56166
G1 X60.769 Y106.977 E8.65284
G1 X61.296 Y104.351 E8.74193
G1 X61.764 Y101.599 E8.83477
G1 X62.14 Y98.947 E8.92386
G1 X62.346 Y97.007 E8.98875
G1 X62.368 Y96.885 E8.99287
G1 X62.514 Y95.593 E9.03612
G1 X62.594 Y95.141 E9.05138
G1 X63.271 Y92.376 E9.14606
G1 X63.829 Y89.785 E9.23422
G1 X63.832 Y89.762 E9.23499
G1 X64.335 Y87.047 E9.32683
G1 X64.755 Y84.355 E9.41745
G1 X65.096 Y81.677 E9.50724
G1 X65.368 Y78.92 E9.59938
G1 X65.557 Y76.234 E9.68894
G1 X65.671 Y73.507 E9.77972
G1 X65.707 Y70.771 E9.87072
G1 X65.656 Y67.666 E9.97401
G1 X65.609 Y66.22 E10.02213
G1 X65.607 Y66.047 E10.02788
G1 X65.616 Y65.469 E10.04711
G1 X65.622 Y65.313 E10.0523
G1 X65.656 Y64.737 E10.0715
G1 X65.671 Y64.563 E10.0773
G1 X65.735 Y63.97 E10.09714
G1 X65.755 Y63.813 E10.10241
G1 X65.842 Y63.243 E10.12158
G1 X65.87 Y63.083 E10.12699
G1 X65.986 Y62.5 E10.14676
G1 X66.022 Y62.339 E10.15224
G1 X66.155 Y61.801 E10.17068
G1 X66.197 Y61.647 E10.17599
G1 X66.368 Y61.067 E10.1961
G1 X66.421 Y60.902 E10.20186
G1 X66.612 Y60.353 E10.22119
G1 X66.667 Y60.206 E10.22642
G1 X66.884 Y59.66 E10.24596
G1 X66.951 Y59.502 E10.25166
G1 X67.188 Y58.98 E10.27073
G1 X67.254 Y58.843 E10.27579
G1 X67.512 Y58.333 E10.2948
G1 X67.594 Y58.179 E10.3006
G1 X67.893 Y57.653 E10.32073
G1 X67.972 Y57.521 E10.32584
G1 X68.269 Y57.047 E10.34445
G1 X68.363 Y56.905 E10.35011
G1 X68.697 Y56.424 E10.36959
G1 X68.789 Y56.297 E10.3748
G1 X69.155 Y55.816 E10.39491
G1 X69.262 Y55.682 E10.40061
G0 F3600 X69.568 Y55.939
G1 F1500 X69.917 Y55.523 E10.41867
G1 X70.009 Y55.419 E10.42329
G1 X70.42 Y54.97 E10.44353
G1 X70.531 Y54.855 E10.44885
G1 X70.96 Y54.431 E10.46891
G1 X71.057 Y54.339 E10.47336
G1 X71.462 Y53.971 E10.49156
G1 X71.573 Y53.874 E10.49646
G1 X72.032 Y53.494 E10.51628
G1 X72.149 Y53.402 E10.52123
G1 X72.614 Y53.052 E10.54059
G1 X72.725 Y52.972 E10.54514
G1 X73.202 Y52.644 E10.56439
G1 X73.334 Y52.558 E10.56963
G1 X73.823 Y52.256 E10.58875
G1 X73.951 Y52.181 E10.59368
G1 X74.495 Y51.879 E10.61438
G1 X74.61 Y51.819 E10.61869
G1 X75.077 Y51.584 E10.63608
G1 X75.22 Y51.516 E10.64135
G1 X75.778 Y51.269 E10.66164
G1 X75.905 Y51.216 E10.66622
G1 X76.446 Y51.004 E10.68555
G1 X76.587 Y50.952 E10.69055
G1 X77.145 Y50.763 E10.71014
G1 X77.287 Y50.719 E10.71509
G1 X77.867 Y50.552 E10.73516
G1 X77.998 Y50.517 E10.73967
G1 X78.522 Y50.39 E10.7576
G1 X78.675 Y50.357 E10.76281
G1 X79.276 Y50.242 E10.78316
G1 X79.411 Y50.219 E10.78772
G1 X79.968 Y50.137 E10.80644
G1 X80.12 Y50.118 E10.81154
G1 X80.708 Y50.06 E10.83119
G1 X80.848 Y50.05 E10.83586
G1 X81.492 Y50.015 E10.85731
G1 X81.631 Y50.01 E10.86193
G1 X82.538 Y50 E10.8921
G1 X117.503 Y50 E12.05504
G1 X118.197 Y50.008 E12.07813
G1 X118.865 Y50.031 E12.10036
G1 X119.021 Y50.04 E12.10555
G1 X119.659 Y50.094 E12.12685
G1 X119.794 Y50.109 E12.13137
G1 X120.311 Y50.175 E12.1487
G1 X120.463 Y50.198 E12.15382
G1 X121.068 Y50.305 E12.17425
G1 X121.573 Y50.414 E12.19143
G1 X121.75 Y50.458 E12.1975
G1 X122.902 Y50.783 E12.23731
G1 X123.287 Y50.908 E12.25077
G1 X123.849 Y51.116 E12.27071
G1 X123.991 Y51.173 E12.2758
G1 X124.515 Y51.396 E12.29474
G1 X124.64 Y51.452 E12.29929
G1 X125.166 Y51.703 E12.31868
G1 X125.303 Y51.772 E12.32378
G1 X125.809 Y52.044 E12.34289
G1 X125.932 Y52.114 E12.34759
G1 X126.449 Y52.422 E12.36761
G1 X126.571 Y52.498 E12.37239
G1 X127.057 Y52.818 E12.39174
G1 X127.185 Y52.907 E12.39693
G1 X127.634 Y53.235 E12.41542
G1 X127.744 Y53.32 E12.42005
G1 X128.213 Y53.695 E12.44002
G1 X128.328 Y53.791 E12.445
G1 X128.776 Y54.185 E12.46484
G1 X128.88 Y54.281 E12.46955
G1 X129.29 Y54.675 E12.48846
G1 X129.389 Y54.774 E12.49312
G1 X129.779 Y55.183 E12.51192
G1 X129.881 Y55.295 E12.51696
G1 X130.272 Y55.746 E12.53681
G1 X130.367 Y55.861 E12.54177
G1 X130.74 Y56.334 E12.5618
G1 X130.824 Y56.445 E12.56643
G1 X131.143 Y56.888 E12.58459
G1 X131.227 Y57.011 E12.58955
G1 X131.556 Y57.516 E12.60959
G1 X131.634 Y57.641 E12.61449
G1 X131.925 Y58.136 E12.63359
G1 X131.994 Y58.261 E12.63834
G1 X132.273 Y58.788 E12.65817
G1 X132.338 Y58.917 E12.66298
G1 X132.584 Y59.437 E12.68211
G1 X132.645 Y59.574 E12.6871
G1 X132.865 Y60.102 E12.70612
G1 X132.916 Y60.233 E12.7108
G1 X133.125 Y60.804 E12.73102
G1 X133.174 Y60.95 E12.73614
G1 X133.343 Y61.491 E12.755
G1 X133.383 Y61.629 E12.75977
G1 X133.531 Y62.19 E12.77907
G1 X133.564 Y62.328 E12.78379
G1 X133.688 Y62.9 E12.80326
G1 X133.715 Y63.038 E12.80793
G1 X133.813 Y63.61 E12.82724
G1 X133.836 Y63.769 E12.83258
G1 X133.905 Y64.344 E12.85184
G1 X133.918 Y64.477 E12.85629
G1 X133.965 Y65.081 E12.87644
G1 X133.973 Y65.225 E12.88123
G1 X133.991 Y65.78 E12.8997
G1 X133.993 Y65.928 E12.90462
G1 X133.982 Y66.662 E12.92904
G1 X133.961 Y67.213 E12.94738
G1 X133.897 Y69.942 E13.03817
G1 X133.911 Y72.697 E13.1298
G1 X134.001 Y75.41 E13.22009
G1 X134.171 Y78.159 E13.3117
G1 X134.414 Y80.863 E13.40199
G1 X134.741 Y83.609 E13.49397
G1 X135.14 Y86.317 E13.58501
G1 X135.615 Y89.009 E13.67593
G1 X136.165 Y91.682 E13.7667
G1 X136.79 Y94.341 E13.85755
G1 X136.968 Y95.026 E13.88109
G1 X137.081 Y95.574 E13.8997
G1 X137.104 Y95.758 E13.90586
G1 X137.374 Y98.301 E13.99092
G1 X137.74 Y101.009 E14.08181
G1 X138.184 Y103.721 E14.17321
G1 X138.704 Y106.414 E14.26443
G1 X139.289 Y109.041 E14.35395
G1 X139.825 Y111.19 E14.42761
G1 X140.087 Y112.196 E14.46219
G1 X140.189 Y112.904 E14.48598
G1 X140.2 Y113.33 E14.50016
G1 X140.2 Y118.314 E14.66592
G1 X140.19 Y119.04 E14.69007
G1 X140.143 Y119.543 E14.70688
G1 X140.017 Y120.033 E14.7237
G1 X139.849 Y120.433 E14.73813
G1 X139.407 Y121.313 E14.77089
G1 X138.933 Y122.223 E14.80501
G1 X137.735 Y124.69 E14.89623
G1 X136.62 Y127.164 E14.98649
G1 X135.556 Y129.712 E15.07832
G1 X134.583 Y132.241 E15.16845
G1 X133.674 Y134.822 E15.25946
G1 X132.698 Y137.885 E15.36639
G1 X132.553 Y138.365 E15.38306
G1 X132.362 Y138.952 E15.40359
G1 X132.314 Y139.089 E15.40842
G1 X132.11 Y139.631 E15.42768
G1 X132.054 Y139.769 E15.43264
G1 X131.844 Y140.257 E15.45031
G1 X131.779 Y140.399 E15.4555
G1 X131.526 Y140.916 E15.47465
G1 X131.459 Y141.045 E15.47948
G1 X131.198 Y141.522 E15.49757
G1 X131.127 Y141.645 E15.50229
G1 X130.839 Y142.12 E15.52076
G1 X130.759 Y142.245 E15.5257
G1 X130.448 Y142.708 E15.54425
G1 X130.36 Y142.833 E15.54934
G1 X130.036 Y143.269 E15.5674
G1 X129.953 Y143.376 E15.57191
G1 X129.601 Y143.81 E15.59049
G1 X129.492 Y143.937 E15.59606
G1 X129.106 Y144.365 E15.61523
G1 X129.011 Y144.466 E15.61984
G1 X128.653 Y144.83 E15.63682
G1 X128.546 Y144.934 E15.64178
G1 X128.114 Y145.334 E15.66137
G1 X128.004 Y145.432 E15.66627
G1 X127.594 Y145.778 E15.68411
G1 X127.485 Y145.865 E15.68875
G1 X127.042 Y146.207 E15.70736
G1 X126.92 Y146.297 E15.7124
G1 X126.472 Y146.61 E15.73058
G1 X126.018 Y146.901 E15.74852
G1 X125.86 Y146.995 E15.75463
G1 X124.786 Y147.59 E15.79547
G1 X124.535 Y147.715 E15.8048
G1 X123.994 Y147.96 E15.82455
G1 X123.858 Y148.018 E15.82947
G1 X123.361 Y148.216 E15.84726
G1 X123.213 Y148.271 E15.85251
G1 X122.675 Y148.455 E15.87142
G1 X122.54 Y148.498 E15.87614
G1 X122.022 Y148.65 E15.89409
G1 X121.881 Y148.687 E15.89894
G1 X121.321 Y148.824 E15.91811
G1 X121.18 Y148.855 E15.92292
G1 X120.658 Y148.958 E15.94061
G1 X120.509 Y148.984 E15.94564
G1 X119.95 Y149.067 E15.96444
