;FLAVOR:Marlin
;TIME:1783
;Filament used: 1.6831m
;Layer height: 0.2
;MINX:82.2
;MINY:90.45
;MINZ:0.2
;MAXX:117.8
;MAXY:117.55
;MAXZ:90.6
;Generated with Cura_SteamEngine 4.7.1
M140 S60
M105
M190 S60
M104 S200
M105
M109 S200
M82 ;absolute extrusion mode
; START CODE
G21 ;metric values
G90 ;absolute positioning
M82 ;set extruder to absolute mode
M107 ;start with the fan off
G28 X0 Y0 ;move X/Y to min endstops
G28 Z0 ;move Z to min endstops
G1 Z15.0 F120 ;move the platform down 15mm
G92 E0 ;zero the extruded length
G1 F200 E6 ;extrude 6 mm of feed stock
G92 E0 ;zero the extruded length again
G1 F120
;Put printing message on LCD screen
M117 Printing...
G92 E0
G92 E0
G1 F2400 E-2.5
;LAYER_COUNT:453
;LAYER:0
M107
G0 F3600 X84.623 Y98.948 Z0.2
;TYPE:SKIRT
G1 F2400 E0
G1 F1500 X85.222 Y98.433 E0.02627
G1 X85.87 Y97.982 E0.05253
G1 X86.561 Y97.598 E0.07883
G1 X87.286 Y97.286 E0.10508
G1 X88.039 Y97.049 E0.13133
G1 X88.813 Y96.89 E0.15761
G1 X89.598 Y96.809 E0.18386
G1 X89.999 Y96.799 E0.1972
G1 X92.134 Y96.799 E0.26821
G1 X92.538 Y96.399 E0.28712
G1 X93.17 Y95.891 E0.31409
G1 X93.742 Y95.478 E0.33756
G1 X94.405 Y95.049 E0.36382
G1 X95.146 Y94.672 E0.39148
G1 X95.791 Y94.386 E0.41494
G1 X96.528 Y94.102 E0.44121
G1 X97.343 Y93.884 E0.46927
G1 X98.035 Y93.738 E0.49279
G1 X98.815 Y93.614 E0.51906
G1 X99.611 Y93.57 E0.54558
G1 X100.309 Y93.567 E0.56879
G1 X101.098 Y93.604 E0.59507
G1 X101.932 Y93.731 E0.62312
G1 X102.624 Y93.875 E0.64663
G1 X103.388 Y94.074 E0.67289
G1 X104.169 Y94.368 E0.70065
G1 X104.814 Y94.651 E0.72407
G1 X105.52 Y95.005 E0.75034
G1 X106.225 Y95.455 E0.77816
G1 X106.794 Y95.863 E0.80145
G1 X107.412 Y96.355 E0.82772
G1 X107.864 Y96.799 E0.8488
G1 X110.001 Y96.799 E0.91987
G1 X110.79 Y96.839 E0.94615
G1 X111.57 Y96.959 E0.9724
G1 X112.335 Y97.157 E0.99868
G1 X113.075 Y97.431 E1.02492
G1 X113.784 Y97.779 E1.05119
G1 X114.455 Y98.196 E1.07747
G1 X115.079 Y98.679 E1.10371
G1 X115.652 Y99.223 E1.12999
G1 X116.166 Y99.822 E1.15625
G1 X116.618 Y100.47 E1.18252
G1 X117.001 Y101.161 E1.2088
G1 X117.313 Y101.886 E1.23505
G1 X117.55 Y102.639 E1.26131
G1 X117.709 Y103.413 E1.28759
G1 X117.79 Y104.198 E1.31384
G1 X117.8 Y104.599 E1.32718
G1 X117.8 Y108.841 E1.46827
G1 X117.76 Y109.63 E1.49454
G1 X117.641 Y110.41 E1.52079
G1 X117.443 Y111.175 E1.54707
G1 X117.169 Y111.915 E1.57331
G1 X116.821 Y112.624 E1.59958
G1 X116.403 Y113.295 E1.62588
G1 X115.92 Y113.919 E1.65212
G1 X115.377 Y114.492 E1.67838
G1 X114.778 Y115.007 E1.70465
G1 X114.13 Y115.458 E1.73091
G1 X113.439 Y115.842 E1.7572
G1 X112.714 Y116.154 E1.78346
G1 X111.961 Y116.391 E1.80971
G1 X111.187 Y116.55 E1.83599
G1 X110.402 Y116.631 E1.86224
G1 X110 Y116.641 E1.87562
G1 X108.637 Y116.641 E1.92095
G1 X108.439 Y116.751 E1.92848
G1 X107.714 Y117.063 E1.95473
G1 X106.961 Y117.3 E1.98099
G1 X106.187 Y117.459 E2.00727
G1 X105.402 Y117.54 E2.03352
G1 X105 Y117.55 E2.04689
G1 X95 Y117.55 E2.3795
G1 X94.211 Y117.51 E2.40577
G1 X93.431 Y117.391 E2.43201
G1 X92.666 Y117.193 E2.4583
G1 X91.926 Y116.919 E2.48454
G1 X91.36 Y116.641 E2.50552
G1 X89.998 Y116.641 E2.55082
G1 X89.21 Y116.601 E2.57706
G1 X88.429 Y116.481 E2.60334
G1 X87.665 Y116.283 E2.62959
G1 X86.924 Y116.009 E2.65587
G1 X86.215 Y115.661 E2.68214
G1 X85.545 Y115.244 E2.70838
G1 X84.92 Y114.76 E2.73468
G1 X84.348 Y114.216 E2.76093
G1 X83.833 Y113.617 E2.7872
G1 X83.382 Y112.969 E2.81346
G1 X82.999 Y112.279 E2.83971
G1 X82.687 Y111.554 E2.86596
G1 X82.45 Y110.8 E2.89225
G1 X82.291 Y110.027 E2.9185
G1 X82.21 Y109.241 E2.94478
G1 X82.2 Y108.841 E2.95809
G1 X82.2 Y104.599 E3.09918
G1 X82.24 Y103.81 E3.12545
G1 X82.359 Y103.03 E3.1517
G1 X82.557 Y102.265 E3.17798
G1 X82.831 Y101.525 E3.20422
G1 X83.179 Y100.816 E3.23049
G1 X83.597 Y100.145 E3.25679
G1 X84.08 Y99.521 E3.28303
G1 X84.623 Y98.948 E3.30929
G0 F3600 X85.016 Y99.129
G1 F1500 X85.611 Y98.641 E3.33488
G1 X86.253 Y98.218 E3.36045
G1 X86.936 Y97.863 E3.38606
G1 X87.651 Y97.582 E3.41161
G1 X88.393 Y97.376 E3.43722
G1 X89.151 Y97.248 E3.46279
G1 X89.999 Y97.199 E3.49104
G1 X92.298 Y97.199 E3.56751
G1 X92.82 Y96.684 E3.59189
G1 X93.404 Y96.215 E3.61681
G1 X93.976 Y95.802 E3.64027
G1 X94.622 Y95.385 E3.66585
G1 X95.308 Y95.037 E3.69143
G1 X95.953 Y94.751 E3.7149
G1 X96.672 Y94.476 E3.7405
G1 X97.425 Y94.275 E3.76642
G1 X98.117 Y94.129 E3.78995
G1 X98.877 Y94.01 E3.81553
G1 X99.613 Y93.97 E3.84005
G1 X100.311 Y93.967 E3.86326
G1 X101.079 Y94.004 E3.88884
G1 X101.851 Y94.122 E3.91481
G1 X102.543 Y94.266 E3.93832
G1 X103.286 Y94.462 E3.96388
G1 X104.008 Y94.735 E3.98955
G1 X104.653 Y95.018 E4.01298
G1 X105.341 Y95.363 E4.03858
G1 X105.992 Y95.78 E4.06429
G1 X106.561 Y96.188 E4.08758
G1 X107.162 Y96.668 E4.11316
G1 X107.701 Y97.199 E4.13833
G1 X110.001 Y97.199 E4.21482
G1 X110.769 Y97.239 E4.2404
G1 X111.529 Y97.359 E4.26599
G1 X112.272 Y97.557 E4.29157
G1 X112.991 Y97.83 E4.31715
G1 X113.677 Y98.177 E4.34272
G1 X114.324 Y98.594 E4.36832
G1 X114.924 Y99.075 E4.3939
G1 X115.471 Y99.616 E4.41948
G1 X115.959 Y100.211 E4.44508
G1 X116.382 Y100.853 E4.47065
G1 X116.736 Y101.536 E4.49624
G1 X117.018 Y102.252 E4.52183
G1 X117.224 Y102.993 E4.54741
G1 X117.351 Y103.751 E4.57297
G1 X117.4 Y104.599 E4.60123
G1 X117.4 Y108.841 E4.74232
G1 X117.36 Y109.609 E4.76789
G1 X117.241 Y110.369 E4.79348
G1 X117.043 Y111.112 E4.81905
G1 X116.769 Y111.831 E4.84465
G1 X116.422 Y112.517 E4.87021
G1 X116.006 Y113.164 E4.8958
G1 X115.525 Y113.764 E4.92138
G1 X114.984 Y114.311 E4.94696
G1 X114.389 Y114.799 E4.97256
G1 X113.747 Y115.222 E4.99813
G1 X113.064 Y115.577 E5.02373
G1 X112.349 Y115.858 E5.04928
G1 X111.607 Y116.064 E5.0749
G1 X110.849 Y116.192 E5.10046
G1 X110 Y116.241 E5.12875
G1 X108.535 Y116.241 E5.17747
G1 X108.064 Y116.486 E5.19513
G1 X107.349 Y116.767 E5.22068
G1 X106.607 Y116.973 E5.2463
G1 X105.849 Y117.101 E5.27187
G1 X105 Y117.15 E5.30015
G1 X95 Y117.15 E5.63275
G1 X94.232 Y117.11 E5.65833
G1 X93.472 Y116.991 E5.68392
G1 X92.729 Y116.793 E5.70949
G1 X92.01 Y116.519 E5.73508
G1 X91.461 Y116.241 E5.75555
G1 X89.999 Y116.241 E5.80418
G1 X89.23 Y116.201 E5.82979
G1 X88.471 Y116.081 E5.85535
G1 X87.727 Y115.883 E5.88095
G1 X87.009 Y115.609 E5.90651
G1 X86.322 Y115.262 E5.93211
G1 X85.676 Y114.846 E5.95767
G1 X85.076 Y114.365 E5.98324
G1 X84.529 Y113.824 E6.00883
G1 X84.041 Y113.229 E6.03443
G1 X83.618 Y112.587 E6.06
G1 X83.264 Y111.904 E6.08559
G1 X82.982 Y111.188 E6.11118
G1 X82.776 Y110.447 E6.13676
G1 X82.649 Y109.689 E6.16232
G1 X82.6 Y108.841 E6.19057
G1 X82.6 Y104.599 E6.33166
G1 X82.64 Y103.831 E6.35724
G1 X82.759 Y103.071 E6.38283
G1 X82.957 Y102.328 E6.4084
G1 X83.231 Y101.609 E6.43399
G1 X83.578 Y100.923 E6.45956
G1 X83.994 Y100.276 E6.48515
G1 X84.475 Y99.676 E6.51072
G1 X85.016 Y99.129 E6.53631
G0 F3600 X85.408 Y99.315
G1 F1500 X85.998 Y98.856 E6.56118
G1 X86.634 Y98.461 E6.58608
G1 X87.308 Y98.137 E6.61095
G1 X88.013 Y97.887 E6.63583
G1 X88.741 Y97.713 E6.66072
G1 X89.483 Y97.618 E6.6856
G1 X89.999 Y97.599 E6.70278
G1 X92.472 Y97.599 E6.78503
G1 X92.568 Y97.494 E6.78976
G1 X93.101 Y96.969 E6.81465
G1 X93.638 Y96.54 E6.83751
G1 X94.21 Y96.127 E6.86097
G1 X94.839 Y95.722 E6.88585
G1 X95.471 Y95.403 E6.9094
G1 X96.116 Y95.117 E6.93287
G1 X96.815 Y94.851 E6.95774
G1 X97.508 Y94.667 E6.98159
G1 X98.2 Y94.521 E7.00511
G1 X98.939 Y94.406 E7.02999
G1 X99.615 Y94.37 E7.0525
G1 X100.313 Y94.367 E7.07572
G1 X101.06 Y94.404 E7.1006
G1 X101.769 Y94.514 E7.12446
G1 X102.461 Y94.658 E7.14797
G1 X103.184 Y94.849 E7.17284
G1 X103.848 Y95.101 E7.19646
G1 X104.493 Y95.384 E7.21989
G1 X105.16 Y95.721 E7.24474
G1 X105.759 Y96.105 E7.26841
G1 X106.328 Y96.513 E7.2917
G1 X106.912 Y96.981 E7.31659
G1 X107.398 Y97.46 E7.33928
G1 X107.526 Y97.599 E7.34557
G1 X110.001 Y97.599 E7.42789
G1 X110.748 Y97.639 E7.45277
G1 X111.486 Y97.759 E7.47764
G1 X112.208 Y97.956 E7.50253
G1 X112.904 Y98.23 E7.52741
G1 X113.567 Y98.576 E7.55228
G1 X114.19 Y98.991 E7.57718
G1 X114.764 Y99.47 E7.60204
G1 X115.284 Y100.008 E7.62693
G1 X115.744 Y100.598 E7.65181
G1 X116.138 Y101.234 E7.6767
G1 X116.462 Y101.908 E7.70157
G1 X116.712 Y102.613 E7.72645
G1 X116.886 Y103.341 E7.75134
G1 X116.981 Y104.083 E7.77622
G1 X117 Y104.599 E7.7934
G1 X117 Y108.841 E7.93449
G1 X116.96 Y109.588 E7.95937
G1 X116.841 Y110.326 E7.98423
G1 X116.643 Y111.048 E8.00913
G1 X116.37 Y111.744 E8.034
G1 X116.023 Y112.407 E8.05889
G1 X115.608 Y113.03 E8.08379
G1 X115.129 Y113.604 E8.10865
G1 X114.592 Y114.125 E8.13354
G1 X114.002 Y114.584 E8.1584
G1 X113.366 Y114.979 E8.1833
G1 X112.692 Y115.303 E8.20817
G1 X111.987 Y115.553 E8.23305
G1 X111.259 Y115.727 E8.25795
G1 X110.517 Y115.822 E8.28283
G1 X110 Y115.841 E8.30003
G1 X108.442 Y115.841 E8.35185
G1 X108.366 Y115.888 E8.35483
G1 X107.692 Y116.212 E8.3797
G1 X106.987 Y116.462 E8.40458
G1 X106.259 Y116.636 E8.42947
G1 X105.517 Y116.731 E8.45435
G1 X105 Y116.75 E8.47156
G1 X95 Y116.75 E8.80416
G1 X94.253 Y116.71 E8.82904
G1 X93.515 Y116.591 E8.85391
G1 X92.793 Y116.393 E8.87881
G1 X92.097 Y116.12 E8.90367
G1 X91.565 Y115.841 E8.92365
G1 X89.999 Y115.841 E8.97574
G1 X89.252 Y115.801 E9.00062
G1 X88.513 Y115.681 E9.02552
G1 X87.792 Y115.484 E9.05038
G1 X87.095 Y115.21 E9.07529
G1 X86.432 Y114.864 E9.10016
G1 X85.81 Y114.449 E9.12503
G1 X85.236 Y113.969 E9.14992
G1 X84.716 Y113.432 E9.17478
G1 X84.256 Y112.842 E9.19966
G1 X83.862 Y112.206 E9.22455
G1 X83.538 Y111.531 E9.24945
G1 X83.287 Y110.826 E9.27434
G1 X83.114 Y110.099 E9.2992
G1 X83.019 Y109.357 E9.32408
G1 X83 Y108.841 E9.34125
G1 X83 Y104.599 E9.48234
G1 X83.04 Y103.852 E9.50722
G1 X83.159 Y103.114 E9.53208
G1 X83.357 Y102.392 E9.55699
G1 X83.63 Y101.696 E9.58185
G1 X83.977 Y101.033 E9.60674
G1 X84.392 Y100.41 E9.63164
G1 X84.871 Y99.836 E9.6565
G1 X85.408 Y99.315 E9.68139
G0 F3600 X85.265 Y100.001
G1 F1500 X85.799 Y99.508 E9.70556
G1 X86.384 Y99.078 E9.72971
G1 X87.013 Y98.714 E9.75388
G1 X87.678 Y98.421 E9.77805
G1 X88.371 Y98.203 E9.80221
G1 X89.083 Y98.063 E9.82635
G1 X89.999 Y97.999 E9.85689
G1 X92.649 Y97.999 E9.94503
G1 X92.863 Y97.764 E9.9556
G1 X93.382 Y97.255 E9.97978
G1 X93.872 Y96.864 E10.00063
G1 X94.444 Y96.451 E10.02409
G1 X95.056 Y96.059 E10.04827
G1 X95.633 Y95.769 E10.06974
G1 X96.278 Y95.483 E10.09321
G1 X96.957 Y95.225 E10.11737
G1 X97.591 Y95.058 E10.13918
G1 X98.283 Y94.912 E10.1627
G1 X99 Y94.802 E10.18683
G1 X99.617 Y94.77 E10.20737
G1 X100.315 Y94.767 E10.23059
G1 X101.04 Y94.804 E10.25474
G1 X101.688 Y94.905 E10.27655
G1 X102.38 Y95.049 E10.30006
G1 X103.082 Y95.236 E10.32422
G1 X103.687 Y95.467 E10.34576
G1 X104.332 Y95.75 E10.36919
G1 X104.98 Y96.078 E10.39334
G1 X105.526 Y96.43 E10.41495
G1 X106.095 Y96.838 E10.43824
G1 X106.661 Y97.293 E10.46239
G1 X107.104 Y97.731 E10.48311
G1 X107.35 Y97.999 E10.49521
G1 X110.001 Y97.999 E10.58338
G1 X110.726 Y98.039 E10.60753
G1 X111.443 Y98.159 E10.63171
G1 X112.142 Y98.356 E10.65587
G1 X112.815 Y98.629 E10.68002
G1 X113.454 Y98.975 E10.70419
G1 X114.051 Y99.388 E10.72834
G1 X114.599 Y99.865 E10.7525
G1 X115.091 Y100.399 E10.77665
G1 X115.522 Y100.984 E10.80082
G1 X115.886 Y101.613 E10.82499
G1 X116.178 Y102.277 E10.84912
G1 X116.396 Y102.97 E10.87328
G1 X116.536 Y103.683 E10.89745
G1 X116.6 Y104.599 E10.92799
G1 X116.6 Y108.841 E11.06908
G1 X116.56 Y109.566 E11.09323
G1 X116.441 Y110.283 E11.1174
G1 X116.243 Y110.982 E11.14156
G1 X115.97 Y111.655 E11.16572
G1 X115.625 Y112.294 E11.18987
G1 X115.211 Y112.891 E11.21404
G1 X114.735 Y113.439 E11.23818
G1 X114.201 Y113.932 E11.26235
G1 X113.616 Y114.362 E11.2865
G1 X112.987 Y114.726 E11.31067
G1 X112.322 Y115.019 E11.33484
G1 X111.629 Y115.237 E11.359
G1 X110.917 Y115.377 E11.38314
G1 X110 Y115.441 E11.41371
G1 X108.322 Y115.441 E11.46952
G1 X107.987 Y115.635 E11.4824
G1 X107.322 Y115.928 E11.50657
G1 X106.629 Y116.146 E11.53073
G1 X105.917 Y116.286 E11.55486
G1 X105 Y116.35 E11.58544
G1 X95 Y116.35 E11.91804
G1 X94.275 Y116.31 E11.94219
G1 X93.558 Y116.191 E11.96636
G1 X92.859 Y115.993 E11.99053
G1 X92.186 Y115.72 E12.01468
G1 X91.67 Y115.441 E12.03419
G1 X89.999 Y115.441 E12.08977
G1 X89.273 Y115.401 E12.11395
G1 X88.557 Y115.281 E12.1381
G1 X87.858 Y115.084 E12.16225
G1 X87.185 Y114.811 E12.18641
G1 X86.546 Y114.465 E12.21058
G1 X85.949 Y114.051 E12.23474
G1 X85.401 Y113.575 E12.25888
G1 X84.909 Y113.041 E12.28303
G1 X84.478 Y112.456 E12.3072
G1 X84.114 Y111.827 E12.33137
G1 X83.822 Y111.162 E12.35553
G1 X83.604 Y110.469 E12.37969
G1 X83.464 Y109.757 E12.40383
G1 X83.4 Y108.841 E12.43437
G1 X83.4 Y104.599 E12.57546
G1 X83.44 Y103.874 E12.59961
G1 X83.559 Y103.157 E12.62378
G1 X83.757 Y102.458 E12.64795
G1 X84.03 Y101.785 E12.6721
G1 X84.375 Y101.146 E12.69625
G1 X84.789 Y100.549 E12.72042
G1 X85.265 Y100.001 E12.74456
G0 F3600 X85.659 Y100.172
G1 F1500 X86.189 Y99.708 E12.76799
G1 X86.768 Y99.308 E12.79139
G1 X87.389 Y98.976 E12.81482
G1 X88.043 Y98.716 E12.83822
G1 X88.723 Y98.532 E12.86165
G1 X89.419 Y98.426 E12.88507
G1 X89.999 Y98.399 E12.90438
G1 X92.824 Y98.399 E12.99834
G1 X93.158 Y98.033 E13.01482
G1 X93.662 Y97.542 E13.03822
G1 X94.107 Y97.188 E13.05714
G1 X94.679 Y96.775 E13.0806
G1 X95.272 Y96.396 E13.10401
G1 X95.795 Y96.134 E13.12347
G1 X96.44 Y95.848 E13.14693
G1 X97.099 Y95.6 E13.17035
G1 X97.673 Y95.45 E13.19008
G1 X98.365 Y95.304 E13.21361
G1 X99.061 Y95.198 E13.23702
G1 X99.618 Y95.17 E13.25557
G1 X100.316 Y95.167 E13.27879
G1 X101.019 Y95.204 E13.3022
G1 X101.606 Y95.297 E13.32197
G1 X102.298 Y95.441 E13.34548
G1 X102.978 Y95.623 E13.36889
G1 X103.526 Y95.833 E13.38841
G1 X104.171 Y96.116 E13.41184
G1 X104.799 Y96.435 E13.43527
G1 X105.293 Y96.755 E13.45484
G1 X105.862 Y97.163 E13.47813
G1 X106.41 Y97.605 E13.50155
G1 X106.809 Y98.002 E13.52027
G1 X107.174 Y98.399 E13.5382
G1 X110.001 Y98.399 E13.63223
G1 X110.704 Y98.439 E13.65565
G1 X111.398 Y98.559 E13.67907
G1 X112.073 Y98.756 E13.70246
G1 X112.722 Y99.029 E13.72588
G1 X113.336 Y99.373 E13.74929
G1 X113.907 Y99.785 E13.77271
G1 X114.428 Y100.259 E13.79613
G1 X114.891 Y100.789 E13.81954
G1 X115.292 Y101.368 E13.84297
G1 X115.624 Y101.989 E13.86639
G1 X115.883 Y102.643 E13.88978
G1 X116.067 Y103.323 E13.91321
G1 X116.173 Y104.019 E13.93663
G1 X116.2 Y104.599 E13.95594
G1 X116.2 Y108.841 E14.09703
G1 X116.16 Y109.544 E14.12045
G1 X116.041 Y110.238 E14.14387
G1 X115.843 Y110.913 E14.16727
G1 X115.571 Y111.562 E14.19067
G1 X115.226 Y112.176 E14.2141
G1 X114.815 Y112.747 E14.2375
G1 X114.341 Y113.268 E14.26092
G1 X113.811 Y113.732 E14.28435
G1 X113.232 Y114.132 E14.30776
G1 X112.611 Y114.464 E14.33118
G1 X111.957 Y114.724 E14.35459
G1 X111.277 Y114.908 E14.37802
G1 X110.581 Y115.014 E14.40143
G1 X110 Y115.041 E14.42078
G1 X108.232 Y115.041 E14.47958
G1 X107.611 Y115.373 E14.503
G1 X106.957 Y115.633 E14.52641
G1 X106.277 Y115.817 E14.54984
G1 X105.581 Y115.923 E14.57326
G1 X105 Y115.95 E14.5926
G1 X95 Y115.95 E14.9252
G1 X94.297 Y115.91 E14.94862
G1 X93.603 Y115.791 E14.97204
G1 X92.928 Y115.593 E14.99544
G1 X92.279 Y115.321 E15.01884
G1 X91.781 Y115.041 E15.03785
G1 X89.999 Y115.041 E15.09712
G1 X89.296 Y115.001 E15.12054
G1 X88.602 Y114.881 E15.14396
G1 X87.926 Y114.684 E15.16738
G1 X87.277 Y114.411 E15.1908
G1 X86.663 Y114.067 E15.21421
G1 X86.093 Y113.655 E15.2376
G1 X85.572 Y113.181 E15.26103
G1 X85.109 Y112.651 E15.28443
G1 X84.708 Y112.072 E15.30786
G1 X84.376 Y111.451 E15.33128
G1 X84.117 Y110.797 E15.35467
G1 X83.933 Y110.117 E15.3781
G1 X83.827 Y109.421 E15.40152
G1 X83.8 Y108.841 E15.42083
G1 X83.8 Y104.599 E15.56192
G1 X83.84 Y103.896 E15.58534
G1 X83.959 Y103.202 E15.60876
G1 X84.157 Y102.527 E15.63216
G1 X84.429 Y101.878 E15.65556
G1 X84.774 Y101.264 E15.67899
G1 X85.185 Y100.693 E15.70239
G1 X85.659 Y100.172 E15.72581
G0 F3600 X86.053 Y100.35
G1 F1500 X86.578 Y99.916 E15.74847
G1 X87.15 Y99.547 E15.77111
G1 X87.762 Y99.248 E15.79376
G1 X88.404 Y99.023 E15.81639
G1 X89.069 Y98.874 E15.83906
G1 X89.999 Y98.799 E15.87009
G1 X93.001 Y98.799 E15.96994
G1 X93.454 Y98.303 E15.99228
G1 X93.942 Y97.828 E16.01493
G1 X94.341 Y97.513 E16.03184
G1 X94.913 Y97.1 E16.0553
G1 X95.487 Y96.734 E16.07794
G1 X95.957 Y96.5 E16.09541
G1 X96.602 Y96.214 E16.11887
G1 X97.24 Y95.975 E16.14153
G1 X97.756 Y95.841 E16.15926
G1 X98.448 Y95.695 E16.18279
