;FLAVOR:Marlin
;TIME:215
;Filament used: 0.150649m
;Layer height: 0.2
;Generated with Cura_SteamEngine 3.6.0
M140 S60
M105
M190 S60
M104 S200
M105
M109 S200
M82 ;absolute extrusion mode
G21 ;metric values
G90 ;absolute positioning
M82 ;set extruder to absolute mode
M107 ;start with the fan off
G28 X0 Y0 ;move X/Y to min endstops
G28 Z0 ;move Z to min endstops
G1 Z15.0 F120 ;move the platform down 15mm
G92 E0 ;zero the extruded length
G1 F200 E6 ;extrude 6 mm of feed stock
G92 E0 ;zero the extruded length again
G1 F120
M117 Printing...
G92 E0
G1 F2400 E-2.5
;LAYER_COUNT:10
;LAYER:0
M107
G0 F3600 X71.562 Y81.067 Z0.2
;TYPE:SKIRT
G1 F2400 E0
G1 F1500 X71.994 Y80.743 E0.01796
G1 X75.177 Y78.71 E0.14358
G1 X79.777 Y75.582 E0.3286
G1 X81.894 Y74.009 E0.41632
G1 X85.962 Y70.735 E0.59
G1 X86.471 Y70.393 E0.61039
G1 X87.11 Y70.038 E0.63471
G1 X87.597 Y69.813 E0.65255
G1 X88.09 Y69.668 E0.66964
G1 X89.089 Y69.45 E0.70365
G1 X89.62 Y69.375 E0.72149
G1 X89.938 Y69.368 E0.73207
G1 X94.667 Y69.474 E0.88939
G1 X99.682 Y69.368 E1.05623
G1 X99.837 Y69.368 E1.06138
G1 X104.665 Y69.474 E1.222
G1 X109.682 Y69.368 E1.38891
G1 X110.105 Y69.384 E1.40299
G1 X111.138 Y69.484 E1.4375
G1 X111.666 Y69.575 E1.45532
G1 X112.141 Y69.73 E1.47194
G1 X112.823 Y70.006 E1.49641
G1 X113.304 Y70.244 E1.51426
G1 X113.752 Y70.556 E1.53242
G1 X114.586 Y71.238 E1.56825
G1 X114.975 Y71.608 E1.58611
G1 X115.298 Y72.021 E1.60355
G1 X115.704 Y72.627 E1.62781
G1 X116.005 Y73.174 E1.64857
G1 X117.528 Y76.614 E1.7737
G1 X119.988 Y81.543 E1.95692
G1 X122.021 Y85.253 E2.09763
G1 X122.223 Y85.687 E2.11355
G1 X122.925 Y87.506 E2.1784
G1 X125.077 Y92.542 E2.36055
G1 X127.487 Y97.402 E2.54098
G1 X130.94 Y103.353 E2.76982
G1 X130.952 Y103.374 E2.77062
G1 X131.983 Y105.178 E2.83973
G1 X132.213 Y105.662 E2.85755
G1 X132.408 Y106.372 E2.88204
G1 X132.589 Y107.458 E2.91866
G1 X132.638 Y107.992 E2.9365
G1 X132.603 Y108.55 E2.95509
G1 X132.5 Y109.284 E2.97975
G1 X132.386 Y109.808 E2.99758
G1 X132.281 Y110.113 E3.00831
G1 X132.011 Y110.793 E3.03264
G1 X131.832 Y111.176 E3.04671
G1 X128.703 Y116.962 E3.26549
G1 X125.748 Y123.27 E3.49717
G1 X125.485 Y123.738 E3.51503
G1 X125.004 Y124.317 E3.54006
G1 X124.203 Y125.1 E3.57732
G1 X123.793 Y125.446 E3.59516
G1 X123.155 Y125.813 E3.61964
G1 X122.23 Y126.226 E3.65333
G1 X121.725 Y126.408 E3.67119
G1 X121.101 Y126.523 E3.69229
G1 X120.087 Y126.619 E3.72617
G1 X119.655 Y126.634 E3.74055
G1 X115.187 Y126.518 E3.8892
G1 X110.037 Y126.639 E4.06054
G1 X109.804 Y126.637 E4.06829
G1 X107.96 Y126.561 E4.12967
G1 X101.406 Y126.599 E4.34766
G1 X100.057 Y126.638 E4.39255
G1 X99.804 Y126.637 E4.40097
G1 X97.96 Y126.561 E4.46235
G1 X91.406 Y126.599 E4.68034
G1 X90.057 Y126.638 E4.72523
G1 X89.804 Y126.637 E4.73364
G1 X87.96 Y126.561 E4.79503
G1 X81.449 Y126.599 E5.01159
G1 X80.153 Y126.636 E5.05471
G1 X79.68 Y126.618 E5.07045
G1 X78.962 Y126.544 E5.09446
G1 X78.286 Y126.408 E5.11739
G1 X77.874 Y126.283 E5.13171
G1 X77.374 Y126.089 E5.14955
G1 X77.077 Y125.931 E5.16074
G1 X76.177 Y125.395 E5.19558
G1 X75.738 Y125.087 E5.21342
G1 X75.212 Y124.556 E5.23828
G1 X74.514 Y123.687 E5.27535
G1 X74.211 Y123.245 E5.29317
G1 X73.953 Y122.704 E5.31311
G1 X73.665 Y121.941 E5.34023
G1 X73.566 Y121.64 E5.35077
G1 X73 Y119.617 E5.42064
G1 X71.308 Y114.365 E5.60416
G1 X69.838 Y110.469 E5.74266
G1 X69.743 Y110.181 E5.75275
G1 X69.537 Y109.455 E5.77785
G1 X69.429 Y108.929 E5.79571
G1 X69.403 Y108.616 E5.80616
G1 X69.375 Y107.915 E5.82949
G1 X69.382 Y107.503 E5.84319
G1 X69.855 Y101.184 E6.05395
G1 X69.938 Y95.724 E6.23557
G1 X69.711 Y90.238 E6.4182
G1 X69.385 Y86.02 E6.55891
G1 X69.383 Y85.483 E6.57677
G1 X69.448 Y85.017 E6.59242
G1 X69.59 Y84.326 E6.61588
G1 X69.736 Y83.811 E6.63368
G1 X69.869 Y83.496 E6.64506
G1 X70.212 Y82.78 E6.67146
G1 X70.479 Y82.315 E6.6893
G1 X70.713 Y82.007 E6.70216
G1 X71.186 Y81.449 E6.72649
G1 X71.562 Y81.067 E6.74432
G0 F3600 X71.847 Y81.349
G1 F1500 X72.21 Y81.08 E6.75935
G1 X75.396 Y79.046 E6.88507
G1 X79.996 Y75.916 E7.07012
G1 X82.155 Y74.312 E7.15958
G1 X86.213 Y71.047 E7.33281
G1 X86.665 Y70.743 E7.35093
G1 X87.304 Y70.388 E7.37524
G1 X87.764 Y70.178 E7.39206
G1 X88.176 Y70.059 E7.40632
G1 X89.175 Y69.841 E7.44033
G1 X89.676 Y69.772 E7.45715
G1 X89.929 Y69.768 E7.46557
G1 X94.666 Y69.874 E7.62316
G1 X99.69 Y69.768 E7.7903
G1 X99.828 Y69.768 E7.79489
G1 X104.664 Y69.875 E7.95577
G1 X109.69 Y69.768 E8.12298
G1 X110.066 Y69.782 E8.13549
G1 X111.099 Y69.882 E8.17001
G1 X111.597 Y69.97 E8.18683
G1 X111.991 Y70.101 E8.20064
G1 X112.673 Y70.377 E8.22511
G1 X113.126 Y70.603 E8.24195
G1 X113.499 Y70.866 E8.25713
G1 X114.333 Y71.548 E8.29296
G1 X114.698 Y71.898 E8.30978
G1 X114.966 Y72.244 E8.32434
G1 X115.372 Y72.85 E8.3486
G1 X115.639 Y73.336 E8.36704
G1 X117.166 Y76.784 E8.49246
G1 X119.631 Y81.724 E8.67609
G1 X121.67 Y85.445 E8.81721
G1 X121.85 Y85.831 E8.83138
G1 X122.557 Y87.664 E8.89672
G1 X124.709 Y92.698 E9.07881
G1 X127.14 Y97.602 E9.26086
G1 X130.594 Y103.554 E9.48974
G1 X130.604 Y103.572 E9.49043
G1 X131.635 Y105.376 E9.55954
G1 X131.851 Y105.834 E9.57638
G1 X132.013 Y106.438 E9.59718
G1 X132.194 Y107.524 E9.6338
G1 X132.238 Y108.028 E9.65062
G1 X132.207 Y108.495 E9.66619
G1 X132.104 Y109.229 E9.69084
G1 X131.994 Y109.722 E9.70764
G1 X131.909 Y109.965 E9.7162
G1 X131.639 Y110.645 E9.74054
G1 X131.48 Y110.986 E9.75305
G1 X128.35 Y116.775 E9.97194
G1 X125.386 Y123.101 E10.20429
G1 X125.136 Y123.54 E10.22109
G1 X124.725 Y124.031 E10.24239
G1 X123.924 Y124.814 E10.27965
G1 X123.536 Y125.138 E10.29646
G1 X122.992 Y125.448 E10.31728
G1 X122.067 Y125.861 E10.35098
G1 X121.59 Y126.03 E10.36781
G1 X121.064 Y126.125 E10.38559
G1 X120.05 Y126.221 E10.41946
G1 X119.665 Y126.234 E10.43228
G1 X115.188 Y126.118 E10.58123
G1 X110.028 Y126.239 E10.7529
G1 X109.82 Y126.237 E10.75982
G1 X107.974 Y126.16 E10.82127
G1 X101.436 Y126.199 E11.03873
G1 X100.046 Y126.239 E11.08498
G1 X99.82 Y126.237 E11.0925
G1 X97.974 Y126.16 E11.15395
G1 X91.436 Y126.199 E11.37141
G1 X90.046 Y126.239 E11.41766
G1 X89.82 Y126.237 E11.42518
G1 X87.974 Y126.16 E11.48663
G1 X81.434 Y126.199 E11.70415
G1 X80.141 Y126.236 E11.74718
G1 X79.721 Y126.22 E11.76115
G1 X79.003 Y126.146 E11.78516
G1 X78.402 Y126.025 E11.80555
G1 X77.99 Y125.9 E11.81987
G1 X77.519 Y125.716 E11.83669
G1 X77.282 Y125.587 E11.84567
G1 X76.382 Y125.051 E11.88051
G1 X75.969 Y124.759 E11.89733
G1 X75.524 Y124.306 E11.91845
G1 X74.826 Y123.437 E11.95552
G1 X74.542 Y123.019 E11.97233
G1 X74.327 Y122.563 E11.9891
G1 X74.039 Y121.8 E12.01622
G1 X73.951 Y121.532 E12.0256
G1 X73.379 Y119.489 E12.09617
G1 X71.691 Y114.246 E12.27937
G1 X70.212 Y110.328 E12.41865
G1 X70.128 Y110.072 E12.42762
G1 X69.922 Y109.346 E12.45272
G1 X69.803 Y108.6 E12.47784
G1 X69.775 Y107.899 E12.50118
G1 X69.781 Y107.532 E12.51338
G1 X70.254 Y101.203 E12.72447
G1 X70.338 Y95.714 E12.90706
G1 X70.111 Y90.218 E13.09001
G1 X69.784 Y85.989 E13.23109
G1 X69.784 Y85.483 E13.24792
G1 X69.84 Y85.098 E13.26086
G1 X69.982 Y84.407 E13.28432
G1 X70.122 Y83.921 E13.30115
G1 X70.23 Y83.668 E13.31029
G1 X70.573 Y82.952 E13.3367
G1 X70.827 Y82.515 E13.35351
G1 X71.018 Y82.266 E13.36395
G1 X71.491 Y81.708 E13.38828
G1 X71.847 Y81.349 E13.4051
G1 F2400 E10.9051
;MESH:cap_short.stl(17)
G0 F3600 X74.568 Y82.576
G0 X75.107 Y83.74
G0 X76.093 Y83.652
G0 X76.099 Y83.553
;TYPE:WALL-INNER
G1 F2400 E13.4051
G1 F1500 X76.415 Y83.586 E13.41566
G1 X76.688 Y83.649 E13.42498
G1 X76.97 Y83.75 E13.43494
G1 X77.228 Y83.88 E13.44455
G1 X77.351 Y83.957 E13.44938
G1 X77.594 Y84.139 E13.45948
G1 X77.798 Y84.336 E13.46891
G1 X77.901 Y84.453 E13.47409
G1 X78.068 Y84.686 E13.48363
G1 X78.142 Y84.809 E13.4884
G1 X78.269 Y85.073 E13.49815
G1 X78.364 Y85.351 E13.50792
G1 X78.423 Y85.629 E13.51737
G1 X78.44 Y85.773 E13.52219
G1 X78.449 Y85.921 E13.52712
G1 X78.449 Y86.07 E13.53208
G1 X78.423 Y86.36 E13.54176
G1 X78.359 Y86.662 E13.55203
G1 X78.269 Y86.926 E13.56131
G1 X78.142 Y87.191 E13.57108
G1 X77.977 Y87.448 E13.58124
G1 X77.901 Y87.547 E13.58539
G1 X77.686 Y87.778 E13.59589
G1 X77.594 Y87.861 E13.60001
G1 X77.351 Y88.043 E13.61011
G1 X77.228 Y88.12 E13.61493
G1 X77.096 Y88.191 E13.61992
G1 X76.957 Y88.256 E13.62502
G1 X76.83 Y88.306 E13.62956
G1 X76.698 Y88.349 E13.63418
G1 X76.4 Y88.418 E13.64435
G1 X76.265 Y88.436 E13.64888
G1 X75.969 Y88.45 E13.65874
G1 X75.665 Y88.427 E13.66888
G1 X75.384 Y88.371 E13.67841
G1 X75.116 Y88.284 E13.68778
G1 X74.825 Y88.149 E13.69845
G1 X74.72 Y88.089 E13.70247
G1 X74.467 Y87.911 E13.71276
G1 X74.358 Y87.818 E13.71753
G1 X74.157 Y87.613 E13.72708
G1 X74.07 Y87.509 E13.73159
G1 X73.901 Y87.262 E13.74154
G1 X73.754 Y86.978 E13.75218
G1 X73.663 Y86.732 E13.7609
G1 X73.62 Y86.575 E13.76631
G1 X73.587 Y86.419 E13.77162
G1 X73.556 Y86.162 E13.78023
G1 X73.551 Y86.004 E13.78548
G1 X73.567 Y85.714 E13.79514
G1 X73.587 Y85.582 E13.79959
G1 X73.662 Y85.272 E13.81019
G1 X73.762 Y85.005 E13.81968
G1 X73.899 Y84.742 E13.82954
G1 X74.07 Y84.492 E13.83961
G1 X74.259 Y84.278 E13.84911
G1 X74.467 Y84.089 E13.85846
G1 X74.719 Y83.912 E13.8687
G1 X74.829 Y83.848 E13.87293
G1 X75.1 Y83.722 E13.88287
G1 X75.391 Y83.627 E13.89305
G1 X75.533 Y83.595 E13.8979
G1 X75.662 Y83.574 E13.90224
G1 X75.96 Y83.55 E13.91219
G1 X76.099 Y83.553 E13.91681
G0 F3600 X76.093 Y83.652
G0 X75.678 Y88.328
G0 X75.615 Y88.824
;TYPE:WALL-OUTER
G1 F1500 X75.456 Y88.798 E13.92217
G1 X75.281 Y88.758 E13.92814
G1 X74.968 Y88.656 E13.93909
G1 X74.639 Y88.504 E13.95114
G1 X74.508 Y88.428 E13.95618
G1 X74.219 Y88.225 E13.96793
G1 X74.099 Y88.123 E13.97316
G1 X73.967 Y87.996 E13.97926
G1 X73.855 Y87.876 E13.98472
G1 X73.748 Y87.747 E13.99029
G1 X73.643 Y87.601 E13.99627
G1 X73.557 Y87.466 E14.0016
G1 X73.474 Y87.317 E14.00727
G1 X73.394 Y87.153 E14.01334
G1 X73.33 Y86.996 E14.01898
G1 X73.279 Y86.845 E14.02428
G1 X73.234 Y86.681 E14.02993
G1 X73.196 Y86.503 E14.03599
G1 X73.17 Y86.333 E14.04171
G1 X73.156 Y86.175 E14.04698
G1 X73.151 Y86.005 E14.05264
G1 X73.156 Y85.823 E14.0587
G1 X73.17 Y85.667 E14.06391
G1 X73.196 Y85.497 E14.06963
G1 X73.279 Y85.154 E14.08136
G1 X73.394 Y84.847 E14.09227
G1 X73.474 Y84.683 E14.09834
G1 X73.557 Y84.533 E14.10404
G1 X73.75 Y84.251 E14.1154
G1 X73.858 Y84.12 E14.12105
G1 X73.967 Y84.004 E14.12634
G1 X74.099 Y83.877 E14.13244
G1 X74.219 Y83.775 E14.13768
G1 X74.356 Y83.673 E14.14336
G1 X74.508 Y83.572 E14.14943
G1 X74.648 Y83.491 E14.15481
G1 X74.798 Y83.417 E14.16037
G1 X74.965 Y83.345 E14.16642
G1 X75.119 Y83.29 E14.17186
G1 X75.281 Y83.242 E14.17748
G1 X75.456 Y83.202 E14.18345
G1 X75.612 Y83.177 E14.1887
G1 X75.786 Y83.159 E14.19452
G1 X75.962 Y83.15 E14.20038
G1 X76.125 Y83.153 E14.2058
G1 X76.475 Y83.19 E14.21751
G1 X76.629 Y83.22 E14.22273
G1 X76.801 Y83.265 E14.22864
G1 X77.127 Y83.382 E14.24016
G1 X77.27 Y83.448 E14.2454
G1 X77.431 Y83.535 E14.25149
G1 X77.576 Y83.625 E14.25716
G1 X77.849 Y83.83 E14.26852
G1 X77.965 Y83.935 E14.27372
G1 X78.093 Y84.065 E14.27979
G1 X78.207 Y84.195 E14.28554
G1 X78.303 Y84.32 E14.29078
G1 X78.399 Y84.461 E14.29646
G1 X78.493 Y84.618 E14.30254
G1 X78.571 Y84.769 E14.30819
G1 X78.64 Y84.924 E14.31384
G1 X78.696 Y85.073 E14.31913
G1 X78.75 Y85.248 E14.32522
G1 X78.787 Y85.402 E14.33049
G1 X78.818 Y85.568 E14.33611
G1 X78.838 Y85.739 E14.34183
G1 X78.849 Y85.921 E14.3479
G1 X78.849 Y86.084 E14.35332
G1 X78.819 Y86.42 E14.36454
G1 X78.746 Y86.766 E14.3763
G1 X78.64 Y87.076 E14.3872
G1 X78.571 Y87.231 E14.39284
G1 X78.493 Y87.382 E14.39849
G1 X78.399 Y87.539 E14.40458
G1 X78.303 Y87.68 E14.41025
G1 X78.207 Y87.805 E14.41549
G1 X78.093 Y87.935 E14.42125
G1 X77.965 Y88.065 E14.42731
G1 X77.849 Y88.17 E14.43252
G1 X77.576 Y88.375 E14.44387
G1 X77.431 Y88.465 E14.44955
G1 X77.27 Y88.552 E14.45564
G1 X77.126 Y88.619 E14.46092
G1 X76.963 Y88.683 E14.46674
G1 X76.806 Y88.734 E14.47223
G1 X76.629 Y88.78 E14.47832
G1 X76.468 Y88.812 E14.48378
G1 X76.296 Y88.835 E14.48955
G1 X76.135 Y88.847 E14.49492
G1 X75.956 Y88.85 E14.50087
G1 X75.615 Y88.824 E14.51225
G0 F3600 X75.456 Y88.798
G0 X75.418 Y88.79
G0 X75.487 Y87.994
;TYPE:SKIN
G1 F1500 X75.254 Y87.919 E14.52039
G1 X75.01 Y87.806 E14.52933
G1 X74.938 Y87.764 E14.5321
G1 X74.701 Y87.599 E14.54171
G1 X74.621 Y87.529 E14.54524
G1 X74.442 Y87.347 E14.55373
G1 X74.39 Y87.284 E14.55645
G1 X74.237 Y87.061 E14.56545
G1 X74.11 Y86.817 E14.57459
G1 X74.033 Y86.61 E14.58194
G1 X73.974 Y86.361 E14.59045
G1 X73.944 Y86.115 E14.59869
G1 X73.941 Y86.019 E14.60189
G1 X73.955 Y85.753 E14.61075
G1 X73.971 Y85.651 E14.61418
G1 X74.036 Y85.385 E14.62329
G1 X74.118 Y85.165 E14.6311
G1 X74.232 Y84.946 E14.63931
G1 X74.383 Y84.727 E14.64816
G1 X74.538 Y84.549 E14.65601
G1 X74.708 Y84.396 E14.66361
G1 X74.923 Y84.245 E14.67235
G1 X75.021 Y84.188 E14.67612
G1 X75.235 Y84.088 E14.68398
G1 X75.501 Y84.002 E14.69328
G1 X75.708 Y83.96 E14.7003
G1 X75.963 Y83.94 E14.70881
G1 X76.074 Y83.943 E14.7125
G1 X76.354 Y83.972 E14.72187
G1 X76.577 Y84.023 E14.72948
G1 X76.813 Y84.108 E14.73782
G1 X77.037 Y84.221 E14.74616
G1 X77.134 Y84.282 E14.74997
G1 X77.338 Y84.435 E14.75846
G1 X77.527 Y84.617 E14.76718
G1 X77.59 Y84.689 E14.77036
G1 X77.742 Y84.901 E14.77904
G1 X77.797 Y84.993 E14.78261
G1 X77.908 Y85.221 E14.79104
G1 X77.985 Y85.449 E14.79904
G1 X78.037 Y85.693 E14.80734
G1 X78.059 Y85.945 E14.81576
G1 X78.059 Y86.057 E14.81948
G1 X78.037 Y86.296 E14.82746
G1 X77.981 Y86.562 E14.8365
G1 X77.906 Y86.784 E14.8443
G1 X77.804 Y86.995 E14.85209
G1 X77.663 Y87.215 E14.86078
G1 X77.591 Y87.309 E14.86472
G1 X77.415 Y87.499 E14.87334
G1 X77.352 Y87.555 E14.87614
G1 X77.134 Y87.718 E14.88519
G1 X76.926 Y87.84 E14.89321
G1 X76.695 Y87.94 E14.90159
G1 X76.595 Y87.972 E14.90508
G1 X76.323 Y88.036 E14.91437
G1 X76.243 Y88.046 E14.91705
G1 X75.965 Y88.06 E14.92631
G1 X75.72 Y88.041 E14.93448
G1 X75.487 Y87.994 E14.94239
G0 F3600 X75.98 Y86.052
G1 F1500 X75.972 Y86.048 E14.94269
G1 X75.966 Y86.044 E14.94293
G1 X75.961 Y86.038 E14.94319
G1 X75.949 Y86.02 E14.94391
G1 X75.945 Y85.999 E14.94462
G1 X75.95 Y85.978 E14.94534
G1 X75.964 Y85.957 E14.94618
G1 X75.975 Y85.949 E14.94663
G1 X75.983 Y85.947 E14.9469
G1 X76.024 Y85.951 E14.94827
G1 X76.032 Y85.955 E14.94857
G1 X76.04 Y85.962 E14.94892
G1 X76.046 Y85.967 E14.94918
G1 X76.051 Y85.978 E14.94958
G1 X76.056 Y85.999 E14.9503
G1 X76.051 Y86.021 E14.95105
G1 X76.039 Y86.04 E14.9518
G1 X76.038 Y86.041 E14.95185
G1 X76.033 Y86.045 E14.95206
G1 X76.031 Y86.046 E14.95213
G1 X76.015 Y86.053 E14.95272
G1 X76 Y86.056 E14.95322
G1 X75.98 Y86.052 E14.9539
G0 F3600 X75.832 Y86.424
G1 F1500 X75.775 Y86.398 E14.95599
G1 X75.704 Y86.348 E14.95887
G1 X75.654 Y86.297 E14.96125
G1 X75.602 Y86.221 E14.96431
G1 X75.574 Y86.168 E14.96631
G1 X75.571 Y86.16 E14.96659
G1 X75.548 Y86.059 E14.97004
G1 X75.543 Y86.009 E14.97171
G1 X75.547 Y85.943 E14.97391
G1 X75.569 Y85.85 E14.97709
G1 X75.58 Y85.82 E14.97815
G1 X75.606 Y85.771 E14.97999
G1 X75.652 Y85.705 E14.98267
G1 X75.679 Y85.673 E14.98406
G1 X75.708 Y85.648 E14.98533
G1 X75.768 Y85.606 E14.98777
G1 X75.778 Y85.6 E14.98816
G1 X75.824 Y85.578 E14.98985
G1 X75.9 Y85.554 E14.99251
G1 X75.935 Y85.547 E14.99369
G1 X75.979 Y85.544 E14.99516
G1 X76.094 Y85.556 E14.99901
G1 X76.136 Y85.565 E15.00043
G1 X76.173 Y85.578 E15.00174
G1 X76.242 Y85.613 E15.00431
G1 X76.299 Y85.656 E15.00669
G1 X76.352 Y85.707 E15.00913
G1 X76.389 Y85.758 E15.01123
G1 X76.431 Y85.845 E15.01444
G1 X76.435 Y85.857 E15.01486
G1 X76.454 Y85.949 E15.01799
G1 X76.459 Y85.995 E15.01953
G1 X76.454 Y86.049 E15.02133
G1 X76.434 Y86.146 E15.02462
G1 X76.425 Y86.173 E15.02557
G1 X76.41 Y86.203 E15.02669
G1 X76.357 Y86.285 E15.02993
G1 X76.31 Y86.337 E15.03226
G1 X76.252 Y86.38 E15.03467
G1 X76.207 Y86.406 E15.03639
G1 X76.146 Y86.433 E15.03861
G1 X76.057 Y86.454 E15.04165
G1 X75.987 Y86.457 E15.04398
G1 X75.949 Y86.454 E15.04525
G1 X75.881 Y86.44 E15.04756
G1 X75.832 Y86.424 E15.04928
G0 F3600 X75.689 Y86.799
G1 F1500 X75.583 Y86.75 E15.05316
G1 X75.572 Y86.744 E15.05358
G1 X75.446 Y86.656 E15.05869
G1 X75.442 Y86.653 E15.05885
G1 X75.344 Y86.552 E15.06354
G1 X75.261 Y86.432 E15.06839
G1 X75.207 Y86.329 E15.07226
G1 X75.188 Y86.278 E15.07407
G1 X75.154 Y86.128 E15.07918
