;FLAVOR:Marlin
;TIME:2872
;Filament used: 2.15835m
;Layer height: 0.15
;Generated with Cura_SteamEngine 3.6.0
M140 S60
M105
M190 S60
M104 S200
M105
M109 S200
M82 ;absolute extrusion mode
G21 ;metric values
G90 ;absolute positioning
M82 ;set extruder to absolute mode
M107 ;start with the fan off
G28 X0 Y0 ;move X/Y to min endstops
G28 Z0 ;move Z to min endstops
G1 Z15.0 F120 ;move the platform down 15mm
G92 E0 ;zero the extruded length
G1 F200 E6 ;extrude 6 mm of feed stock
G92 E0 ;zero the extruded length again
G1 F120
M117 Printing...
G92 E0
G1 F2400 E-2.5
;LAYER_COUNT:40
;LAYER:0
M107
G0 F3600 X68.808 Y70.774 Z0.2
;TYPE:SKIRT
G1 F2400 E0
G1 F1500 X69.673 Y69.979 E0.03908
G1 X70.001 Y69.712 E0.05314
G1 X70.949 Y69.027 E0.09204
G1 X71.433 Y68.732 E0.1109
G1 X73.204 Y67.837 E0.17689
G1 X73.844 Y67.587 E0.19975
G1 X75.583 Y67.093 E0.25987
G1 X76.103 Y66.986 E0.27753
G1 X77.18 Y66.846 E0.31365
G1 X77.598 Y66.816 E0.32759
G1 X78.844 Y66.8 E0.36904
G1 X79.391 Y66.835 E0.38727
G1 X81.185 Y67.087 E0.44752
G1 X81.725 Y67.206 E0.46591
G1 X82.897 Y67.56 E0.50663
G1 X83.306 Y67.711 E0.52114
G1 X84.399 Y68.192 E0.56085
G1 X84.761 Y68.376 E0.57436
G1 X89.592 Y71.191 E0.76033
G1 X94.439 Y73.695 E0.94178
G1 X96.88 Y74.828 E1.03129
G1 X101.945 Y76.922 E1.21358
G1 X107.091 Y78.718 E1.39486
G1 X112.392 Y80.235 E1.57825
G1 X115.866 Y81.104 E1.69736
G1 X116.151 Y81.187 E1.70723
G1 X118.149 Y81.866 E1.77742
G1 X118.503 Y82.008 E1.7901
G1 X121.003 Y83.165 E1.88173
G1 X121.388 Y83.373 E1.89628
G1 X123.768 Y84.849 E1.98943
G1 X124.123 Y85.099 E2.00387
G1 X126.276 Y86.825 E2.09565
G1 X126.561 Y87.08 E2.10837
G1 X128.057 Y88.566 E2.1785
G1 X128.311 Y88.846 E2.19107
G1 X130.028 Y90.954 E2.2815
G1 X130.272 Y91.292 E2.29536
G1 X131.708 Y93.543 E2.38417
G1 X131.893 Y93.868 E2.39661
G1 X132.793 Y95.667 E2.46351
G1 X132.941 Y96.006 E2.47582
G1 X133.915 Y98.585 E2.56751
G1 X134.033 Y98.958 E2.58052
G1 X134.581 Y101.083 E2.65351
G1 X134.657 Y101.458 E2.66624
G1 X135.056 Y104.169 E2.75738
G1 X135.09 Y104.527 E2.76934
G1 X135.176 Y106.385 E2.8312
G1 X135.174 Y106.753 E2.84344
G1 X135.016 Y109.568 E2.93721
G1 X134.975 Y109.948 E2.94993
G1 X134.65 Y111.932 E3.01679
G1 X134.566 Y112.311 E3.02971
G1 X133.763 Y115.21 E3.12976
G1 X133.614 Y115.642 E3.14496
G1 X132.569 Y118.133 E3.2348
G1 X132.418 Y118.448 E3.24642
G1 X131.464 Y120.218 E3.3133
G1 X131.328 Y120.449 E3.32221
G1 X130.637 Y121.53 E3.36489
G1 X130.482 Y121.754 E3.37395
G1 X129.258 Y123.383 E3.44172
G1 X129.032 Y123.655 E3.45348
G1 X127.206 Y125.644 E3.54328
G1 X126.969 Y125.879 E3.55438
G1 X125.931 Y126.818 E3.60094
G1 X125.668 Y127.034 E3.61226
G1 X123.232 Y128.85 E3.71332
G1 X122.873 Y129.086 E3.72761
G1 X120.758 Y130.301 E3.80873
G1 X120.385 Y130.487 E3.82259
G1 X117.755 Y131.616 E3.91779
G1 X117.434 Y131.736 E3.92919
G1 X116.034 Y132.185 E3.97809
G1 X115.82 Y132.247 E3.9855
G1 X114.44 Y132.597 E4.03285
G1 X114.128 Y132.661 E4.04344
G1 X111.505 Y133.084 E4.13181
G1 X111.098 Y133.126 E4.14542
G1 X108.519 Y133.245 E4.23129
G1 X108.171 Y133.244 E4.24286
G1 X106.431 Y133.156 E4.30081
G1 X106.157 Y133.132 E4.30996
G1 X104.294 Y132.894 E4.37243
G1 X104.003 Y132.845 E4.38224
G1 X102.071 Y132.435 E4.44793
G1 X101.781 Y132.36 E4.45789
G1 X100.289 Y131.911 E4.50972
G1 X100.051 Y131.831 E4.51807
G1 X98.218 Y131.137 E4.58326
G1 X97.894 Y130.995 E4.59502
G1 X95.746 Y129.93 E4.67476
G1 X95.418 Y129.746 E4.68727
G1 X93.329 Y128.422 E4.76953
G1 X93.009 Y128.194 E4.7826
G1 X91.069 Y126.644 E4.86519
G1 X90.807 Y126.413 E4.87681
G1 X89.358 Y125.005 E4.94401
G1 X89.131 Y124.762 E4.95507
G1 X87.687 Y123.073 E5.02898
G1 X87.489 Y122.819 E5.03969
G1 X86.44 Y121.343 E5.09992
G1 X86.247 Y121.041 E5.11184
G1 X84.821 Y118.54 E5.20759
G1 X84.628 Y118.15 E5.22206
G1 X83.43 Y115.294 E5.32507
G1 X80.66 Y108.898 E5.5569
G1 X78.179 Y104.05 E5.73803
G1 X75.419 Y99.335 E5.91975
G1 X72.415 Y94.811 E6.10036
G1 X67.12 Y87.819 E6.39208
G1 X66.775 Y87.267 E6.41373
G1 X65.918 Y85.567 E6.47705
G1 X65.701 Y85.034 E6.49619
G1 X65.319 Y83.829 E6.53824
G1 X65.212 Y83.4 E6.55294
G1 X64.992 Y82.219 E6.5929
G1 X64.938 Y81.785 E6.60744
G1 X64.86 Y80.542 E6.64887
G1 X64.859 Y80.103 E6.66347
G1 X64.926 Y78.976 E6.70102
G1 X64.974 Y78.568 E6.71468
G1 X65.176 Y77.417 E6.75355
G1 X65.27 Y77.018 E6.76718
G1 X65.581 Y75.967 E6.80364
G1 X65.773 Y75.46 E6.82167
G1 X66.575 Y73.749 E6.88452
G1 X66.856 Y73.255 E6.90342
G1 X67.555 Y72.225 E6.94482
G1 X67.81 Y71.894 E6.95872
G1 X68.52 Y71.072 E6.99485
G1 X68.808 Y70.774 E7.00863
G0 F3600 X69.079 Y71.069
G1 F1500 X69.944 Y70.274 E7.04771
G1 X70.235 Y70.036 E7.06021
G1 X71.183 Y69.351 E7.09911
G1 X71.614 Y69.089 E7.11589
G1 X73.385 Y68.194 E7.18189
G1 X73.954 Y67.972 E7.2022
G1 X75.693 Y67.478 E7.26233
G1 X76.155 Y67.383 E7.27802
G1 X77.232 Y67.243 E7.31414
G1 X77.603 Y67.216 E7.32651
G1 X78.849 Y67.2 E7.36796
G1 X79.335 Y67.231 E7.38415
G1 X81.129 Y67.483 E7.44441
G1 X81.609 Y67.589 E7.46076
G1 X82.781 Y67.943 E7.50148
G1 X83.145 Y68.077 E7.51438
G1 X84.238 Y68.558 E7.5541
G1 X84.56 Y68.722 E7.56611
G1 X89.387 Y71.534 E7.75192
G1 X94.276 Y74.06 E7.93495
G1 X96.72 Y75.195 E8.02457
G1 X101.809 Y77.299 E8.20773
G1 X106.971 Y79.1 E8.38957
G1 X112.275 Y80.618 E8.57306
G1 X115.769 Y81.492 E8.69285
G1 X116.023 Y81.566 E8.70165
G1 X118.021 Y82.245 E8.77184
G1 X118.335 Y82.371 E8.78309
G1 X120.835 Y83.528 E8.87472
G1 X121.178 Y83.713 E8.88768
G1 X123.558 Y85.189 E8.98082
G1 X123.873 Y85.411 E8.99364
G1 X126.026 Y87.137 E9.08542
G1 X126.279 Y87.364 E9.09673
G1 X127.775 Y88.85 E9.16686
G1 X128.001 Y89.099 E9.17804
G1 X129.718 Y91.207 E9.26847
G1 X129.935 Y91.507 E9.28079
G1 X131.371 Y93.758 E9.36959
G1 X131.535 Y94.047 E9.38064
G1 X132.435 Y95.846 E9.44755
G1 X132.567 Y96.147 E9.45848
G1 X133.541 Y98.726 E9.55017
G1 X133.646 Y99.058 E9.56175
G1 X134.194 Y101.183 E9.63474
G1 X134.261 Y101.516 E9.64604
G1 X134.66 Y104.227 E9.73718
G1 X134.691 Y104.545 E9.74781
G1 X134.777 Y106.403 E9.80967
G1 X134.775 Y106.73 E9.82055
G1 X134.617 Y109.545 E9.91432
G1 X134.58 Y109.883 E9.92563
G1 X134.255 Y111.867 E9.9925
G1 X134.181 Y112.204 E10.00397
G1 X133.378 Y115.103 E10.10403
G1 X133.245 Y115.487 E10.11754
G1 X132.2 Y117.978 E10.20739
G1 X132.066 Y118.258 E10.21771
G1 X131.112 Y120.028 E10.28459
G1 X130.991 Y120.233 E10.29251
G1 X130.3 Y121.314 E10.33518
G1 X130.162 Y121.513 E10.34323
G1 X128.938 Y123.142 E10.411
G1 X128.737 Y123.384 E10.42147
G1 X126.911 Y125.373 E10.51127
G1 X126.701 Y125.582 E10.52113
G1 X125.663 Y126.521 E10.56768
G1 X125.429 Y126.714 E10.57777
G1 X122.993 Y128.53 E10.67883
G1 X122.674 Y128.739 E10.69151
G1 X120.559 Y129.954 E10.77264
G1 X120.227 Y130.12 E10.78498
G1 X117.597 Y131.249 E10.88018
G1 X117.312 Y131.355 E10.89029
G1 X115.912 Y131.804 E10.93919
G1 X115.722 Y131.859 E10.94577
G1 X114.342 Y132.209 E10.99312
G1 X114.064 Y132.266 E11.00256
G1 X111.441 Y132.689 E11.09093
G1 X111.079 Y132.727 E11.10304
G1 X108.5 Y132.846 E11.1889
G1 X108.191 Y132.845 E11.19918
G1 X106.451 Y132.757 E11.25713
G1 X106.207 Y132.735 E11.26528
G1 X104.344 Y132.497 E11.32774
G1 X104.086 Y132.453 E11.33645
G1 X102.154 Y132.043 E11.40214
G1 X101.896 Y131.977 E11.411
G1 X100.404 Y131.528 E11.46282
G1 X100.193 Y131.457 E11.47022
G1 X98.36 Y130.763 E11.53541
G1 X98.072 Y130.637 E11.54587
G1 X95.924 Y129.572 E11.62561
G1 X95.632 Y129.408 E11.63675
G1 X93.543 Y128.084 E11.71901
G1 X93.259 Y127.881 E11.73062
G1 X91.319 Y126.331 E11.81321
G1 X91.086 Y126.126 E11.82353
G1 X89.637 Y124.718 E11.89073
G1 X89.435 Y124.502 E11.90057
G1 X87.991 Y122.813 E11.97448
G1 X87.815 Y122.588 E11.98398
G1 X86.766 Y121.112 E12.0442
G1 X86.594 Y120.843 E12.05482
G1 X85.168 Y118.342 E12.15058
G1 X84.997 Y117.995 E12.16345
G1 X83.799 Y115.139 E12.26646
G1 X81.023 Y108.729 E12.49879
G1 X78.53 Y103.859 E12.68075
G1 X75.76 Y99.125 E12.86318
G1 X72.74 Y94.577 E13.04476
G1 X67.439 Y87.578 E13.33678
G1 X67.133 Y87.086 E13.35605
G1 X66.276 Y85.386 E13.41937
G1 X66.083 Y84.913 E13.43636
G1 X65.701 Y83.708 E13.47841
G1 X65.605 Y83.327 E13.49148
G1 X65.385 Y82.146 E13.53143
G1 X65.337 Y81.76 E13.54437
G1 X65.259 Y80.517 E13.58579
G1 X65.259 Y80.127 E13.59876
G1 X65.326 Y79 E13.63631
G1 X65.368 Y78.637 E13.64847
G1 X65.57 Y77.486 E13.68734
G1 X65.654 Y77.131 E13.69947
G1 X65.965 Y76.08 E13.73592
G1 X66.136 Y75.63 E13.75193
G1 X66.938 Y73.919 E13.81478
G1 X67.187 Y73.48 E13.83157
G1 X67.886 Y72.45 E13.87297
G1 X68.112 Y72.155 E13.88533
G1 X68.822 Y71.333 E13.92146
G1 X69.079 Y71.069 E13.93371
G1 F2400 E11.43371
;MESH:only_heatshield_docking_port.stl
G0 F3600 X71.055 Y72.713
G0 X71.089 Y72.741
G0 X77.432 Y78.021
G0 X77.466 Y78.049
G0 X77.497 Y78.076
G0 X76.773 Y75.312
G0 X78.803 Y75.453
;TYPE:WALL-INNER
G1 F2400 E13.93371
G1 F1500 X79.172 Y75.496 E13.94607
G1 X79.542 Y75.57 E13.95862
G1 X79.914 Y75.673 E13.97146
G1 X80.277 Y75.808 E13.98434
G1 X80.62 Y75.967 E13.99691
G1 X80.966 Y76.16 E14.01009
G1 X81.278 Y76.368 E14.02256
G1 X81.587 Y76.612 E14.03566
G1 X81.858 Y76.863 E14.04794
G1 X82.136 Y77.164 E14.06157
G1 X82.366 Y77.457 E14.07396
G1 X82.573 Y77.765 E14.0863
G1 X82.769 Y78.114 E14.09962
G1 X82.937 Y78.481 E14.11304
G1 X83.057 Y78.807 E14.12459
G1 X83.168 Y79.196 E14.13805
G1 X83.241 Y79.562 E14.15046
G1 X83.285 Y79.943 E14.16322
G1 X83.3 Y80.334 E14.17623
G1 X83.285 Y80.726 E14.18928
G1 X83.241 Y81.108 E14.20207
G1 X83.168 Y81.471 E14.21439
G1 X83.059 Y81.855 E14.22766
G1 X82.937 Y82.188 E14.23946
G1 X82.771 Y82.55 E14.2527
G1 X82.574 Y82.902 E14.26612
G1 X82.366 Y83.212 E14.27854
G1 X82.137 Y83.504 E14.29088
G1 X81.858 Y83.806 E14.30455
G1 X81.591 Y84.054 E14.31667
G1 X81.27 Y84.306 E14.33025
G1 X80.97 Y84.507 E14.34226
G1 X80.62 Y84.702 E14.35558
G1 X80.277 Y84.861 E14.36816
G1 X79.914 Y84.996 E14.38104
G1 X79.542 Y85.099 E14.39388
G1 X79.172 Y85.173 E14.40643
G1 X78.802 Y85.216 E14.41882
G1 X78.402 Y85.232 E14.43213
G1 X78.002 Y85.216 E14.44545
G1 X77.632 Y85.173 E14.45783
G1 X77.263 Y85.099 E14.47035
G1 X76.894 Y84.997 E14.48309
G1 X76.524 Y84.859 E14.49622
G1 X76.185 Y84.702 E14.50865
G1 X75.835 Y84.507 E14.52197
G1 X75.535 Y84.306 E14.53398
G1 X75.214 Y84.054 E14.54756
G1 X74.939 Y83.798 E14.56005
G1 X74.675 Y83.513 E14.57297
G1 X74.438 Y83.212 E14.58571
G1 X74.219 Y82.886 E14.59878
G1 X74.043 Y82.571 E14.61078
G1 X73.867 Y82.188 E14.6248
G1 X73.746 Y81.858 E14.63649
G1 X73.637 Y81.476 E14.6497
G1 X73.564 Y81.104 E14.66231
G1 X73.519 Y80.721 E14.67514
G1 X73.504 Y80.334 E14.68802
G1 X73.519 Y79.945 E14.70096
G1 X73.564 Y79.558 E14.71392
G1 X73.637 Y79.194 E14.72627
G1 X73.747 Y78.807 E14.73965
G1 X73.867 Y78.481 E14.75121
G1 X74.043 Y78.098 E14.76523
G1 X74.22 Y77.781 E14.7773
G1 X74.438 Y77.457 E14.79029
G1 X74.676 Y77.155 E14.80308
G1 X74.939 Y76.871 E14.81595
G1 X75.218 Y76.612 E14.82861
G1 X75.527 Y76.368 E14.84171
G1 X75.839 Y76.16 E14.85418
G1 X76.185 Y75.967 E14.86736
G1 X76.524 Y75.81 E14.87978
G1 X76.894 Y75.672 E14.89292
G1 X77.263 Y75.57 E14.90565
G1 X77.632 Y75.496 E14.91817
G1 X78.001 Y75.453 E14.93053
G1 X78.402 Y75.436 E14.94387
G1 X78.803 Y75.453 E14.95722
G0 F3600 X75.969 Y77.495
G0 X75.417 Y78.082
G0 X75.002 Y78.78
G0 X74.747 Y79.546
G0 X74.662 Y80.35
G0 X74.712 Y80.804
G0 X75.147 Y82.831
G1 F1500 X75.438 Y83.167 E14.97201
G1 X75.76 Y83.471 E14.98674
G1 X76.117 Y83.739 E15.00158
G1 X76.497 Y83.965 E15.01629
G1 X76.898 Y84.148 E15.03095
G1 X77.321 Y84.29 E15.04579
G1 X77.757 Y84.385 E15.06063
G1 X78.197 Y84.43 E15.07534
G1 X78.641 Y84.429 E15.09011
G1 X79.082 Y84.379 E15.10487
G1 X79.516 Y84.283 E15.11966
G1 X79.939 Y84.137 E15.13454
G1 X80.34 Y83.948 E15.14928
G1 X80.717 Y83.718 E15.16397
G1 X81.068 Y83.448 E15.1787
G1 X81.39 Y83.143 E15.19345
G1 X81.676 Y82.805 E15.20818
G1 X81.925 Y82.435 E15.22301
G1 X82.133 Y82.039 E15.23789
G1 X82.293 Y81.627 E15.25259
G1 X82.411 Y81.2 E15.26732
G1 X82.482 Y80.76 E15.28215
G1 X82.503 Y80.316 E15.29693
G1 X82.477 Y79.875 E15.31163
G1 X82.404 Y79.436 E15.32643
G1 X82.282 Y79.01 E15.34117
G1 X82.118 Y78.599 E15.35588
G1 X81.907 Y78.205 E15.37075
G1 X81.657 Y77.838 E15.38552
G1 X81.367 Y77.502 E15.40028
G1 X81.044 Y77.198 E15.41503
G1 X80.688 Y76.93 E15.42985
G1 X80.307 Y76.704 E15.44459
G1 X79.908 Y76.521 E15.45919
G1 X79.484 Y76.379 E15.47406
G1 X79.048 Y76.284 E15.4889
G1 X78.607 Y76.239 E15.50365
G1 X78.163 Y76.24 E15.51841
G1 X77.723 Y76.29 E15.53314
G1 X77.289 Y76.386 E15.54793
G1 X76.866 Y76.532 E15.56281
G1 X76.464 Y76.721 E15.57758
G1 X76.088 Y76.95 E15.59223
G1 X75.735 Y77.221 E15.60703
G1 X75.414 Y77.526 E15.62176
G1 X75.128 Y77.864 E15.63648
G1 X74.88 Y78.234 E15.6513
G1 X74.674 Y78.63 E15.66614
G1 X74.511 Y79.042 E15.68088
G1 X74.395 Y79.469 E15.6956
G1 X74.324 Y79.907 E15.71035
G1 X74.301 Y80.352 E15.72518
G1 X74.327 Y80.795 E15.73993
G1 X74.401 Y81.233 E15.75471
G1 X74.521 Y81.661 E15.76949
G1 X74.688 Y82.072 E15.78425
G1 X74.896 Y82.462 E15.79895
G1 X75.147 Y82.831 E15.81379
G0 F3600 X75.465 Y82.587
G1 F1500 X75.727 Y82.89 E15.82712
G1 X76.018 Y83.165 E15.84043
G1 X76.34 Y83.406 E15.85381
G1 X76.683 Y83.61 E15.86708
G1 X77.045 Y83.776 E15.88033
G1 X77.427 Y83.904 E15.89373
G1 X77.82 Y83.989 E15.9071
G1 X78.217 Y84.03 E15.92038
G1 X78.618 Y84.029 E15.93371
G1 X79.016 Y83.984 E15.94704
G1 X79.407 Y83.897 E15.96036
G1 X79.788 Y83.766 E15.97376
G1 X80.15 Y83.595 E15.98707
G1 X80.491 Y83.388 E16.00034
G1 X80.808 Y83.144 E16.01365
G1 X81.099 Y82.868 E16.02699
G1 X81.356 Y82.563 E16.04025
G1 X81.581 Y82.23 E16.05362
G1 X81.768 Y81.873 E16.06702
G1 X81.913 Y81.501 E16.0803
G1 X82.02 Y81.115 E16.09363
G1 X82.083 Y80.719 E16.10696
G1 X82.102 Y80.318 E16.12031
G1 X82.079 Y79.92 E16.13357
G1 X82.013 Y79.524 E16.14693
G1 X81.903 Y79.139 E16.16024
G1 X81.755 Y78.768 E16.17353
G1 X81.565 Y78.413 E16.18692
G1 X81.339 Y78.082 E16.20025
G1 X81.078 Y77.779 E16.21355
G1 X80.786 Y77.504 E16.22689
G1 X80.465 Y77.263 E16.24024
G1 X80.121 Y77.059 E16.25355
G1 X79.76 Y76.893 E16.26676
G1 X79.378 Y76.765 E16.28016
G1 X78.985 Y76.68 E16.29354
G1 X78.587 Y76.639 E16.30684
G1 X78.186 Y76.64 E16.32018
G1 X77.789 Y76.685 E16.33347
G1 X77.398 Y76.772 E16.34679
G1 X77.017 Y76.903 E16.36019
G1 X76.654 Y77.074 E16.37354
G1 X76.314 Y77.281 E16.38678
G1 X75.995 Y77.525 E16.40014
G1 X75.706 Y77.801 E16.41343
G1 X75.448 Y78.106 E16.42671
G1 X75.224 Y78.439 E16.44006
G1 X75.038 Y78.796 E16.45345
G1 X74.891 Y79.168 E16.46675
G1 X74.786 Y79.554 E16.48006
G1 X74.722 Y79.949 E16.49337
G1 X74.702 Y80.35 E16.50672
G1 X74.725 Y80.75 E16.52005
G1 X74.792 Y81.145 E16.53337
G1 X74.9 Y81.531 E16.54671
G1 X75.051 Y81.902 E16.56003
G1 X75.239 Y82.255 E16.57333
G1 X75.465 Y82.587 E16.58669
G0 F3600 X75.386 Y82.647
G0 X74.863 Y81.543
G0 X74.686 Y80.754
G0 X74.683 Y79.945
G0 X74.854 Y79.156
G0 X75.19 Y78.419
G0 X75.677 Y77.774
G0 X78.818 Y75.152
G0 X78.825 Y75.053
G1 F1500 X79.237 Y75.101 E16.60048
G1 X79.631 Y75.18 E16.61385
G1 X80.041 Y75.294 E16.628
G1 X80.432 Y75.439 E16.64187
G1 X80.799 Y75.609 E16.65533
G1 X81.179 Y75.821 E16.6698
G1 X81.512 Y76.043 E16.68311
G1 X81.844 Y76.305 E16.69718
G1 X82.148 Y76.587 E16.71097
G1 X82.43 Y76.892 E16.72478
G1 X82.693 Y77.226 E16.73892
G1 X82.916 Y77.559 E16.75225
G1 X83.127 Y77.935 E16.76659
G1 X83.301 Y78.314 E16.78046
G1 X83.442 Y78.697 E16.79404
G1 X83.555 Y79.093 E16.80774
G1 X83.636 Y79.499 E16.82151
G1 X83.685 Y79.92 E16.8356
G1 X83.701 Y80.334 E16.84938
G1 X83.685 Y80.749 E16.8632
G1 X83.636 Y81.171 E16.87733
G1 X83.556 Y81.571 E16.89089
G1 X83.442 Y81.972 E16.90476
G1 X83.301 Y82.355 E16.91833
G1 X83.128 Y82.732 E16.93213
G1 X82.916 Y83.11 E16.94654
G1 X82.693 Y83.443 E16.95987
G1 X82.431 Y83.776 E16.97397
G1 X82.148 Y84.082 E16.98783
G1 X81.847 Y84.362 E17.0015
G1 X81.509 Y84.627 E17.01579
G1 X81.181 Y84.847 E17.02892
G1 X80.799 Y85.06 E17.04347
G1 X80.432 Y85.23 E17.05692
G1 X80.041 Y85.375 E17.07079
G1 X79.631 Y85.489 E17.08495
G1 X79.237 Y85.568 E17.09831
G1 X78.824 Y85.616 E17.11214
G1 X78.402 Y85.633 E17.12619
G1 X77.98 Y85.616 E17.14024
G1 X77.567 Y85.568 E17.15406
G1 X77.174 Y85.489 E17.1674
G1 X76.767 Y85.376 E17.18145
G1 X76.369 Y85.228 E17.19557
G1 X76.006 Y85.06 E17.20887
G1 X75.624 Y84.847 E17.22342
G1 X75.296 Y84.627 E17.23656
G1 X74.958 Y84.362 E17.25084
