;FLAVOR:Marlin
;TIME:2183
;Filament used: 1.63138m
;Layer height: 0.15
;Generated with Cura_SteamEngine 3.6.0
M140 S65
M105
M190 S65
M104 S205
M105
M109 S205
M82 ;absolute extrusion mode
G21 ;metric values
G90 ;absolute positioning
M82 ;set extruder to absolute mode
M107 ;start with the fan off
G28 X0 Y0 ;move X/Y to min endstops
G28 Z0 ;move Z to min endstops
G1 Z15.0 F80 ;move the platform down 15mm
G92 E0 ;zero the extruded length
G1 F200 E6 ;extrude 6 mm of feed stock
G92 E0 ;zero the extruded length again
G1 F80
;Put printing message on LCD screen
M117 Printing...
G92 E0
G1 F2400 E-2.5
;LAYER_COUNT:233
;LAYER:0
M107
G0 F2400 X89.661 Y81.926 Z0.3
;TYPE:SKIRT
G1 F2400 E0
G1 F1200 X90.133 Y81.42 E0.03452
G1 X90.661 Y80.971 E0.0691
G1 X91.236 Y80.586 E0.10362
G1 X91.853 Y80.271 E0.13819
G1 X92.501 Y80.028 E0.17271
G1 X93.174 Y79.861 E0.20731
G1 X93.86 Y79.773 E0.24181
G1 X94.277 Y79.759 E0.26263
G1 X114.259 Y79.76 E1.25954
G1 X114.951 Y79.8 E1.29412
G1 X115.633 Y79.919 E1.32866
G1 X116.297 Y80.117 E1.36322
G1 X116.933 Y80.389 E1.39773
G1 X117.534 Y80.733 E1.43228
G1 X118.092 Y81.144 E1.46686
G1 X118.598 Y81.616 E1.50138
G1 X119.047 Y82.144 E1.53596
G1 X119.432 Y82.72 E1.57052
G1 X119.748 Y83.336 E1.60506
G1 X119.99 Y83.985 E1.63962
G1 X120.157 Y84.657 E1.67417
G1 X120.245 Y85.344 E1.70872
G1 X120.259 Y85.76 E1.72949
G1 X120.258 Y106.741 E2.77623
G1 X120.218 Y107.433 E2.81082
G1 X120.099 Y108.115 E2.84536
G1 X119.901 Y108.779 E2.87992
G1 X119.629 Y109.415 E2.91443
G1 X119.285 Y110.016 E2.94898
G1 X118.874 Y110.574 E2.98356
G1 X118.348 Y111.131 E3.02178
G1 X116.123 Y113.204 E3.1735
G1 X111.07 Y118.417 E3.5357
G1 X110.56 Y118.886 E3.57027
G1 X110 Y119.293 E3.60481
G1 X109.396 Y119.632 E3.63936
G1 X108.757 Y119.9 E3.67393
G1 X108.092 Y120.092 E3.70846
G1 X107.409 Y120.206 E3.74301
G1 X106.761 Y120.241 E3.77539
G1 X97.089 Y120.24 E4.25793
G1 X96.398 Y120.2 E4.29246
G1 X95.716 Y120.081 E4.327
G1 X95.052 Y119.883 E4.36156
G1 X94.415 Y119.611 E4.39612
G1 X93.814 Y119.267 E4.43067
G1 X93.257 Y118.856 E4.4652
G1 X92.75 Y118.383 E4.4998
G1 X92.302 Y117.856 E4.53431
G1 X91.917 Y117.28 E4.56887
G1 X91.601 Y116.664 E4.60341
G1 X91.442 Y116.265 E4.62484
G1 X89.793 Y111.666 E4.86859
G1 X88.712 Y108.984 E5.01285
G1 X88.491 Y108.327 E5.04744
G1 X88.346 Y107.65 E5.08198
G1 X88.277 Y106.74 E5.12751
G1 X88.277 Y85.759 E6.17425
G1 X88.317 Y85.068 E6.20879
G1 X88.436 Y84.385 E6.24337
G1 X88.634 Y83.722 E6.27789
G1 X88.906 Y83.085 E6.31245
G1 X89.25 Y82.484 E6.347
G1 X89.661 Y81.926 E6.38157
G0 F2400 X90.057 Y82.078
G1 F1200 X90.526 Y81.601 E6.41495
G1 X91.048 Y81.183 E6.44831
G1 X91.617 Y80.831 E6.48169
G1 X92.224 Y80.549 E6.51508
G1 X92.86 Y80.341 E6.54847
G1 X93.516 Y80.211 E6.58183
G1 X94.277 Y80.159 E6.61989
G1 X114.259 Y80.16 E7.61679
G1 X114.927 Y80.2 E7.65018
G1 X115.585 Y80.319 E7.68354
G1 X116.225 Y80.516 E7.71695
G1 X116.836 Y80.788 E7.75032
G1 X117.411 Y81.131 E7.78372
G1 X117.94 Y81.54 E7.81708
G1 X118.417 Y82.009 E7.85045
G1 X118.835 Y82.532 E7.88385
G1 X119.187 Y83.1 E7.91719
G1 X119.469 Y83.707 E7.95058
G1 X119.677 Y84.343 E7.98397
G1 X119.807 Y84.999 E8.01733
G1 X119.859 Y85.76 E8.05539
G1 X119.858 Y106.741 E9.10213
G1 X119.818 Y107.409 E9.13552
G1 X119.699 Y108.067 E9.16888
G1 X119.502 Y108.707 E9.20229
G1 X119.23 Y109.318 E9.23566
G1 X118.887 Y109.893 E9.26906
G1 X118.478 Y110.422 E9.30242
G1 X118.076 Y110.838 E9.33128
G1 X115.846 Y112.916 E9.48335
G1 X110.783 Y118.139 E9.84626
G1 X110.289 Y118.59 E9.87963
G1 X109.745 Y118.98 E9.91303
G1 X109.159 Y119.302 E9.94639
G1 X108.538 Y119.552 E9.97978
G1 X107.892 Y119.726 E10.01316
G1 X107.23 Y119.821 E10.04653
G1 X106.761 Y119.841 E10.06995
G1 X97.089 Y119.84 E10.55249
G1 X96.422 Y119.8 E10.58582
G1 X95.763 Y119.681 E10.61923
G1 X95.124 Y119.484 E10.65259
G1 X94.513 Y119.212 E10.68596
G1 X93.938 Y118.869 E10.71936
G1 X93.409 Y118.46 E10.75272
G1 X92.932 Y117.991 E10.7861
G1 X92.514 Y117.468 E10.8195
G1 X92.162 Y116.899 E10.85288
G1 X91.818 Y116.13 E10.89491
G1 X90.161 Y111.508 E11.13987
G1 X89.083 Y108.834 E11.28371
G1 X88.871 Y108.2 E11.31706
G1 X88.735 Y107.544 E11.35049
G1 X88.677 Y106.74 E11.3907
G1 X88.677 Y85.759 E12.43745
G1 X88.717 Y85.091 E12.47084
G1 X88.836 Y84.433 E12.5042
G1 X89.033 Y83.793 E12.5376
G1 X89.305 Y83.182 E12.57097
G1 X89.648 Y82.608 E12.60433
G1 X90.057 Y82.078 E12.63773
G0 F2400 X90.452 Y82.236
G1 F1200 X90.917 Y81.79 E12.66988
G1 X91.434 Y81.405 E12.70204
G1 X91.995 Y81.086 E12.73423
G1 X92.591 Y80.84 E12.7664
G1 X93.212 Y80.669 E12.79853
G1 X93.85 Y80.577 E12.83069
G1 X94.277 Y80.559 E12.85202
G1 X114.259 Y80.56 E13.84892
G1 X114.903 Y80.6 E13.88111
G1 X115.536 Y80.719 E13.91325
G1 X116.15 Y80.916 E13.94542
G1 X116.735 Y81.187 E13.97758
G1 X117.282 Y81.529 E14.00977
G1 X117.782 Y81.935 E14.0419
G1 X118.228 Y82.401 E14.07408
G1 X118.613 Y82.918 E14.10624
G1 X118.932 Y83.478 E14.13839
G1 X119.178 Y84.074 E14.17056
G1 X119.349 Y84.696 E14.20275
G1 X119.441 Y85.334 E14.2349
G1 X119.459 Y85.76 E14.25618
G1 X119.458 Y106.741 E15.30292
G1 X119.418 Y107.385 E15.33511
G1 X119.299 Y108.018 E15.36725
G1 X119.102 Y108.632 E15.39942
G1 X118.831 Y109.217 E15.43158
G1 X118.489 Y109.764 E15.46377
G1 X118.083 Y110.264 E15.4959
G1 X117.803 Y110.545 E15.51569
G1 X115.569 Y112.627 E15.66805
G1 X110.496 Y117.86 E16.03166
G1 X110.019 Y118.295 E16.06387
G1 X109.493 Y118.666 E16.09598
G1 X108.924 Y118.97 E16.12817
G1 X108.322 Y119.201 E16.16034
G1 X107.696 Y119.356 E16.19251
G1 X106.761 Y119.441 E16.23935
G1 X97.089 Y119.44 E16.72189
G1 X96.446 Y119.4 E16.75403
G1 X95.813 Y119.281 E16.78616
G1 X95.199 Y119.084 E16.81833
G1 X94.614 Y118.813 E16.8505
G1 X94.067 Y118.471 E16.88268
G1 X93.567 Y118.064 E16.91485
G1 X93.121 Y117.599 E16.94699
G1 X92.735 Y117.082 E16.97918
G1 X92.417 Y116.521 E17.01136
G1 X92.195 Y115.995 E17.03984
G1 X90.538 Y111.372 E17.28485
G1 X89.454 Y108.684 E17.42945
G1 X89.251 Y108.073 E17.46157
G1 X89.124 Y107.44 E17.49378
G1 X89.077 Y106.74 E17.52878
G1 X89.077 Y85.759 E18.57553
G1 X89.117 Y85.116 E18.60767
G1 X89.236 Y84.482 E18.63985
G1 X89.433 Y83.868 E18.67202
G1 X89.704 Y83.283 E18.70419
G1 X90.046 Y82.736 E18.73637
G1 X90.452 Y82.236 E18.76851
G1 F2400 E16.26851
;MESH:calicat.stl
G0 F2400 X93.603 Y86.364
G0 X94.882 Y86.364
G0 X101.598 Y94.08
G0 X101.668 Y94.15
;TYPE:WALL-INNER
G1 F2400 E18.76851
G1 F1200 X94.868 Y94.15 E19.10776
G1 X94.868 Y86.35 E19.4969
G1 X101.668 Y86.35 E19.83616
G1 X101.668 Y94.15 E20.2253
G0 F2400 X102.068 Y94.55
;TYPE:WALL-OUTER
G1 F1200 X94.468 Y94.55 E20.60447
G1 X94.468 Y85.95 E21.03352
G1 X102.068 Y85.95 E21.41269
G1 X102.068 Y94.55 E21.84174
G0 F2400 X101.868 Y94.55
G0 X101.598 Y94.08
G0 X101.278 Y93.76
;TYPE:SKIN
G1 F1200 X95.258 Y93.76 E22.14208
G1 X95.258 Y86.74 E22.49231
G1 X101.278 Y86.74 E22.79265
G1 X101.278 Y93.76 E23.14288
G0 F2400 X95.842 Y93.579
G1 F1200 X95.436 Y93.174 E23.17149
G0 F2400 X95.436 Y92.608
G1 F1200 X96.408 Y93.579 E23.24003
G0 F2400 X96.974 Y93.579
G1 F1200 X95.436 Y92.042 E23.34851
G0 F2400 X95.436 Y91.476
G1 F1200 X97.539 Y93.579 E23.49689
G0 F2400 X98.105 Y93.579
G1 F1200 X95.436 Y90.911 E23.68517
G0 F2400 X95.436 Y90.345
G1 F1200 X98.671 Y93.579 E23.91338
G0 F2400 X99.236 Y93.579
G1 F1200 X95.436 Y89.779 E24.18149
G0 F2400 X95.436 Y89.214
G1 F1200 X99.802 Y93.579 E24.4895
G0 F2400 X100.368 Y93.579
G1 F1200 X95.436 Y88.648 E24.83744
G0 F2400 X95.436 Y88.082
G1 F1200 X100.933 Y93.579 E25.22529
G0 F2400 X101.097 Y93.178
G1 F1200 X95.436 Y87.517 E25.6247
G0 F2400 X95.436 Y86.951
G1 F1200 X101.097 Y92.612 E26.02411
G0 F2400 X101.097 Y92.046
G1 F1200 X95.97 Y86.919 E26.38585
G0 F2400 X96.536 Y86.919
G1 F1200 X101.097 Y91.481 E26.70769
G0 F2400 X101.097 Y90.915
G1 F1200 X97.102 Y86.919 E26.98959
G0 F2400 X97.667 Y86.919
G1 F1200 X101.097 Y90.349 E27.2316
G0 F2400 X101.097 Y89.784
G1 F1200 X98.233 Y86.919 E27.43371
G0 F2400 X98.799 Y86.919
G1 F1200 X101.097 Y89.218 E27.59588
G0 F2400 X101.097 Y88.652
G1 F1200 X99.364 Y86.919 E27.71815
G0 F2400 X99.93 Y86.919
G1 F1200 X101.097 Y88.087 E27.80052
G0 F2400 X101.097 Y87.521
G1 F1200 X100.496 Y86.919 E27.84296
G1 X100.426 Y86.849
G1 F2400 E25.34296
G0 F2400 X101.648 Y94.08
G0 X102.933 Y94.08
G0 X105.603 Y94.08
G0 X106.888 Y94.08
G0 X113.598 Y94.08
G0 X113.668 Y94.15
;TYPE:WALL-INNER
G1 F2400 E27.84296
G1 F1200 X106.868 Y94.15 E28.18222
G1 X106.868 Y86.35 E28.57136
G1 X113.668 Y86.35 E28.91061
G1 X113.668 Y94.15 E29.29976
G0 F2400 X114.068 Y94.55
;TYPE:WALL-OUTER
G1 F1200 X106.468 Y94.55 E29.67892
G1 X106.468 Y85.95 E30.10798
G1 X114.068 Y85.95 E30.48714
G1 X114.068 Y94.55 E30.9162
G0 F2400 X113.868 Y94.55
G0 X113.598 Y94.08
G0 X113.278 Y93.76
;TYPE:SKIN
G1 F1200 X107.258 Y93.76 E31.21654
G1 X107.258 Y86.74 E31.56677
G1 X113.278 Y86.74 E31.86711
G1 X113.278 Y93.76 E32.21734
G0 F2400 X107.722 Y93.579
G1 F1200 X107.437 Y93.294 E32.23744
G0 F2400 X107.437 Y92.729
G1 F1200 X108.287 Y93.579 E32.29742
G0 F2400 X108.853 Y93.579
G1 F1200 X107.437 Y92.163 E32.39732
G0 F2400 X107.437 Y91.597
G1 F1200 X109.419 Y93.579 E32.53716
G0 F2400 X109.984 Y93.579
G1 F1200 X107.437 Y91.032 E32.71687
G0 F2400 X107.437 Y90.466
G1 F1200 X110.55 Y93.579 E32.93651
G0 F2400 X111.116 Y93.579
G1 F1200 X107.437 Y89.9 E33.19608
G0 F2400 X107.437 Y89.335
G1 F1200 X111.681 Y93.579 E33.49552
G0 F2400 X112.247 Y93.579
G1 F1200 X107.437 Y88.769 E33.83489
G0 F2400 X107.437 Y88.203
G1 F1200 X112.813 Y93.579 E34.21419
G0 F2400 X113.097 Y93.298
G1 F1200 X107.437 Y87.638 E34.61354
G0 F2400 X107.437 Y87.072
G1 F1200 X113.097 Y92.732 E35.01288
G0 F2400 X113.097 Y92.167
G1 F1200 X107.85 Y86.92 E35.38309
G0 F2400 X108.416 Y86.92
G1 F1200 X113.097 Y91.601 E35.71336
G0 F2400 X113.097 Y91.035
G1 F1200 X108.982 Y86.92 E36.00369
G0 F2400 X109.547 Y86.92
G1 F1200 X113.097 Y90.47 E36.25416
G0 F2400 X113.097 Y89.904
G1 F1200 X110.113 Y86.92 E36.4647
G0 F2400 X110.679 Y86.92
G1 F1200 X113.097 Y89.338 E36.6353
G0 F2400 X113.097 Y88.773
G1 F1200 X111.244 Y86.92 E36.76604
G0 F2400 X111.81 Y86.92
G1 F1200 X113.097 Y88.207 E36.85685
G0 F2400 X113.097 Y87.641
G1 F1200 X112.376 Y86.92 E36.90772
G0 F2400 X112.941 Y86.92
G1 F1200 X113.097 Y87.075 E36.91869
G1 F2400 E34.41869
G0 F2400 X106.882 Y94.136
G0 X106.882 Y95.415
G0 X106.882 Y97.085
G0 X106.882 Y98.364
G0 X106.896 Y103.378
G0 X106.098 Y106.08
G0 X106.168 Y106.15
;TYPE:WALL-INNER
G1 F2400 E36.91869
G1 F1200 X106.168 Y113.65 E37.29287
G1 X97.682 Y113.65 E37.71623
G1 X97.681 Y110.05 E37.89584
G1 X97.681 Y109.85 E37.90582
G1 X97.881 Y109.85 E37.91228
G1 X102.368 Y109.85 E38.13613
G1 X102.368 Y106.15 E38.32073
G1 X94.868 Y106.15 E38.6949
G1 X94.868 Y98.35 E39.08405
G1 X101.668 Y98.35 E39.4233
G1 X101.668 Y103.35 E39.67275
G1 X106.868 Y103.35 E39.93218
G1 X106.868 Y98.35 E40.18163
G1 X113.668 Y98.35 E40.52089
G1 X113.668 Y106.15 E40.91003
G1 X106.168 Y106.15 E41.28421
G0 F2400 X106.568 Y106.55
;TYPE:WALL-OUTER
G1 F1200 X106.568 Y114.05 E41.65838
G1 X97.282 Y114.05 E42.12166
G1 X97.281 Y109.65 E42.34118
G1 X97.281 Y109.45 E42.35116
G1 X97.481 Y109.45 E42.35762
G1 X101.968 Y109.45 E42.58148
G1 X101.968 Y106.55 E42.72616
G1 X94.468 Y106.55 E43.10033
G1 X94.468 Y97.95 E43.52939
G1 X102.068 Y97.95 E43.90856
G1 X102.068 Y102.95 E44.15801
G1 X106.468 Y102.95 E44.37752
G1 X106.468 Y97.95 E44.62697
G1 X114.068 Y97.95 E45.00614
G1 X114.068 Y106.55 E45.4352
G1 X106.568 Y106.55 E45.80937
G0 F2400 X106.568 Y106.75
G0 X106.068 Y106.75
G0 X105.778 Y105.76
;TYPE:SKIN
G1 F1200 X105.778 Y113.26 E46.18355
G1 X98.072 Y113.26 E46.568
G1 X98.071 Y110.24 E46.71867
G1 X102.758 Y110.24 E46.95251
G1 X102.758 Y105.76 E47.17601
G1 X95.258 Y105.76 E47.55019
G1 X95.258 Y98.74 E47.90042
G1 X101.278 Y98.74 E48.20076
G1 X101.278 Y103.74 E48.45021
G1 X107.258 Y103.74 E48.74855
G1 X107.258 Y98.74 E48.998
G1 X113.278 Y98.74 E49.29834
G1 X113.278 Y105.76 E49.64857
G1 X105.778 Y105.76 E50.02275
G0 F2400 X113.097 Y99.521
G1 F1200 X112.496 Y98.919 E50.06519
G0 F2400 X111.93 Y98.919
G1 F1200 X113.097 Y100.086 E50.14753
G0 F2400 X113.097 Y100.652
G1 F1200 X111.365 Y98.919 E50.26976
G0 F2400 X110.799 Y98.919
G1 F1200 X113.097 Y101.218 E50.43194
G0 F2400 X113.097 Y101.783
G1 F1200 X110.233 Y98.919 E50.63401
G0 F2400 X109.668 Y98.919
G1 F1200 X113.097 Y102.349 E50.87598
G0 F2400 X113.097 Y102.915
G1 F1200 X109.102 Y98.919 E51.15788
G0 F2400 X108.536 Y98.919
G1 F1200 X113.097 Y103.48 E51.47968
G0 F2400 X113.097 Y104.046
G1 F1200 X107.97 Y98.919 E51.84142
G0 F2400 X107.437 Y98.951
G1 F1200 X113.097 Y104.612 E52.2408
G0 F2400 X113.097 Y105.177
G1 F1200 X107.437 Y99.517 E52.64014
G0 F2400 X107.437 Y100.083
G1 F1200 X112.933 Y105.579 E53.02792
G0 F2400 X112.367 Y105.579
G1 F1200 X107.437 Y100.648 E53.37579
G0 F2400 X107.437 Y101.214
G1 F1200 X111.802 Y105.579 E53.68376
G0 F2400 X111.236 Y105.579
G1 F1200 X107.437 Y101.78 E53.9518
G0 F2400 X107.437 Y102.345
G1 F1200 X110.67 Y105.579 E54.17994
G0 F2400 X110.105 Y105.579
G1 F1200 X107.437 Y102.911 E54.36819
G0 F2400 X107.437 Y103.477
G1 F1200 X109.539 Y105.579 E54.51649
G0 F2400 X108.973 Y105.579
G1 F1200 X107.314 Y103.919 E54.63358
G0 F2400 X106.748 Y103.919
G1 F1200 X108.407 Y105.579 E54.75067
G0 F2400 X107.842 Y105.579
G1 F1200 X106.182 Y103.919 E54.86779
G0 F2400 X105.617 Y103.919
G1 F1200 X107.276 Y105.579 E54.98488
G0 F2400 X106.71 Y105.579
G1 F1200 X105.051 Y103.919 E55.10196
G0 F2400 X104.485 Y103.919
G1 F1200 X106.145 Y105.579 E55.21908
G0 F2400 X105.597 Y105.597
G1 F1200 X103.919 Y103.919 E55.33748
G0 F2400 X103.354 Y103.919
G1 F1200 X105.597 Y106.163 E55.49577
G0 F2400 X105.597 Y106.729
G1 F1200 X102.788 Y103.919 E55.69399
G0 F2400 X102.222 Y103.919
G1 F1200 X105.597 Y107.294 E55.93212
G0 F2400 X105.597 Y107.86
G1 F1200 X101.657 Y103.919 E56.21014
G0 F2400 X101.097 Y103.36
G1 F1200 X96.657 Y98.919 E56.52344
G0 F2400 X97.222 Y98.919
G1 F1200 X101.097 Y102.794 E56.79684
G0 F2400 X101.097 Y102.229
G1 F1200 X97.788 Y98.919 E57.03035
G1 X97.718 Y98.849
G0 F2400 X96.091 Y98.919
G1 F1200 X102.751 Y105.579 E57.50025
G0 F2400 X102.937 Y105.766
G1 F1200 X105.597 Y108.426 E57.68792
G0 F2400 X105.597 Y108.992
G1 F1200 X102.937 Y106.331 E57.87564
G0 F2400 X102.937 Y106.897
G1 F1200 X105.597 Y109.557 E58.06331
G0 F2400 X105.597 Y110.123
G1 F1200 X102.937 Y107.463 E58.25099
G0 F2400 X102.937 Y108.028
G1 F1200 X105.597 Y110.689 E58.4387
G0 F2400 X105.597 Y111.254
G1 F1200 X102.937 Y108.594 E58.62638
G0 F2400 X102.937 Y109.16
G1 F1200 X105.597 Y111.82 E58.81406
G0 F2400 X105.597 Y112.386
G1 F1200 X102.937 Y109.726 E59.00174
G0 F2400 X102.937 Y110.291
G1 F1200 X105.597 Y112.951 E59.18941
G0 F2400 X105.159 Y113.079
G1 F1200 X102.499 Y110.418 E59.37713
G0 F2400 X101.933 Y110.418
G1 F1200 X104.593 Y113.079 E59.56484
G0 F2400 X104.028 Y113.079
G1 F1200 X101.367 Y110.418 E59.75259
G0 F2400 X100.802 Y110.418
G1 F1200 X103.462 Y113.079 E59.9403
G0 F2400 X102.896 Y113.079
G1 F1200 X100.236 Y110.418 E60.12801
G0 F2400 X99.67 Y110.418
G1 F1200 X102.331 Y113.079 E60.31576
G0 F2400 X101.765 Y113.079
G1 F1200 X99.105 Y110.418 E60.50347
G0 F2400 X98.539 Y110.418
G1 F1200 X101.199 Y113.079 E60.69118
G0 F2400 X100.634 Y113.079
G1 F1200 X98.251 Y110.696 E60.85932
G0 F2400 X98.251 Y111.261
G1 F1200 X100.068 Y113.079 E60.98755
G0 F2400 X99.502 Y113.079
G1 F1200 X98.251 Y111.828 E61.07582
G0 F2400 X98.251 Y112.393
G1 F1200 X98.936 Y113.079 E61.12418
G0 F2400 X98.371 Y113.079
G1 F1200 X98.251 Y112.959 E61.13265
G0 F2400 X102.396 Y109.878
G0 X102.396 Y106.122
G0 X98.225 Y105.579
G1 F1200 X95.437 Y102.791 E61.32936
G0 F2400 X95.437 Y103.357
G1 F1200 X97.659 Y105.579 E61.48613
G0 F2400 X97.094 Y105.579
G1 F1200 X95.437 Y103.922 E61.60304
G1 X95.367 Y103.852
G0 F2400 X95.437 Y102.225
G1 F1200 X98.791 Y105.579 E61.83969
G0 F2400 X99.356 Y105.579
G1 F1200 X95.437 Y101.66 E62.11619
G0 F2400 X95.437 Y101.094
G1 F1200 X99.922 Y105.579 E62.43263
G0 F2400 X100.488 Y105.579
G1 F1200 X95.437 Y100.528 E62.78901
G0 F2400 X95.437 Y99.962
G1 F1200 X101.054 Y105.579 E63.18532
G0 F2400 X101.619 Y105.579
G1 F1200 X95.437 Y99.397 E63.62149
G0 F2400 X95.525 Y98.919
G1 F1200 X102.185 Y105.579 E64.09139
G1 X102.255 Y105.649
G0 F2400 X101.097 Y101.663
G1 F1200 X98.354 Y98.919 E64.28496
