;FLAVOR:Marlin
;TIME:3451
;Filament used: 2.76518m
;Layer height: 0.16
;Generated with Cura_SteamEngine 3.6.0
M140 S70
M105
M190 S70
M104 S225
M105
M109 S225
M82 ;absolute extrusion mode
G21 ;metric values
G90 ;absolute positioning
M82 ;set extruder to absolute mode
M107 ;start with the fan off
G28 X0 Y0 ;move X/Y to min endstops
G28 Z0 ;move Z to min endstops
G1 Z15.0 F80 ;move the platform down 15mm
G92 E0 ;zero the extruded length
G1 F200 E6 ;extrude 6 mm of feed stock
G92 E0 ;zero the extruded length again
M117 Printing...
G1 F80
G92 E0
G1 F2100 E-1.75
;LAYER_COUNT:218
;LAYER:0
M107
G0 F2400 X89.661 Y81.926 Z0.3
;TYPE:SKIRT
G1 F2100 E0
G1 F1050 X90.133 Y81.42 E0.03452
G1 X90.661 Y80.971 E0.0691
G1 X91.236 Y80.586 E0.10362
G1 X91.853 Y80.271 E0.13819
G1 X92.501 Y80.028 E0.17271
G1 X93.174 Y79.861 E0.20731
G1 X93.86 Y79.773 E0.24181
G1 X94.277 Y79.759 E0.26263
G1 X114.259 Y79.76 E1.25954
G1 X114.951 Y79.8 E1.29412
G1 X115.633 Y79.919 E1.32866
G1 X116.297 Y80.117 E1.36322
G1 X116.933 Y80.389 E1.39773
G1 X117.534 Y80.733 E1.43228
G1 X118.092 Y81.144 E1.46686
G1 X118.598 Y81.616 E1.50138
G1 X119.047 Y82.144 E1.53596
G1 X119.432 Y82.72 E1.57052
G1 X119.748 Y83.336 E1.60506
G1 X119.99 Y83.985 E1.63962
G1 X120.157 Y84.657 E1.67417
G1 X120.245 Y85.344 E1.70872
G1 X120.259 Y85.76 E1.72949
G1 X120.258 Y106.741 E2.77623
G1 X120.218 Y107.433 E2.81082
G1 X120.099 Y108.115 E2.84536
G1 X119.901 Y108.779 E2.87992
G1 X119.629 Y109.415 E2.91443
G1 X119.285 Y110.016 E2.94898
G1 X118.874 Y110.574 E2.98356
G1 X118.348 Y111.131 E3.02178
G1 X116.123 Y113.204 E3.1735
G1 X111.07 Y118.417 E3.5357
G1 X110.56 Y118.886 E3.57027
G1 X110 Y119.293 E3.60481
G1 X109.396 Y119.632 E3.63936
G1 X108.757 Y119.9 E3.67393
G1 X108.092 Y120.092 E3.70846
G1 X107.409 Y120.206 E3.74301
G1 X106.761 Y120.241 E3.77539
G1 X97.089 Y120.24 E4.25793
G1 X96.398 Y120.2 E4.29246
G1 X95.716 Y120.081 E4.327
G1 X95.052 Y119.883 E4.36156
G1 X94.415 Y119.611 E4.39612
G1 X93.814 Y119.267 E4.43067
G1 X93.257 Y118.856 E4.4652
G1 X92.75 Y118.383 E4.4998
G1 X92.302 Y117.856 E4.53431
G1 X91.917 Y117.28 E4.56887
G1 X91.601 Y116.664 E4.60341
G1 X91.442 Y116.265 E4.62484
G1 X89.793 Y111.666 E4.86859
G1 X88.712 Y108.984 E5.01285
G1 X88.491 Y108.327 E5.04744
G1 X88.346 Y107.65 E5.08198
G1 X88.277 Y106.74 E5.12751
G1 X88.277 Y85.759 E6.17425
G1 X88.317 Y85.068 E6.20879
G1 X88.436 Y84.385 E6.24337
G1 X88.634 Y83.722 E6.27789
G1 X88.906 Y83.085 E6.31245
G1 X89.25 Y82.484 E6.347
G1 X89.661 Y81.926 E6.38157
G0 F2400 X90.057 Y82.078
G1 F1050 X90.526 Y81.601 E6.41495
G1 X91.048 Y81.183 E6.44831
G1 X91.617 Y80.831 E6.48169
G1 X92.224 Y80.549 E6.51508
G1 X92.86 Y80.341 E6.54847
G1 X93.516 Y80.211 E6.58183
G1 X94.277 Y80.159 E6.61989
G1 X114.259 Y80.16 E7.61679
G1 X114.927 Y80.2 E7.65018
G1 X115.585 Y80.319 E7.68354
G1 X116.225 Y80.516 E7.71695
G1 X116.836 Y80.788 E7.75032
G1 X117.411 Y81.131 E7.78372
G1 X117.94 Y81.54 E7.81708
G1 X118.417 Y82.009 E7.85045
G1 X118.835 Y82.532 E7.88385
G1 X119.187 Y83.1 E7.91719
G1 X119.469 Y83.707 E7.95058
G1 X119.677 Y84.343 E7.98397
G1 X119.807 Y84.999 E8.01733
G1 X119.859 Y85.76 E8.05539
G1 X119.858 Y106.741 E9.10213
G1 X119.818 Y107.409 E9.13552
G1 X119.699 Y108.067 E9.16888
G1 X119.502 Y108.707 E9.20229
G1 X119.23 Y109.318 E9.23566
G1 X118.887 Y109.893 E9.26906
G1 X118.478 Y110.422 E9.30242
G1 X118.076 Y110.838 E9.33128
G1 X115.846 Y112.916 E9.48335
G1 X110.783 Y118.139 E9.84626
G1 X110.289 Y118.59 E9.87963
G1 X109.745 Y118.98 E9.91303
G1 X109.159 Y119.302 E9.94639
G1 X108.538 Y119.552 E9.97978
G1 X107.892 Y119.726 E10.01316
G1 X107.23 Y119.821 E10.04653
G1 X106.761 Y119.841 E10.06995
G1 X97.089 Y119.84 E10.55249
G1 X96.422 Y119.8 E10.58582
G1 X95.763 Y119.681 E10.61923
G1 X95.124 Y119.484 E10.65259
G1 X94.513 Y119.212 E10.68596
G1 X93.938 Y118.869 E10.71936
G1 X93.409 Y118.46 E10.75272
G1 X92.932 Y117.991 E10.7861
G1 X92.514 Y117.468 E10.8195
G1 X92.162 Y116.899 E10.85288
G1 X91.818 Y116.13 E10.89491
G1 X90.161 Y111.508 E11.13987
G1 X89.083 Y108.834 E11.28371
G1 X88.871 Y108.2 E11.31706
G1 X88.735 Y107.544 E11.35049
G1 X88.677 Y106.74 E11.3907
G1 X88.677 Y85.759 E12.43745
G1 X88.717 Y85.091 E12.47084
G1 X88.836 Y84.433 E12.5042
G1 X89.033 Y83.793 E12.5376
G1 X89.305 Y83.182 E12.57097
G1 X89.648 Y82.608 E12.60433
G1 X90.057 Y82.078 E12.63773
G0 F2400 X90.452 Y82.236
G1 F1050 X90.917 Y81.79 E12.66988
G1 X91.434 Y81.405 E12.70204
G1 X91.995 Y81.086 E12.73423
G1 X92.591 Y80.84 E12.7664
G1 X93.212 Y80.669 E12.79853
G1 X93.85 Y80.577 E12.83069
G1 X94.277 Y80.559 E12.85202
G1 X114.259 Y80.56 E13.84892
G1 X114.903 Y80.6 E13.88111
G1 X115.536 Y80.719 E13.91325
G1 X116.15 Y80.916 E13.94542
G1 X116.735 Y81.187 E13.97758
G1 X117.282 Y81.529 E14.00977
G1 X117.782 Y81.935 E14.0419
G1 X118.228 Y82.401 E14.07408
G1 X118.613 Y82.918 E14.10624
G1 X118.932 Y83.478 E14.13839
G1 X119.178 Y84.074 E14.17056
G1 X119.349 Y84.696 E14.20275
G1 X119.441 Y85.334 E14.2349
G1 X119.459 Y85.76 E14.25618
G1 X119.458 Y106.741 E15.30292
G1 X119.418 Y107.385 E15.33511
G1 X119.299 Y108.018 E15.36725
G1 X119.102 Y108.632 E15.39942
G1 X118.831 Y109.217 E15.43158
G1 X118.489 Y109.764 E15.46377
G1 X118.083 Y110.264 E15.4959
G1 X117.803 Y110.545 E15.51569
G1 X115.569 Y112.627 E15.66805
G1 X110.496 Y117.86 E16.03166
G1 X110.019 Y118.295 E16.06387
G1 X109.493 Y118.666 E16.09598
G1 X108.924 Y118.97 E16.12817
G1 X108.322 Y119.201 E16.16034
G1 X107.696 Y119.356 E16.19251
G1 X106.761 Y119.441 E16.23935
G1 X97.089 Y119.44 E16.72189
G1 X96.446 Y119.4 E16.75403
G1 X95.813 Y119.281 E16.78616
G1 X95.199 Y119.084 E16.81833
G1 X94.614 Y118.813 E16.8505
G1 X94.067 Y118.471 E16.88268
G1 X93.567 Y118.064 E16.91485
G1 X93.121 Y117.599 E16.94699
G1 X92.735 Y117.082 E16.97918
G1 X92.417 Y116.521 E17.01136
G1 X92.195 Y115.995 E17.03984
G1 X90.538 Y111.372 E17.28485
G1 X89.454 Y108.684 E17.42945
G1 X89.251 Y108.073 E17.46157
G1 X89.124 Y107.44 E17.49378
G1 X89.077 Y106.74 E17.52878
G1 X89.077 Y85.759 E18.57553
G1 X89.117 Y85.116 E18.60767
G1 X89.236 Y84.482 E18.63985
G1 X89.433 Y83.868 E18.67202
G1 X89.704 Y83.283 E18.70419
G1 X90.046 Y82.736 E18.73637
G1 X90.452 Y82.236 E18.76851
G1 F2100 E17.01851
;MESH:calicat.stl
G0 F2400 X93.603 Y86.364
G0 X94.882 Y86.364
G0 X101.268 Y93.75
;TYPE:WALL-INNER
G1 F2100 E18.76851
G1 F1050 X95.268 Y93.75 E19.06785
G1 X95.268 Y86.75 E19.41708
G1 X101.268 Y86.75 E19.71642
G1 X101.268 Y93.75 E20.06565
G0 F2400 X101.668 Y94.15
G1 F1050 X94.868 Y94.15 E20.4049
G1 X94.868 Y86.35 E20.79405
G1 X101.668 Y86.35 E21.1333
G1 X101.668 Y94.15 E21.52245
G0 F2400 X102.068 Y94.55
;TYPE:WALL-OUTER
G1 F1050 X94.468 Y94.55 E21.90161
G1 X94.468 Y85.95 E22.33067
G1 X102.068 Y85.95 E22.70983
G1 X102.068 Y94.55 E23.13889
G0 F2400 X101.868 Y94.55
G0 X101.598 Y94.08
G0 X100.878 Y93.36
;TYPE:SKIN
G1 F1050 X95.658 Y93.36 E23.39931
G1 X95.658 Y87.14 E23.70963
G1 X100.878 Y87.14 E23.97006
G1 X100.878 Y93.36 E24.28038
G0 F2400 X96.008 Y93.179
G1 F1050 X95.837 Y93.008 E24.29244
G0 F2400 X95.837 Y92.442
G1 F1050 X96.573 Y93.179 E24.3444
G0 F2400 X97.139 Y93.179
G1 F1050 X95.837 Y91.877 E24.43627
G0 F2400 X95.837 Y91.311
G1 F1050 X97.705 Y93.179 E24.56807
G0 F2400 X98.27 Y93.179
G1 F1050 X95.837 Y90.745 E24.73976
G0 F2400 X95.837 Y90.18
G1 F1050 X98.836 Y93.179 E24.95136
G0 F2400 X99.402 Y93.179
G1 F1050 X95.837 Y89.614 E25.20289
G0 F2400 X95.837 Y89.048
G1 F1050 X99.967 Y93.179 E25.49432
G0 F2400 X100.533 Y93.179
G1 F1050 X95.837 Y88.483 E25.82564
G0 F2400 X95.837 Y87.917
G1 F1050 X100.697 Y92.778 E26.16858
G0 F2400 X100.697 Y92.212
G1 F1050 X95.837 Y87.351 E26.51151
G0 F2400 X96.37 Y87.319
G1 F1050 X100.697 Y91.646 E26.81681
G0 F2400 X100.697 Y91.081
G1 F1050 X96.936 Y87.319 E27.0822
G0 F2400 X97.502 Y87.319
G1 F1050 X100.697 Y90.515 E27.30766
G0 F2400 X100.697 Y89.949
G1 F1050 X98.067 Y87.319 E27.49322
G0 F2400 X98.633 Y87.319
G1 F1050 X100.697 Y89.383 E27.63885
G0 F2400 X100.697 Y88.818
G1 F1050 X99.199 Y87.319 E27.74458
G0 F2400 X99.764 Y87.319
G1 F1050 X100.697 Y88.252 E27.8104
G0 F2400 X100.697 Y87.686
G1 F1050 X100.33 Y87.319 E27.8363
G1 F2100 E26.0863
G0 F2400 X101.648 Y93.75
G0 X102.933 Y93.75
G0 X105.603 Y93.75
G0 X106.888 Y93.75
G0 X113.268 Y93.75
;TYPE:WALL-INNER
G1 F2100 E27.8363
G1 F1050 X107.268 Y93.75 E28.13564
G1 X107.268 Y86.75 E28.48487
G1 X113.268 Y86.75 E28.78421
G1 X113.268 Y93.75 E29.13344
G0 F2400 X113.668 Y94.15
G1 F1050 X106.868 Y94.15 E29.4727
G1 X106.868 Y86.35 E29.86184
G1 X113.668 Y86.35 E30.20109
G1 X113.668 Y94.15 E30.59024
G0 F2400 X114.068 Y94.55
;TYPE:WALL-OUTER
G1 F1050 X106.468 Y94.55 E30.9694
G1 X106.468 Y85.95 E31.39846
G1 X114.068 Y85.95 E31.77762
G1 X114.068 Y94.55 E32.20668
G0 F2400 X113.868 Y94.55
G0 X113.598 Y94.08
G0 X112.878 Y93.36
;TYPE:SKIN
G1 F1050 X107.658 Y93.36 E32.46711
G1 X107.658 Y87.14 E32.77742
G1 X112.878 Y87.14 E33.03785
G1 X112.878 Y93.36 E33.34817
G0 F2400 X108.453 Y93.179
G1 F1050 X107.837 Y92.563 E33.39163
G0 F2400 X107.837 Y91.998
G1 F1050 X109.018 Y93.179 E33.47495
G0 F2400 X109.584 Y93.179
G1 F1050 X107.837 Y91.432 E33.59822
G0 F2400 X107.837 Y90.866
G1 F1050 X110.15 Y93.179 E33.76141
G0 F2400 X110.715 Y93.179
G1 F1050 X107.837 Y90.301 E33.96447
G0 F2400 X107.837 Y89.735
G1 F1050 X111.281 Y93.179 E34.20746
G0 F2400 X111.847 Y93.179
G1 F1050 X107.837 Y89.169 E34.49039
G0 F2400 X107.837 Y88.604
G1 F1050 X112.413 Y93.179 E34.81321
G0 F2400 X112.697 Y92.898
G1 F1050 X107.837 Y88.038 E35.15611
G0 F2400 X107.837 Y87.472
G1 F1050 X112.697 Y92.332 E35.49901
G0 F2400 X112.697 Y91.766
G1 F1050 X108.25 Y87.32 E35.81274
G0 F2400 X108.816 Y87.32
G1 F1050 X112.697 Y91.201 E36.08656
G0 F2400 X112.697 Y90.635
G1 F1050 X109.382 Y87.32 E36.32045
G0 F2400 X109.948 Y87.32
G1 F1050 X112.697 Y90.069 E36.51441
G0 F2400 X112.697 Y89.504
G1 F1050 X110.513 Y87.32 E36.6685
G0 F2400 X111.079 Y87.32
G1 F1050 X112.697 Y88.938 E36.78266
G0 F2400 X112.697 Y88.372
G1 F1050 X111.645 Y87.32 E36.85689
G0 F2400 X112.21 Y87.32
G1 F1050 X112.697 Y87.807 E36.89125
G1 F2100 E35.14125
G0 F2400 X106.882 Y94.136
G0 X106.882 Y95.415
G0 X106.882 Y97.085
G0 X106.882 Y98.364
G0 X106.896 Y103.378
G0 X105.768 Y105.75
;TYPE:WALL-INNER
G1 F2100 E36.89125
G1 F1050 X105.768 Y113.25 E37.26542
G1 X98.082 Y113.25 E37.64888
G1 X98.081 Y110.45 E37.78857
G1 X98.081 Y110.25 E37.79855
G1 X98.281 Y110.25 E37.80501
G1 X102.768 Y110.25 E38.02887
G1 X102.768 Y105.75 E38.25337
G1 X95.268 Y105.75 E38.62755
G1 X95.268 Y98.75 E38.97678
G1 X101.268 Y98.75 E39.27612
G1 X101.268 Y103.75 E39.52557
G1 X107.268 Y103.75 E39.82492
G1 X107.268 Y98.75 E40.07437
G1 X113.268 Y98.75 E40.37371
G1 X113.268 Y105.75 E40.72294
G1 X105.768 Y105.75 E41.09712
G0 F2400 X106.168 Y106.15
G1 F1050 X106.168 Y113.65 E41.47129
G1 X97.682 Y113.65 E41.89466
G1 X97.681 Y110.05 E42.07427
G1 X97.681 Y109.85 E42.08424
G1 X97.881 Y109.85 E42.0907
G1 X102.368 Y109.85 E42.31456
G1 X102.368 Y106.15 E42.49916
G1 X94.868 Y106.15 E42.87333
G1 X94.868 Y98.35 E43.26248
G1 X101.668 Y98.35 E43.60173
G1 X101.668 Y103.35 E43.85118
G1 X106.868 Y103.35 E44.11061
G1 X106.868 Y98.35 E44.36006
G1 X113.668 Y98.35 E44.69931
G1 X113.668 Y106.15 E45.08846
G1 X106.168 Y106.15 E45.46263
G0 F2400 X106.568 Y106.55
;TYPE:WALL-OUTER
G1 F1050 X106.568 Y114.05 E45.83681
G1 X97.282 Y114.05 E46.30009
G1 X97.281 Y109.65 E46.51961
G1 X97.281 Y109.45 E46.52959
G1 X97.481 Y109.45 E46.53605
G1 X101.968 Y109.45 E46.7599
G1 X101.968 Y106.55 E46.90459
G1 X94.468 Y106.55 E47.27876
G1 X94.468 Y97.95 E47.70782
G1 X102.068 Y97.95 E48.08698
G1 X102.068 Y102.95 E48.33643
G1 X106.468 Y102.95 E48.55595
G1 X106.468 Y97.95 E48.8054
G1 X114.068 Y97.95 E49.18457
G1 X114.068 Y106.55 E49.61362
G1 X106.568 Y106.55 E49.9878
G0 F2400 X106.568 Y106.75
G0 X106.068 Y106.75
G0 X105.378 Y105.36
;TYPE:SKIN
G1 F1050 X105.378 Y112.86 E50.36198
G1 X98.472 Y112.86 E50.70652
G1 X98.471 Y110.64 E50.81727
G1 X103.158 Y110.64 E51.05111
G1 X103.158 Y105.36 E51.31453
G1 X95.658 Y105.36 E51.68871
G1 X95.658 Y99.14 E51.99902
G1 X100.878 Y99.14 E52.25945
G1 X100.878 Y104.14 E52.5089
G1 X107.658 Y104.14 E52.84716
G1 X107.658 Y99.14 E53.09661
G1 X112.878 Y99.14 E53.35703
G1 X112.878 Y105.36 E53.66735
G1 X105.378 Y105.36 E54.04153
G0 F2400 X112.697 Y99.687
G1 F1050 X112.33 Y99.32 E54.06742
G0 F2400 X111.765 Y99.32
G1 F1050 X112.697 Y100.252 E54.13318
G0 F2400 X112.697 Y100.818
G1 F1050 X111.199 Y99.32 E54.23887
G0 F2400 X110.633 Y99.32
G1 F1050 X112.697 Y101.384 E54.3845
G0 F2400 X112.697 Y101.949
G1 F1050 X110.068 Y99.32 E54.56999
G0 F2400 X109.502 Y99.32
G1 F1050 X112.697 Y102.515 E54.79541
G0 F2400 X112.697 Y103.081
G1 F1050 X108.936 Y99.32 E55.06077
G0 F2400 X108.371 Y99.32
G1 F1050 X112.697 Y103.647 E55.36603
G0 F2400 X112.697 Y104.212
G1 F1050 X107.837 Y99.352 E55.70893
G0 F2400 X107.837 Y99.917
G1 F1050 X112.697 Y104.778 E56.05186
G0 F2400 X112.533 Y105.18
G1 F1050 X107.837 Y100.483 E56.38323
G0 F2400 X107.837 Y101.049
G1 F1050 X111.968 Y105.18 E56.67469
G0 F2400 X111.402 Y105.18
G1 F1050 X107.837 Y101.614 E56.92626
G0 F2400 X107.837 Y102.18
G1 F1050 X110.836 Y105.18 E57.13789
G0 F2400 X110.271 Y105.18
G1 F1050 X107.837 Y102.746 E57.30962
G0 F2400 X107.837 Y103.311
G1 F1050 X109.705 Y105.18 E57.44145
G0 F2400 X109.139 Y105.18
G1 F1050 X107.837 Y103.877 E57.53335
G0 F2400 X107.714 Y104.32
G1 F1050 X108.574 Y105.18 E57.59403
G0 F2400 X108.008 Y105.18
G1 F1050 X107.148 Y104.32 E57.65471
G0 F2400 X106.582 Y104.32
G1 F1050 X107.442 Y105.18 E57.71538
G0 F2400 X106.877 Y105.18
G1 F1050 X106.017 Y104.32 E57.77606
G0 F2400 X105.451 Y104.32
G1 F1050 X106.311 Y105.18 E57.83674
G0 F2400 X105.745 Y105.18
G1 F1050 X104.885 Y104.32 E57.89742
G0 F2400 X104.32 Y104.32
G1 F1050 X105.197 Y105.197 E57.95929
G0 F2400 X105.197 Y105.763
G1 F1050 X103.754 Y104.32 E58.0611
G0 F2400 X103.188 Y104.32
G1 F1050 X105.197 Y106.329 E58.20285
G0 F2400 X105.197 Y106.894
G1 F1050 X102.623 Y104.32 E58.38446
G0 F2400 X102.057 Y104.32
G1 F1050 X102.916 Y105.179 E58.44507
G0 F2400 X102.35 Y105.179
G1 F1050 X101.491 Y104.32 E58.50567
G0 F2400 X100.926 Y104.32
G1 F1050 X101.785 Y105.179 E58.56628
G0 F2400 X101.219 Y105.179
G1 F1050 X95.837 Y99.797 E58.94601
G0 F2400 X95.926 Y99.32
G1 F1050 X100.697 Y104.091 E59.28263
G1 X100.767 Y104.161
G0 F2400 X100.653 Y105.179
G1 F1050 X95.837 Y100.363 E59.62243
G0 F2400 X95.837 Y100.928
G1 F1050 X100.088 Y105.179 E59.92236
G0 F2400 X99.522 Y105.179
G1 F1050 X95.837 Y101.494 E60.18235
G0 F2400 X95.837 Y102.06
G1 F1050 X98.956 Y105.179 E60.40242
G0 F2400 X98.391 Y105.179
G1 F1050 X95.837 Y102.625 E60.58261
G0 F2400 X95.837 Y103.191
G1 F1050 X97.825 Y105.179 E60.72288
G0 F2400 X97.259 Y105.179
G1 F1050 X95.837 Y103.757 E60.82321
G0 F2400 X95.837 Y104.322
G1 F1050 X96.694 Y105.179 E60.88367
G0 F2400 X96.128 Y105.179
G1 F1050 X95.837 Y104.888 E60.90421
G0 F2400 X100.697 Y103.526
G1 F1050 X96.491 Y99.32 E61.20096
G0 F2400 X97.057 Y99.32
G1 F1050 X100.697 Y102.96 E61.45778
G0 F2400 X100.697 Y102.394
G1 F1050 X97.623 Y99.32 E61.67467
G0 F2400 X98.188 Y99.32
G1 F1050 X100.697 Y101.829 E61.85169
G0 F2400 X100.697 Y101.263
G1 F1050 X98.754 Y99.32 E61.98878
G0 F2400 X99.32 Y99.32
G1 F1050 X100.697 Y100.697 E62.08594
G0 F2400 X100.697 Y100.131
G1 F1050 X99.885 Y99.32 E62.14319
G0 F2400 X100.451 Y99.32
G1 F1050 X100.697 Y99.566 E62.16055
G0 F2400 X101.64 Y103.378
G0 X103.337 Y105.6
G1 F1050 X105.197 Y107.46 E62.29178
G0 F2400 X105.197 Y108.026
G1 F1050 X103.337 Y106.166 E62.42302
G0 F2400 X103.337 Y106.732
G1 F1050 X105.197 Y108.591 E62.55421
G0 F2400 X105.198 Y109.158
G1 F1050 X103.337 Y107.297 E62.68552
G0 F2400 X103.337 Y107.863
G1 F1050 X105.198 Y109.723 E62.81679
G0 F2400 X105.198 Y110.289
G1 F1050 X103.337 Y108.429 E62.94805
G0 F2400 X103.337 Y108.994
G1 F1050 X105.198 Y110.855 E63.07936
G0 F2400 X105.198 Y111.42
G1 F1050 X103.337 Y109.56 E63.21063
G0 F2400 X103.337 Y110.126
G1 F1050 X105.198 Y111.986 E63.34189
G0 F2400 X105.198 Y112.552
G1 F1050 X103.337 Y110.691 E63.4732
G0 F2400 X102.899 Y110.819
G1 F1050 X104.759 Y112.679 E63.60443
G0 F2400 X104.194 Y112.679
G1 F1050 X102.333 Y110.819 E63.7357
G0 F2400 X101.768 Y110.819
G1 F1050 X103.628 Y112.679 E63.86693
G0 F2400 X103.062 Y112.679
