;FLAVOR:Marlin
;TIME:2353
;Filament used: 1.89329m
;Layer height: 0.16
;Generated with Cura_SteamEngine 3.6.0
M140 S60
M105
M190 S60
M104 S200
M105
M109 S200
M82 ;absolute extrusion mode
G21 ;metric values
G90 ;absolute positioning
M82 ;set extruder to absolute mode
M107 ;start with the fan off
G28 X0 Y0 ;move X/Y to min endstops
G28 Z0 ;move Z to min endstops
G1 Z15.0 F120 ;move the platform down 15mm
G92 E0 ;zero the extruded length
G1 F200 E6 ;extrude 6 mm of feed stock
G92 E0 ;zero the extruded length again
M117 Printing...
G1 F120
G92 E0
G1 F2400 E-2.5
;LAYER_COUNT:219
;LAYER:0
M107
G0 F3600 X91.236 Y83.16 Z0.2
;TYPE:SKIRT
G1 F2400 E0
G1 F1200 X91.633 Y82.757 E0.01882
G1 X92.083 Y82.415 E0.03761
G1 X92.576 Y82.139 E0.05641
G1 X93.104 Y81.935 E0.07523
G1 X93.654 Y81.808 E0.09401
G1 X94.277 Y81.759 E0.11479
G1 X114.259 Y81.76 E0.7794
G1 X114.823 Y81.8 E0.7982
G1 X115.376 Y81.919 E0.81702
G1 X115.906 Y82.115 E0.83581
G1 X116.404 Y82.383 E0.85462
G1 X116.858 Y82.72 E0.87343
G1 X117.261 Y83.116 E0.89222
G1 X117.604 Y83.566 E0.91104
G1 X117.879 Y84.059 E0.92981
G1 X118.083 Y84.587 E0.94864
G1 X118.21 Y85.138 E0.96745
G1 X118.259 Y85.76 E0.9882
G1 X118.258 Y106.741 E1.68603
G1 X118.218 Y107.305 E1.70483
G1 X118.099 Y107.858 E1.72365
G1 X117.903 Y108.388 E1.74244
G1 X117.635 Y108.886 E1.76125
G1 X117.298 Y109.34 E1.78006
G1 X116.985 Y109.667 E1.79511
G1 X114.727 Y111.771 E1.89777
G1 X109.634 Y117.025 E2.14114
G1 X109.213 Y117.402 E2.15994
G1 X108.743 Y117.716 E2.17874
G1 X108.233 Y117.961 E2.19756
G1 X107.694 Y118.131 E2.21635
G1 X107.136 Y118.223 E2.23516
G1 X106.762 Y118.241 E2.24762
G1 X97.14 Y118.24 E2.56765
G1 X96.576 Y118.2 E2.58645
G1 X96.023 Y118.081 E2.60527
G1 X95.493 Y117.885 E2.62406
G1 X94.995 Y117.616 E2.64289
G1 X94.541 Y117.28 E2.66167
G1 X94.138 Y116.884 E2.68046
G1 X93.795 Y116.434 E2.69928
G1 X93.519 Y115.94 E2.7181
G1 X93.38 Y115.604 E2.7302
G1 X91.904 Y111.534 E2.87419
G1 X90.57 Y108.242 E2.99233
G1 X90.395 Y107.705 E3.01112
G1 X90.298 Y107.148 E3.02992
G1 X90.277 Y106.74 E3.04351
G1 X90.277 Y85.759 E3.74134
G1 X90.317 Y85.195 E3.76015
G1 X90.436 Y84.642 E3.77896
G1 X90.632 Y84.112 E3.79776
G1 X90.9 Y83.615 E3.81654
G1 X91.236 Y83.16 E3.83535
G0 F3600 X91.632 Y83.317
G1 F1200 X92.024 Y82.951 E3.85319
G1 X92.466 Y82.648 E3.87101
G1 X92.949 Y82.413 E3.88888
G1 X93.46 Y82.253 E3.90669
G1 X93.99 Y82.17 E3.92453
G1 X94.277 Y82.159 E3.93408
G1 X114.259 Y82.16 E4.59868
G1 X114.794 Y82.2 E4.61653
G1 X115.317 Y82.319 E4.63437
G1 X115.816 Y82.514 E4.65219
G1 X116.281 Y82.782 E4.67004
G1 X116.701 Y83.115 E4.68787
G1 X117.067 Y83.507 E4.7057
G1 X117.371 Y83.949 E4.72354
G1 X117.605 Y84.432 E4.7414
G1 X117.765 Y84.944 E4.75924
G1 X117.848 Y85.473 E4.77705
G1 X117.859 Y85.76 E4.7866
G1 X117.858 Y106.741 E5.48443
G1 X117.818 Y107.276 E5.50227
G1 X117.699 Y107.799 E5.52011
G1 X117.504 Y108.298 E5.53793
G1 X117.236 Y108.763 E5.55578
G1 X116.903 Y109.183 E5.57361
G1 X116.712 Y109.375 E5.58262
G1 X114.45 Y111.483 E5.68546
G1 X109.347 Y116.747 E5.9293
G1 X108.946 Y117.103 E5.94714
G1 X108.497 Y117.396 E5.96497
G1 X108.009 Y117.618 E5.9828
G1 X107.493 Y117.766 E6.00066
G1 X106.762 Y117.841 E6.0251
G1 X97.14 Y117.84 E6.34513
G1 X96.605 Y117.8 E6.36297
G1 X96.082 Y117.681 E6.38081
G1 X95.582 Y117.486 E6.39866
G1 X95.118 Y117.218 E6.41648
G1 X94.698 Y116.885 E6.43431
G1 X94.332 Y116.493 E6.45215
G1 X94.028 Y116.05 E6.47002
G1 X93.756 Y115.467 E6.49141
G1 X92.278 Y111.39 E6.63565
G1 X90.941 Y108.092 E6.75401
G1 X90.777 Y107.581 E6.77186
G1 X90.691 Y107.052 E6.78969
G1 X90.677 Y106.74 E6.80008
G1 X90.677 Y85.759 E7.49791
G1 X90.717 Y85.224 E7.51575
G1 X90.836 Y84.701 E7.53359
G1 X91.031 Y84.202 E7.55141
G1 X91.299 Y83.737 E7.56926
G1 X91.632 Y83.317 E7.58709
G0 F3600 X91.696 Y83.867
G1 F1200 X92.026 Y83.484 E7.6039
G1 X92.413 Y83.158 E7.62073
G1 X92.846 Y82.897 E7.63755
G1 X93.314 Y82.707 E7.65435
G1 X93.807 Y82.594 E7.67117
G1 X94.277 Y82.559 E7.68685
G1 X114.259 Y82.56 E8.35145
G1 X114.763 Y82.6 E8.36827
G1 X115.255 Y82.719 E8.3851
G1 X115.721 Y82.914 E8.4019
G1 X116.151 Y83.179 E8.4187
G1 X116.534 Y83.51 E8.43554
G1 X116.86 Y83.896 E8.45234
G1 X117.121 Y84.329 E8.46916
G1 X117.311 Y84.798 E8.48599
G1 X117.424 Y85.29 E8.50278
G1 X117.459 Y85.76 E8.51846
G1 X117.458 Y106.741 E9.21629
G1 X117.418 Y107.245 E9.2331
G1 X117.299 Y107.737 E9.24994
G1 X117.104 Y108.203 E9.26674
G1 X116.839 Y108.633 E9.28354
G1 X116.44 Y109.082 E9.30352
G1 X114.163 Y111.204 E9.40704
G1 X109.06 Y116.468 E9.65088
G1 X108.68 Y116.802 E9.66771
G1 X108.253 Y117.073 E9.68453
G1 X107.788 Y117.272 E9.70136
G1 X107.298 Y117.396 E9.71817
G1 X106.762 Y117.441 E9.73606
G1 X97.14 Y117.44 E10.05609
G1 X96.636 Y117.4 E10.0729
G1 X96.144 Y117.281 E10.08974
G1 X95.678 Y117.086 E10.10654
G1 X95.248 Y116.821 E10.12334
G1 X94.865 Y116.49 E10.14018
G1 X94.539 Y116.104 E10.15698
G1 X94.278 Y115.671 E10.1738
G1 X94.132 Y115.331 E10.1861
G1 X92.656 Y111.262 E10.33007
G1 X91.311 Y107.942 E10.44921
G1 X91.159 Y107.46 E10.46602
G1 X91.077 Y106.74 E10.49012
G1 X91.077 Y85.759 E11.18795
G1 X91.117 Y85.255 E11.20477
G1 X91.236 Y84.764 E11.22157
G1 X91.43 Y84.297 E11.23839
G1 X91.696 Y83.867 E11.25521
G1 F2400 E8.75521
;MESH:calicat.stl
G0 F3600 X93.603 Y86.364
G0 X94.882 Y86.364
G0 X101.598 Y94.08
G0 X101.668 Y94.15
;TYPE:WALL-INNER
G1 F2400 E11.25521
G1 F1200 X94.868 Y94.15 E11.48138
G1 X94.868 Y86.35 E11.7408
G1 X101.668 Y86.35 E11.96697
G1 X101.668 Y94.15 E12.2264
G0 F3600 X102.068 Y94.55
;TYPE:WALL-OUTER
G1 F1200 X94.468 Y94.55 E12.47918
G1 X94.468 Y85.95 E12.76522
G1 X102.068 Y85.95 E13.01799
G1 X102.068 Y94.55 E13.30403
G0 F3600 X101.868 Y94.55
G0 X101.598 Y94.08
G0 X101.278 Y93.76
;TYPE:SKIN
G1 F1200 X95.258 Y93.76 E13.50426
G1 X95.258 Y86.74 E13.73774
G1 X101.278 Y86.74 E13.93797
G1 X101.278 Y93.76 E14.17145
G0 F3600 X95.842 Y93.579
G1 F1200 X95.436 Y93.174 E14.19053
G0 F3600 X95.436 Y92.608
G1 F1200 X96.408 Y93.579 E14.23622
G0 F3600 X96.974 Y93.579
G1 F1200 X95.436 Y92.042 E14.30854
G0 F3600 X95.436 Y91.476
G1 F1200 X97.539 Y93.579 E14.40746
G0 F3600 X98.105 Y93.579
G1 F1200 X95.436 Y90.911 E14.53298
G0 F3600 X95.436 Y90.345
G1 F1200 X98.671 Y93.579 E14.68512
G0 F3600 X99.236 Y93.579
G1 F1200 X95.436 Y89.779 E14.86386
G0 F3600 X95.436 Y89.214
G1 F1200 X99.802 Y93.579 E15.0692
G0 F3600 X100.368 Y93.579
G1 F1200 X95.436 Y88.648 E15.30116
G0 F3600 X95.436 Y88.082
G1 F1200 X100.933 Y93.579 E15.55973
G0 F3600 X101.097 Y93.178
G1 F1200 X95.436 Y87.517 E15.826
G0 F3600 X95.436 Y86.951
G1 F1200 X101.097 Y92.612 E16.09228
G0 F3600 X101.097 Y92.046
G1 F1200 X95.97 Y86.919 E16.33344
G0 F3600 X96.536 Y86.919
G1 F1200 X101.097 Y91.481 E16.548
G0 F3600 X101.097 Y90.915
G1 F1200 X97.102 Y86.919 E16.73593
G0 F3600 X97.667 Y86.919
G1 F1200 X101.097 Y90.349 E16.89727
G0 F3600 X101.097 Y89.784
G1 F1200 X98.233 Y86.919 E17.03201
G0 F3600 X98.799 Y86.919
G1 F1200 X101.097 Y89.218 E17.14012
G0 F3600 X101.097 Y88.652
G1 F1200 X99.364 Y86.919 E17.22164
G0 F3600 X99.93 Y86.919
G1 F1200 X101.097 Y88.087 E17.27655
G0 F3600 X101.097 Y87.521
G1 F1200 X100.496 Y86.919 E17.30484
G1 X100.426 Y86.849
G1 F2400 E14.80484
G0 F3600 X101.648 Y94.08
G0 X102.933 Y94.08
G0 X105.603 Y94.08
G0 X106.888 Y94.08
G0 X113.598 Y94.08
G0 X113.668 Y94.15
;TYPE:WALL-INNER
G1 F2400 E17.30484
G1 F1200 X106.868 Y94.15 E17.53101
G1 X106.868 Y86.35 E17.79044
G1 X113.668 Y86.35 E18.01661
G1 X113.668 Y94.15 E18.27604
G0 F3600 X114.068 Y94.55
;TYPE:WALL-OUTER
G1 F1200 X106.468 Y94.55 E18.52882
G1 X106.468 Y85.95 E18.81485
G1 X114.068 Y85.95 E19.06763
G1 X114.068 Y94.55 E19.35367
G0 F3600 X113.868 Y94.55
G0 X113.598 Y94.08
G0 X113.278 Y93.76
;TYPE:SKIN
G1 F1200 X107.258 Y93.76 E19.55389
G1 X107.258 Y86.74 E19.78738
G1 X113.278 Y86.74 E19.98761
G1 X113.278 Y93.76 E20.22109
G0 F3600 X107.722 Y93.579
G1 F1200 X107.437 Y93.294 E20.2345
G0 F3600 X107.437 Y92.729
G1 F1200 X108.287 Y93.579 E20.27448
G0 F3600 X108.853 Y93.579
G1 F1200 X107.437 Y92.163 E20.34108
G0 F3600 X107.437 Y91.597
G1 F1200 X109.419 Y93.579 E20.43431
G0 F3600 X109.984 Y93.579
G1 F1200 X107.437 Y91.032 E20.55411
G0 F3600 X107.437 Y90.466
G1 F1200 X110.55 Y93.579 E20.70054
G0 F3600 X111.116 Y93.579
G1 F1200 X107.437 Y89.9 E20.87359
G0 F3600 X107.437 Y89.335
G1 F1200 X111.681 Y93.579 E21.07321
G0 F3600 X112.247 Y93.579
G1 F1200 X107.437 Y88.769 E21.29946
G0 F3600 X107.437 Y88.203
G1 F1200 X112.813 Y93.579 E21.55233
G0 F3600 X113.097 Y93.298
G1 F1200 X107.437 Y87.638 E21.81856
G0 F3600 X107.437 Y87.072
G1 F1200 X113.097 Y92.732 E22.08479
G0 F3600 X113.097 Y92.167
G1 F1200 X107.85 Y86.92 E22.33159
G0 F3600 X108.416 Y86.92
G1 F1200 X113.097 Y91.601 E22.55177
G0 F3600 X113.097 Y91.035
G1 F1200 X108.982 Y86.92 E22.74533
G0 F3600 X109.547 Y86.92
G1 F1200 X113.097 Y90.47 E22.91231
G0 F3600 X113.097 Y89.904
G1 F1200 X110.113 Y86.92 E23.05267
G0 F3600 X110.679 Y86.92
G1 F1200 X113.097 Y89.338 E23.1664
G0 F3600 X113.097 Y88.773
G1 F1200 X111.244 Y86.92 E23.25356
G0 F3600 X111.81 Y86.92
G1 F1200 X113.097 Y88.207 E23.3141
G0 F3600 X113.097 Y87.641
G1 F1200 X112.376 Y86.92 E23.34801
G0 F3600 X112.941 Y86.92
G1 F1200 X113.097 Y87.075 E23.35533
G1 F2400 E20.85533
G0 F3600 X106.882 Y94.136
G0 X106.882 Y95.415
G0 X106.882 Y97.085
G0 X106.882 Y98.364
G0 X106.896 Y103.378
G0 X106.098 Y106.08
G0 X106.168 Y106.15
;TYPE:WALL-INNER
G1 F2400 E23.35533
G1 F1200 X106.168 Y113.65 E23.60478
G1 X97.732 Y113.65 E23.88536
G1 X97.731 Y110.05 E24.0051
G1 X97.731 Y109.85 E24.01175
G1 X97.931 Y109.85 E24.01606
G1 X102.368 Y109.85 E24.16363
G1 X102.368 Y106.15 E24.2867
G1 X94.868 Y106.15 E24.53615
G1 X94.868 Y98.35 E24.79558
G1 X101.668 Y98.35 E25.02174
G1 X101.668 Y103.35 E25.18804
G1 X106.868 Y103.35 E25.361
G1 X106.868 Y98.35 E25.5273
G1 X113.668 Y98.35 E25.75347
G1 X113.668 Y106.15 E26.0129
G1 X106.168 Y106.15 E26.26235
G0 F3600 X106.568 Y106.55
;TYPE:WALL-OUTER
G1 F1200 X106.568 Y114.05 E26.5118
G1 X97.332 Y114.05 E26.81899
G1 X97.331 Y109.65 E26.96533
G1 X97.331 Y109.45 E26.97199
G1 X97.531 Y109.45 E26.97629
G1 X101.968 Y109.45 E27.12387
G1 X101.968 Y106.55 E27.22032
G1 X94.468 Y106.55 E27.46977
G1 X94.468 Y97.95 E27.75581
G1 X102.068 Y97.95 E28.00859
G1 X102.068 Y102.95 E28.17489
G1 X106.468 Y102.95 E28.32123
G1 X106.468 Y97.95 E28.48753
G1 X114.068 Y97.95 E28.74031
G1 X114.068 Y106.55 E29.02635
G1 X106.568 Y106.55 E29.2758
G0 F3600 X106.568 Y106.75
G0 X106.068 Y106.75
G0 X105.778 Y105.76
;TYPE:SKIN
G1 F1200 X105.778 Y113.26 E29.52525
G1 X98.122 Y113.26 E29.77989
G1 X98.121 Y110.24 E29.88033
G1 X102.758 Y110.24 E30.03456
G1 X102.758 Y105.76 E30.18357
G1 X95.258 Y105.76 E30.43302
G1 X95.258 Y98.74 E30.6665
G1 X101.278 Y98.74 E30.86673
G1 X101.278 Y103.74 E31.03303
G1 X107.258 Y103.74 E31.23193
G1 X107.258 Y98.74 E31.39823
G1 X113.278 Y98.74 E31.59845
G1 X113.278 Y105.76 E31.83194
G1 X105.778 Y105.76 E32.08139
G0 F3600 X113.097 Y99.521
G1 F1200 X112.496 Y98.919 E32.10968
G0 F3600 X111.93 Y98.919
G1 F1200 X113.097 Y100.086 E32.16458
G0 F3600 X113.097 Y100.652
G1 F1200 X111.365 Y98.919 E32.24607
G0 F3600 X110.799 Y98.919
G1 F1200 X113.097 Y101.218 E32.35418
G0 F3600 X113.097 Y101.783
G1 F1200 X110.233 Y98.919 E32.4889
G0 F3600 X109.668 Y98.919
G1 F1200 X113.097 Y102.349 E32.65021
G0 F3600 X113.097 Y102.915
G1 F1200 X109.102 Y98.919 E32.83814
G0 F3600 X108.536 Y98.919
G1 F1200 X113.097 Y103.48 E33.05268
G0 F3600 X113.097 Y104.046
G1 F1200 X107.97 Y98.919 E33.29384
G0 F3600 X107.437 Y98.951
G1 F1200 X113.097 Y104.612 E33.56009
G0 F3600 X113.097 Y105.177
G1 F1200 X107.437 Y99.517 E33.82632
G0 F3600 X107.437 Y100.083
G1 F1200 X112.933 Y105.579 E34.08483
G0 F3600 X112.367 Y105.579
G1 F1200 X107.437 Y100.648 E34.31675
G0 F3600 X107.437 Y101.214
G1 F1200 X111.802 Y105.579 E34.52207
G0 F3600 X111.236 Y105.579
G1 F1200 X107.437 Y101.78 E34.70076
G0 F3600 X107.437 Y102.345
G1 F1200 X110.67 Y105.579 E34.85285
G0 F3600 X110.105 Y105.579
G1 F1200 X107.437 Y102.911 E34.97835
G0 F3600 X107.437 Y103.477
G1 F1200 X109.539 Y105.579 E35.07722
G0 F3600 X108.973 Y105.579
G1 F1200 X107.314 Y103.919 E35.15528
G0 F3600 X106.748 Y103.919
G1 F1200 X108.407 Y105.579 E35.23334
G0 F3600 X107.842 Y105.579
G1 F1200 X106.182 Y103.919 E35.31142
G0 F3600 X105.617 Y103.919
G1 F1200 X107.276 Y105.579 E35.38947
G0 F3600 X106.71 Y105.579
G1 F1200 X105.051 Y103.919 E35.46753
G0 F3600 X104.485 Y103.919
G1 F1200 X106.145 Y105.579 E35.54561
G0 F3600 X105.597 Y105.597
G1 F1200 X103.919 Y103.919 E35.62454
G0 F3600 X103.354 Y103.919
G1 F1200 X105.597 Y106.163 E35.73007
G0 F3600 X105.597 Y106.729
G1 F1200 X102.788 Y103.919 E35.86222
G0 F3600 X102.222 Y103.919
G1 F1200 X105.597 Y107.294 E36.02097
G0 F3600 X105.597 Y107.86
G1 F1200 X101.657 Y103.919 E36.20632
G0 F3600 X101.097 Y103.36
G1 F1200 X96.657 Y98.919 E36.41519
G0 F3600 X97.222 Y98.919
G1 F1200 X101.097 Y102.794 E36.59745
G0 F3600 X101.097 Y102.229
G1 F1200 X97.788 Y98.919 E36.75312
G1 X97.718 Y98.849
G0 F3600 X96.091 Y98.919
G1 F1200 X102.751 Y105.579 E37.06639
G0 F3600 X102.937 Y105.766
G1 F1200 X105.597 Y108.426 E37.19151
G0 F3600 X105.597 Y108.992
G1 F1200 X102.937 Y106.331 E37.31665
G0 F3600 X102.937 Y106.897
G1 F1200 X105.597 Y109.557 E37.44177
G0 F3600 X105.597 Y110.123
G1 F1200 X102.937 Y107.463 E37.56688
G0 F3600 X102.937 Y108.028
G1 F1200 X105.597 Y110.689 E37.69203
G0 F3600 X105.597 Y111.254
G1 F1200 X102.937 Y108.594 E37.81714
G0 F3600 X102.937 Y109.16
G1 F1200 X105.597 Y111.82 E37.94226
G0 F3600 X105.597 Y112.386
G1 F1200 X102.937 Y109.726 E38.06738
G0 F3600 X102.937 Y110.291
G1 F1200 X105.597 Y112.951 E38.1925
G0 F3600 X105.159 Y113.079
G1 F1200 X102.5 Y110.419 E38.31759
G0 F3600 X101.934 Y110.419
G1 F1200 X104.593 Y113.079 E38.44269
G0 F3600 X104.028 Y113.079
G1 F1200 X101.368 Y110.419 E38.56781
G0 F3600 X100.803 Y110.419
G1 F1200 X103.462 Y113.079 E38.6929
G0 F3600 X102.896 Y113.079
G1 F1200 X100.237 Y110.419 E38.818
G0 F3600 X99.671 Y110.419
G1 F1200 X102.331 Y113.079 E38.94312
G0 F3600 X101.765 Y113.079
G1 F1200 X99.105 Y110.419 E39.06823
G0 F3600 X98.54 Y110.419
G1 F1200 X101.199 Y113.079 E39.19333
G0 F3600 X100.634 Y113.079
G1 F1200 X98.301 Y110.746 E39.30307
G0 F3600 X98.301 Y111.312
G1 F1200 X100.068 Y113.079 E39.38618
G0 F3600 X99.502 Y113.079
G1 F1200 X98.301 Y111.877 E39.44269
G0 F3600 X98.301 Y112.443
G1 F1200 X98.936 Y113.079 E39.47259
G0 F3600 X98.371 Y113.079
G1 F1200 X98.301 Y113.009 E39.47588
G0 F3600 X102.396 Y109.878
G0 X102.396 Y106.122
G0 X98.225 Y105.579
G1 F1200 X95.437 Y102.791 E39.60702
G0 F3600 X95.437 Y103.357
G1 F1200 X97.659 Y105.579 E39.71153
G0 F3600 X97.094 Y105.579
G1 F1200 X95.437 Y103.922 E39.78947
G1 X95.367 Y103.852
G0 F3600 X95.437 Y102.225
G1 F1200 X98.791 Y105.579 E39.94724
G0 F3600 X99.356 Y105.579
G1 F1200 X95.437 Y101.66 E40.13157
G0 F3600 X95.437 Y101.094
G1 F1200 X99.922 Y105.579 E40.34253
G0 F3600 X100.488 Y105.579
G1 F1200 X95.437 Y100.528 E40.58012
G0 F3600 X95.437 Y99.962
G1 F1200 X101.054 Y105.579 E40.84432
G0 F3600 X101.619 Y105.579
G1 F1200 X95.437 Y99.397 E41.13511
G0 F3600 X95.525 Y98.919
G1 F1200 X102.185 Y105.579 E41.44837
G1 X102.255 Y105.649
G0 F3600 X101.097 Y101.663
G1 F1200 X98.354 Y98.919 E41.57742
G0 F3600 X98.919 Y98.919
G1 F1200 X101.097 Y101.097 E41.67987
G0 F3600 X101.097 Y100.532
G1 F1200 X99.485 Y98.919 E41.75571
G0 F3600 X100.051 Y98.919
G1 F1200 X101.097 Y99.966 E41.80494
G0 F3600 X101.097 Y99.4
G1 F1200 X100.617 Y98.919 E41.82754
G0 F3600 X95.437 Y104.488
G1 F1200 X96.528 Y105.579 E41.87885
G0 F3600 X95.962 Y105.579
G1 F1200 X95.437 Y105.054 E41.90355
G1 F2400 E39.40355
;MESH:NONMESH
G0 F3600 X101.598 Y98.37
G0 X101.598 Y97.085
G0 X101.598 Y95.415
G0 X101.598 Y94.13
G0 X101.598 Y94.08
G0 X101.668 Y94.15
;TIME_ELAPSED:76.267978
;LAYER:1
M140 S60
M106 S255
;MESH:calicat.stl
G0 F5400 X101.668 Y94.15 Z0.36
;TYPE:WALL-INNER
G1 F2400 E41.90355
G1 F2220 X94.868 Y94.15 E42.08448
G1 X94.868 Y86.35 E42.29203
G1 X101.668 Y86.35 E42.47296
G1 X101.668 Y94.15 E42.68051
G0 F5400 X102.068 Y94.55
;TYPE:WALL-OUTER
G1 F1410 X94.468 Y94.55 E42.88273
G1 X94.468 Y85.95 E43.11156
G1 X102.068 Y85.95 E43.31378
G1 X102.068 Y94.55 E43.54261
G0 F5400 X101.868 Y94.55
G0 X101.598 Y94.08
G0 X101.278 Y93.76
