;FLAVOR:Marlin
;TIME:1613
;Filament used: 1.31655m
;Layer height: 0.2
;Generated with Cura_SteamEngine 3.6.0
M140 S65
M105
M190 S65
M104 S205
M105
M109 S205
M82 ;absolute extrusion mode
G21 ;metric values
G90 ;absolute positioning
M82 ;set extruder to absolute mode
M107 ;start with the fan off
G28 X0 Y0 ;move X/Y to min endstops
G28 Z0 ;move Z to min endstops
G1 Z15.0 F80 ;move the platform down 15mm
G92 E0 ;zero the extruded length
G1 F200 E6 ;extrude 6 mm of feed stock
G92 E0 ;zero the extruded length again
G1 F80
;Put printing message on LCD screen
M117 Printing...
G92 E0
G1 F2400 E-3.5
;LAYER_COUNT:13
;LAYER:0
M107
G0 F2400 X83.235 Y42.863 Z0.3
;TYPE:SKIRT
G1 F2400 E0
G1 F1200 X83.579 Y42.262 E0.03455
G1 X83.991 Y41.705 E0.06911
G1 X84.679 Y41.004 E0.11812
G1 X86.567 Y39.372 E0.24262
G1 X87.144 Y38.931 E0.27885
G1 X89.263 Y37.507 E0.40622
G1 X89.715 Y37.232 E0.43262
G1 X90.855 Y36.604 E0.49755
G1 X91.337 Y36.366 E0.52437
G1 X93.661 Y35.345 E0.65101
G1 X94.251 Y35.122 E0.68248
G1 X96.139 Y34.52 E0.78135
G1 X96.744 Y34.361 E0.81255
G1 X99.243 Y33.843 E0.93988
G1 X99.944 Y33.74 E0.97523
G1 X102.489 Y33.52 E1.10267
G1 X103.195 Y33.501 E1.13791
G1 X105.733 Y33.581 E1.26459
G1 X106.434 Y33.644 E1.29971
G1 X108.94 Y34.02 E1.42613
G1 X109.534 Y34.14 E1.45636
G1 X111.313 Y34.594 E1.54796
G1 X111.895 Y34.775 E1.57837
G1 X114.27 Y35.646 E1.70458
G1 X114.914 Y35.926 E1.73961
G1 X117.188 Y37.077 E1.86677
G1 X117.796 Y37.431 E1.90187
G1 X119.923 Y38.843 E2.02924
G1 X120.495 Y39.274 E2.06497
G1 X122.46 Y40.947 E2.19372
G1 X122.96 Y41.425 E2.22823
G1 X123.402 Y41.958 E2.26278
G1 X123.78 Y42.539 E2.29736
G1 X124.088 Y43.159 E2.3319
G1 X124.323 Y43.81 E2.36643
G1 X124.481 Y44.485 E2.40101
G1 X124.57 Y45.511 E2.45239
G1 X124.593 Y82.44 E4.29479
G1 X124.747 Y87.871 E4.56585
G1 X125.195 Y93.144 E4.82987
G1 X125.946 Y98.415 E5.0955
G1 X127.001 Y103.677 E5.36324
G1 X127.612 Y106.167 E5.49116
G1 X128.53 Y109.476 E5.66248
G1 X128.637 Y109.93 E5.68575
G1 X129.809 Y115.928 E5.99065
G1 X131.374 Y121.928 E6.3
G1 X131.501 Y122.546 E6.33148
G1 X132.431 Y128.699 E6.64194
G1 X132.498 Y129.558 E6.68493
G1 X132.548 Y137.511 E7.08171
G1 X132.512 Y138.203 E7.11628
G1 X132.397 Y138.886 E7.15084
G1 X132.204 Y139.551 E7.18538
G1 X131.936 Y140.189 E7.21991
G1 X131.668 Y140.678 E7.24773
G1 X130.595 Y142.434 E7.3504
G1 X127.982 Y147.095 E7.61698
G1 X125.121 Y153.085 E7.94816
G1 X124.58 Y154.295 E8.01429
G1 X124.262 Y154.91 E8.04883
G1 X123.875 Y155.484 E8.08337
G1 X123.361 Y156.074 E8.12241
G1 X122.97 Y156.468 E8.1501
G1 X122.454 Y156.931 E8.18469
G1 X121.889 Y157.331 E8.21923
G1 X121.282 Y157.663 E8.25374
G1 X120.64 Y157.924 E8.28832
G1 X119.972 Y158.108 E8.32289
G1 X119.066 Y158.232 E8.36851
G1 X113.675 Y158.551 E8.63794
G1 X108.415 Y159.163 E8.90213
G1 X102.077 Y160.294 E9.22333
G1 X101.574 Y160.362 E9.24865
G1 X99.689 Y160.536 E9.34309
G1 X94.374 Y161.226 E9.61049
G1 X89.115 Y162.213 E9.87744
G1 X86.555 Y162.808 E10.00856
G1 X84.026 Y163.47 E10.13899
G1 X78.866 Y165.06 E10.40836
G1 X75.785 Y166.157 E10.57153
G1 X75.12 Y166.352 E10.6061
G1 X74.437 Y166.468 E10.64066
G1 X73.746 Y166.505 E10.67519
G1 X73.055 Y166.462 E10.70973
G1 X72.373 Y166.34 E10.74429
G1 X71.71 Y166.14 E10.77884
G1 X71.075 Y165.864 E10.81339
G1 X70.475 Y165.518 E10.84794
G1 X69.919 Y165.105 E10.8825
G1 X69.415 Y164.63 E10.91705
G1 X68.969 Y164.1 E10.95161
G1 X68.765 Y163.812 E10.96921
G1 X68.448 Y163.332 E10.99791
G1 X68.101 Y162.733 E11.03245
G1 X67.824 Y162.098 E11.06701
G1 X67.623 Y161.435 E11.10158
G1 X67.499 Y160.754 E11.13611
G1 X67.455 Y160.062 E11.1707
G1 X67.491 Y159.371 E11.20522
G1 X67.606 Y158.688 E11.23978
G1 X67.729 Y158.232 E11.26334
G1 X68.424 Y156.013 E11.37935
G1 X69.816 Y150.846 E11.64632
G1 X70.904 Y145.654 E11.91098
G1 X71.702 Y140.38 E12.1771
G1 X72.2 Y135.075 E12.44293
G1 X72.401 Y130.155 E12.68859
G1 X72.469 Y129.465 E12.72318
G1 X72.616 Y128.789 E12.7577
G1 X72.892 Y128.01 E12.79893
G1 X75.333 Y122.387 E13.10476
G1 X77.251 Y117.401 E13.37128
G1 X78.874 Y112.339 E13.63649
G1 X80.229 Y107.117 E13.90564
G1 X80.758 Y104.645 E14.03176
G1 X81.663 Y99.338 E14.30035
G1 X82.257 Y94.076 E14.56454
G1 X82.555 Y88.745 E14.83092
G1 X82.603 Y45.536 E16.98663
G1 X82.644 Y44.845 E17.02116
G1 X82.764 Y44.163 E17.05571
G1 X82.962 Y43.499 E17.09028
G1 X83.235 Y42.863 E17.12481
G0 F2400 X83.634 Y42.961
G1 F1200 X83.977 Y42.387 E17.15817
G1 X84.387 Y41.857 E17.1916
G1 X84.941 Y41.306 E17.23058
G1 X86.829 Y39.674 E17.35509
G1 X87.367 Y39.263 E17.38886
G1 X89.486 Y37.839 E17.51623
G1 X89.908 Y37.582 E17.54088
G1 X91.048 Y36.954 E17.60582
G1 X91.498 Y36.732 E17.63085
G1 X93.822 Y35.711 E17.75749
G1 X94.373 Y35.503 E17.78688
G1 X96.261 Y34.901 E17.88574
G1 X96.825 Y34.753 E17.91483
G1 X99.324 Y34.235 E18.04216
G1 X99.979 Y34.139 E18.07518
G1 X102.524 Y33.919 E18.20263
G1 X103.182 Y33.901 E18.23547
G1 X105.72 Y33.981 E18.36215
G1 X106.375 Y34.04 E18.39496
G1 X108.881 Y34.416 E18.52139
G1 X109.435 Y34.528 E18.54959
G1 X111.214 Y34.982 E18.64118
G1 X111.757 Y35.15 E18.66954
G1 X114.132 Y36.021 E18.79575
G1 X114.733 Y36.283 E18.82846
G1 X117.007 Y37.434 E18.95561
G1 X117.575 Y37.764 E18.98839
G1 X119.702 Y39.176 E19.11576
G1 X120.235 Y39.578 E19.14906
G1 X122.2 Y41.251 E19.27782
G1 X122.683 Y41.714 E19.3112
G1 X123.107 Y42.232 E19.34459
G1 X123.466 Y42.797 E19.37799
G1 X123.755 Y43.4 E19.41135
G1 X123.97 Y44.033 E19.4447
G1 X124.109 Y44.688 E19.47811
G1 X124.17 Y45.512 E19.51933
G1 X124.193 Y82.452 E21.36227
G1 X124.347 Y87.881 E21.63324
G1 X124.799 Y93.2 E21.89956
G1 X125.551 Y98.479 E22.16559
G1 X126.61 Y103.76 E22.4343
G1 X127.232 Y106.296 E22.56458
G1 X128.144 Y109.583 E22.73476
G1 X128.244 Y110.007 E22.75649
G1 X129.416 Y116.009 E23.06159
G1 X130.987 Y122.029 E23.37199
G1 X131.105 Y122.606 E23.40137
G1 X132.035 Y128.759 E23.71183
G1 X132.098 Y129.561 E23.75197
G1 X132.148 Y137.514 E24.14875
G1 X132.112 Y138.182 E24.18213
G1 X131.997 Y138.841 E24.2155
G1 X131.804 Y139.482 E24.2489
G1 X131.536 Y140.095 E24.28228
G1 X131.326 Y140.469 E24.30368
G1 X130.256 Y142.219 E24.40601
G1 X127.626 Y146.911 E24.67436
G1 X124.767 Y152.897 E25.00532
G1 X124.215 Y154.132 E25.07281
G1 X123.906 Y154.725 E25.10617
G1 X123.529 Y155.278 E25.13956
G1 X123.077 Y155.793 E25.17374
G1 X122.686 Y156.187 E25.20144
G1 X122.187 Y156.633 E25.23483
G1 X121.639 Y157.016 E25.26818
G1 X121.049 Y157.331 E25.30155
G1 X120.425 Y157.573 E25.33494
G1 X119.777 Y157.74 E25.36833
G1 X119.042 Y157.832 E25.40528
G1 X113.657 Y158.151 E25.67441
G1 X108.35 Y158.768 E25.94096
G1 X102.007 Y159.9 E26.26241
G1 X101.538 Y159.963 E26.28602
G1 X99.655 Y160.137 E26.38037
G1 X94.321 Y160.829 E26.64871
G1 X89.016 Y161.825 E26.918
G1 X86.477 Y162.415 E27.04805
G1 X83.927 Y163.083 E27.17956
G1 X78.727 Y164.685 E27.45102
G1 X75.651 Y165.78 E27.61392
G1 X75.008 Y165.967 E27.64733
G1 X74.348 Y166.075 E27.68069
G1 X73.68 Y166.104 E27.71405
G1 X73.012 Y166.053 E27.74747
G1 X72.356 Y165.923 E27.78084
G1 X71.72 Y165.716 E27.81421
G1 X71.113 Y165.434 E27.8476
G1 X70.545 Y165.081 E27.88096
G1 X70.022 Y164.664 E27.91434
G1 X69.553 Y164.187 E27.94771
G1 X69.099 Y163.591 E27.98509
G1 X68.782 Y163.111 E28.01379
G1 X68.447 Y162.532 E28.04716
G1 X68.184 Y161.917 E28.08053
G1 X67.996 Y161.275 E28.1139
G1 X67.886 Y160.615 E28.14729
G1 X67.856 Y159.946 E28.1807
G1 X67.905 Y159.279 E28.21406
G1 X68.111 Y158.352 E28.26144
G1 X68.804 Y156.14 E28.37709
G1 X70.204 Y150.944 E28.64556
G1 X71.301 Y145.71 E28.91236
G1 X72.098 Y140.44 E29.17827
G1 X72.6 Y135.091 E29.4463
G1 X72.801 Y130.171 E29.69197
G1 X72.868 Y129.505 E29.72536
G1 X73.014 Y128.852 E29.75875
G1 X73.259 Y128.17 E29.7949
G1 X75.699 Y122.551 E30.10052
G1 X77.63 Y117.53 E30.36891
G1 X79.262 Y112.439 E30.63563
G1 X80.614 Y107.226 E30.90431
G1 X81.155 Y104.704 E31.033
G1 X82.057 Y99.415 E31.30068
G1 X82.657 Y94.089 E31.56807
G1 X82.955 Y88.768 E31.83396
G1 X83.003 Y45.537 E33.99076
G1 X83.044 Y44.869 E34.02415
G1 X83.164 Y44.211 E34.05752
G1 X83.361 Y43.572 E34.09088
G1 X83.634 Y42.961 E34.12427
G0 F2400 X84.033 Y43.062
G1 F1200 X84.375 Y42.516 E34.15641
G1 X84.782 Y42.016 E34.18857
G1 X85.202 Y41.609 E34.21775
G1 X87.09 Y39.977 E34.34226
G1 X87.591 Y39.595 E34.37369
G1 X89.71 Y38.171 E34.50106
G1 X90.101 Y37.932 E34.52392
G1 X91.241 Y37.304 E34.58886
G1 X91.658 Y37.098 E34.61206
G1 X93.982 Y36.077 E34.7387
G1 X94.494 Y35.884 E34.766
G1 X96.382 Y35.282 E34.86486
G1 X96.907 Y35.144 E34.89195
G1 X99.406 Y34.626 E35.01927
G1 X100.013 Y34.537 E35.04988
G1 X102.558 Y34.317 E35.17732
G1 X103.17 Y34.301 E35.20787
G1 X105.708 Y34.381 E35.33455
G1 X106.316 Y34.436 E35.36501
G1 X108.822 Y34.812 E35.49143
G1 X109.336 Y34.915 E35.51759
G1 X111.115 Y35.369 E35.60919
G1 X111.619 Y35.526 E35.63552
G1 X113.994 Y36.397 E35.76173
G1 X114.552 Y36.639 E35.79207
G1 X116.826 Y37.79 E35.91923
G1 X117.354 Y38.098 E35.94972
G1 X119.481 Y39.51 E36.07709
G1 X119.976 Y39.883 E36.10802
G1 X121.941 Y41.556 E36.23677
G1 X122.405 Y42.003 E36.26891
G1 X122.81 Y42.505 E36.30109
G1 X123.15 Y43.052 E36.33322
G1 X123.419 Y43.638 E36.36539
G1 X123.614 Y44.253 E36.39758
G1 X123.732 Y44.886 E36.42971
G1 X123.77 Y45.512 E36.46099
G1 X123.793 Y82.463 E38.30449
G1 X123.947 Y87.909 E38.5763
G1 X124.4 Y93.236 E38.84302
G1 X125.157 Y98.545 E39.11057
G1 X126.222 Y103.86 E39.38101
G1 X126.838 Y106.37 E39.50995
G1 X127.759 Y109.69 E39.68184
G1 X127.852 Y110.083 E39.70199
G1 X129.029 Y116.109 E40.0083
G1 X130.6 Y122.13 E40.31875
G1 X130.71 Y122.666 E40.34605
G1 X131.64 Y128.819 E40.65651
G1 X131.698 Y129.563 E40.69374
G1 X131.748 Y137.516 E41.09053
G1 X131.712 Y138.16 E41.1227
G1 X131.597 Y138.794 E41.15485
G1 X131.404 Y139.409 E41.18701
G1 X130.985 Y140.261 E41.23438
G1 X129.9 Y142.037 E41.33821
G1 X127.274 Y146.722 E41.60616
G1 X124.406 Y152.724 E41.93803
G1 X123.85 Y153.969 E42.00605
G1 X123.551 Y154.54 E42.03821
G1 X123.184 Y155.07 E42.07037
G1 X122.793 Y155.511 E42.09978
G1 X122.402 Y155.905 E42.12747
G1 X121.92 Y156.333 E42.15963
G1 X121.389 Y156.699 E42.1918
G1 X120.817 Y156.996 E42.22396
G1 X120.213 Y157.22 E42.2561
G1 X119.585 Y157.368 E42.28829
G1 X119.018 Y157.433 E42.31676
G1 X113.605 Y157.754 E42.58729
G1 X108.299 Y158.37 E42.85379
G1 X101.937 Y159.506 E43.17621
G1 X101.501 Y159.565 E43.19816
G1 X99.619 Y159.739 E43.29245
G1 X94.249 Y160.436 E43.56261
G1 X88.925 Y161.435 E43.83286
G1 X86.391 Y162.024 E43.96265
G1 X83.821 Y162.697 E44.09519
G1 X78.608 Y164.303 E44.36733
G1 X75.516 Y165.404 E44.53108
G1 X74.897 Y165.582 E44.56322
G1 X74.26 Y165.682 E44.59539
G1 X73.616 Y165.703 E44.62753
G1 X72.974 Y165.643 E44.6597
G1 X72.344 Y165.505 E44.69188
G1 X71.736 Y165.29 E44.72405
G1 X71.16 Y165.001 E44.7562
G1 X70.624 Y164.644 E44.78833
G1 X70.136 Y164.222 E44.82052
G1 X69.704 Y163.744 E44.85266
G1 X69.433 Y163.371 E44.87566
G1 X69.116 Y162.891 E44.90436
G1 X68.795 Y162.332 E44.93652
G1 X68.545 Y161.737 E44.96872
G1 X68.371 Y161.117 E45.00085
G1 X68.275 Y160.479 E45.03304
G1 X68.258 Y159.835 E45.06518
G1 X68.322 Y159.193 E45.09736
G1 X68.493 Y158.471 E45.13438
G1 X69.185 Y156.26 E45.24997
G1 X70.596 Y151.024 E45.52051
G1 X71.692 Y145.798 E45.78691
G1 X72.498 Y140.466 E46.05594
G1 X72.997 Y135.146 E46.32253
G1 X73.2 Y130.187 E46.57014
G1 X73.267 Y129.546 E46.60229
G1 X73.412 Y128.918 E46.63445
G1 X73.626 Y128.329 E46.66571
G1 X76.073 Y122.692 E46.9723
G1 X78.005 Y117.669 E47.24079
G1 X79.646 Y112.552 E47.50889
G1 X81.002 Y107.324 E47.77835
G1 X81.548 Y104.776 E47.90835
G1 X82.455 Y99.459 E48.17745
G1 X83.055 Y94.139 E48.44455
G1 X83.355 Y88.772 E48.71273
G1 X83.403 Y45.537 E50.86973
G1 X83.444 Y44.894 E50.90188
G1 X83.564 Y44.26 E50.93407
G1 X83.761 Y43.647 E50.96619
G1 X84.033 Y43.062 E50.99838
G1 F2400 E47.49838
;MESH:daisy_bookmark.stl
G0 F2400 X88.35 Y44.846
G0 X89.211 Y45.795
G0 X92.298 Y102.773
;TYPE:WALL-INNER
G1 F2400 E50.99838
G1 F1200 X98.466 Y102.773 E51.3061
G1 X98.466 Y51.29 E53.8746
G1 X98.82 Y51.109 E53.89443
G1 X99.749 Y50.731 E53.94447
G1 X100.682 Y50.441 E53.99321
G1 X101.635 Y50.234 E54.04187
G1 X102.603 Y50.108 E54.09057
G1 X103.593 Y50.066 E54.14001
G1 X104.582 Y50.108 E54.18939
G1 X105.55 Y50.234 E54.23809
G1 X106.504 Y50.441 E54.2868
G1 X107.436 Y50.731 E54.33549
G1 X108.365 Y51.109 E54.38553
G1 X108.719 Y51.29 E54.40537
G1 X108.719 Y102.773 E56.97386
G1 X114.888 Y102.773 E57.28164
G1 X114.888 Y48.113 E60.00863
G1 X113.582 Y47.112 E60.09073
G1 X112.598 Y46.459 E60.14965
G1 X111.568 Y45.873 E60.20877
G1 X110.499 Y45.36 E60.26792
G1 X109.399 Y44.923 E60.32697
G1 X108.271 Y44.562 E60.38606
G1 X107.121 Y44.279 E60.44515
G1 X105.955 Y44.077 E60.50419
G1 X104.776 Y43.954 E60.56333
G1 X103.593 Y43.914 E60.62238
G1 X102.41 Y43.954 E60.68143
G1 X101.23 Y44.077 E60.74062
G1 X100.064 Y44.279 E60.79966
G1 X98.914 Y44.562 E60.85875
G1 X97.786 Y44.923 E60.91783
G1 X96.686 Y45.36 E60.97689
G1 X95.617 Y45.873 E61.03604
G1 X94.587 Y46.459 E61.09516
G1 X93.602 Y47.112 E61.15412
G1 X92.298 Y48.113 E61.23614
G1 X92.298 Y102.773 E63.96314
G0 F2400 X113.552 Y114.038
G1 F1200 X113.824 Y114.148 E63.97777
G1 X117.207 Y115.515 E64.15981
G1 X118.599 Y115.1 E64.23228
G1 X119.655 Y114.501 E64.29285
G1 X120.535 Y113.699 E64.35225
G1 X120.957 Y113.148 E64.38687
G1 X121.294 Y112.569 E64.4203
G1 X121.385 Y112.355 E64.4319
G1 X121.591 Y111.87 E64.45819
G1 X121.779 Y111.429 E64.48211
G1 X121.812 Y111.963 E64.49153
G1 X121.76 Y112.487 E64.51257
G1 X121.735 Y112.74 E64.52526
G1 X121.391 Y114.444 E64.61198
G1 X120.917 Y115.959 E64.69118
G1 X119.818 Y117.155 E64.77221
G1 X117.849 Y117.882 E64.87693
G1 X116.926 Y118.061 E64.92384
G1 X115.896 Y118.391 E64.9778
G1 X115.063 Y118.766 E65.02337
G1 X113.646 Y119.582 E65.10495
G1 X114.059 Y121.075 E65.18223
G1 X118.658 Y120.994 E65.41171
G1 X119.497 Y120.459 E65.46136
G1 X120.064 Y120.249 E65.49152
G1 X120.655 Y120.166 E65.5213
G1 X121.341 Y120.23 E65.55567
G1 X121.997 Y120.462 E65.59039
G1 X122.597 Y120.857 E65.62622
G1 X123.204 Y121.445 E65.66839
G1 X123.777 Y122.14 E65.71333
G1 X124.276 Y122.922 E65.75961
G1 X124.614 Y123.728 E65.80321
G1 X124.829 Y124.973 E65.86624
G1 X124.862 Y125.48 E65.89159
G1 X124.896 Y126.021 E65.91863
G1 X124.908 Y126.206 E65.92788
G1 X124.796 Y126.027 E65.93003
G1 X124.489 Y125.58 E65.9473
G1 X124.319 Y125.333 E65.96226
G1 X123.695 Y124.65 E66.00842
G1 X122.804 Y124.018 E66.06292
G1 X121.816 Y123.596 E66.11652
G1 X120.793 Y123.358 E66.16892
G1 X119.652 Y123.274 E66.226
G1 X118.488 Y123.4 E66.28441
G1 X117.364 Y123.773 E66.34349
G1 X116.129 Y124.505 E66.41512
G1 X114.973 Y125.177 E66.48183
G1 X113.23 Y126.114 E66.58055
G1 X113.52 Y127.569 E66.65457
G1 X117.479 Y127.947 E66.85299
G1 X118.032 Y127.902 E66.88067
G1 X118.419 Y127.933 E66.90003
G1 X118.783 Y128.02 E66.91871
G1 X119.17 Y128.193 E66.93986
G1 X119.522 Y128.453 E66.96169
G1 X119.628 Y128.567 E66.96945
G1 X119.711 Y128.687 E66.97673
G1 X119.822 Y128.928 E66.98997
G1 X119.896 Y129.207 E67.00437
G1 X119.929 Y129.489 E67.01854
G1 X119.867 Y130.684 E67.07824
G1 X119.768 Y131.753 E67.1318
G1 X119.858 Y132.721 E67.1803
G1 X119.879 Y132.958 E67.19217
G1 X120.049 Y133.392 E67.21542
G1 X119.739 Y133.117 E67.22036
G1 X119.561 Y132.959 E67.22963
G1 X119.015 Y132.475 E67.26603
G1 X117.682 Y131.652 E67.34419
G1 X116.512 Y131.217 E67.40647
G1 X115.373 Y130.909 E67.46533
G1 X114.173 Y130.655 E67.52653
G1 X113.522 Y130.625 E67.55904
G1 X113.075 Y130.667 E67.58144
G1 X112.624 Y130.775 E67.60457
G1 X112.131 Y130.984 E67.63129
G1 X111.678 Y131.284 E67.6584
G1 X111.285 Y131.662 E67.6856
G1 X110.969 Y132.108 E67.71287
G1 X110.741 Y132.603 E67.74006
G1 X110.41 Y133.906 E67.80713
G1 X112.35 Y134.637 E67.91056
G1 X113.146 Y134.334 E67.95305
G1 X113.377 Y134.28 E67.96489
G1 X113.589 Y134.254 E67.97555
G1 X113.908 Y134.254 E67.99146
G1 X114.213 Y134.298 E68.00683
G1 X114.487 Y134.382 E68.02113
G1 X114.75 Y134.511 E68.03575
G1 X114.977 Y134.672 E68.04963
G1 X115.167 Y134.864 E68.06311
G1 X115.396 Y135.212 E68.08389
G1 X115.574 Y135.619 E68.10605
G1 X115.736 Y136.125 E68.13256
G1 X115.996 Y137.203 E68.18788
G1 X116.184 Y138.286 E68.24272
G1 X116.348 Y139.617 E68.30963
G1 X118.034 Y140.542 E68.40557
G1 X119.268 Y141.169 E68.47463
