;FLAVOR:Marlin
;TIME:1844
;Filament used: 1.47395m
;Layer height: 0.2
;Generated with Cura_SteamEngine 3.6.0
M140 S65
M105
M190 S65
M104 S205
M105
M109 S205
M82 ;absolute extrusion mode
G21 ;metric values
G90 ;absolute positioning
M82 ;set extruder to absolute mode
M107 ;start with the fan off
G28 X0 Y0 ;move X/Y to min endstops
G28 Z0 ;move Z to min endstops
G1 Z15.0 F80 ;move the platform down 15mm
G92 E0 ;zero the extruded length
G1 F200 E6 ;extrude 6 mm of feed stock
G92 E0 ;zero the extruded length again
G1 F80
;Put printing message on LCD screen
M117 Printing...
G92 E0
G1 F2400 E-3.5
;LAYER_COUNT:11
;LAYER:0
M107
G0 F2400 X83.235 Y42.863 Z0.3
;TYPE:SKIRT
G1 F2400 E0
G1 F1200 X83.579 Y42.262 E0.03455
G1 X83.991 Y41.705 E0.06911
G1 X84.679 Y41.004 E0.11812
G1 X86.567 Y39.372 E0.24262
G1 X87.144 Y38.931 E0.27885
G1 X89.263 Y37.507 E0.40622
G1 X89.715 Y37.232 E0.43262
G1 X90.855 Y36.604 E0.49755
G1 X91.337 Y36.366 E0.52437
G1 X93.661 Y35.345 E0.65101
G1 X94.251 Y35.122 E0.68248
G1 X96.139 Y34.52 E0.78135
G1 X96.744 Y34.361 E0.81255
G1 X99.243 Y33.843 E0.93988
G1 X99.94 Y33.741 E0.97502
G1 X102.477 Y33.52 E1.10207
G1 X103.188 Y33.5 E1.13756
G1 X105.719 Y33.58 E1.2639
G1 X106.416 Y33.643 E1.29881
G1 X108.937 Y34.02 E1.42598
G1 X109.534 Y34.14 E1.45636
G1 X111.313 Y34.594 E1.54796
G1 X111.895 Y34.775 E1.57837
G1 X114.27 Y35.646 E1.70458
G1 X114.914 Y35.926 E1.73961
G1 X117.188 Y37.077 E1.86677
G1 X117.796 Y37.431 E1.90187
G1 X119.923 Y38.843 E2.02924
G1 X120.495 Y39.274 E2.06497
G1 X122.46 Y40.947 E2.19372
G1 X122.96 Y41.425 E2.22823
G1 X123.402 Y41.958 E2.26278
G1 X123.78 Y42.539 E2.29736
G1 X124.088 Y43.159 E2.3319
G1 X124.323 Y43.81 E2.36643
G1 X124.481 Y44.485 E2.40101
G1 X124.57 Y45.511 E2.45239
G1 X124.593 Y82.44 E4.29479
G1 X124.747 Y87.871 E4.56585
G1 X125.195 Y93.144 E4.82987
G1 X125.946 Y98.415 E5.0955
G1 X127.001 Y103.677 E5.36324
G1 X127.612 Y106.167 E5.49115
G1 X128.53 Y109.476 E5.66248
G1 X128.637 Y109.93 E5.68575
G1 X129.809 Y115.928 E5.99065
G1 X131.374 Y121.928 E6.3
G1 X131.501 Y122.547 E6.33153
G1 X132.432 Y128.712 E6.64259
G1 X132.499 Y129.571 E6.68558
G1 X132.548 Y137.512 E7.08176
G1 X132.512 Y138.204 E7.11633
G1 X132.397 Y138.886 E7.15084
G1 X132.204 Y139.552 E7.18543
G1 X131.936 Y140.19 E7.21996
G1 X131.668 Y140.678 E7.24773
G1 X130.595 Y142.434 E7.3504
G1 X127.982 Y147.095 E7.61699
G1 X125.098 Y153.132 E7.95078
G1 X124.44 Y154.523 E8.02755
G1 X124.108 Y155.131 E8.06211
G1 X123.53 Y155.909 E8.11046
G1 X123.284 Y156.19 E8.12909
G1 X122.799 Y156.684 E8.16363
G1 X122.26 Y157.119 E8.19819
G1 X121.674 Y157.488 E8.23274
G1 X121.05 Y157.788 E8.26728
G1 X120.395 Y158.014 E8.30185
G1 X119.719 Y158.163 E8.33638
G1 X119.035 Y158.232 E8.37068
G1 X116.538 Y158.342 E8.49538
G1 X111.2 Y158.801 E8.76268
G1 X105.895 Y159.56 E9.03004
G1 X102.157 Y160.279 E9.21995
G1 X101.574 Y160.362 E9.24933
G1 X99.689 Y160.536 E9.34377
G1 X94.374 Y161.226 E9.61116
G1 X89.115 Y162.213 E9.87811
G1 X86.555 Y162.808 E10.00924
G1 X84.026 Y163.47 E10.13966
G1 X78.866 Y165.06 E10.40904
G1 X75.785 Y166.157 E10.5722
G1 X75.12 Y166.352 E10.60678
G1 X74.437 Y166.468 E10.64134
G1 X73.746 Y166.505 E10.67586
G1 X73.055 Y166.462 E10.7104
G1 X72.373 Y166.34 E10.74497
G1 X71.71 Y166.14 E10.77952
G1 X71.075 Y165.864 E10.81406
G1 X70.475 Y165.518 E10.84862
G1 X69.919 Y165.105 E10.88317
G1 X69.415 Y164.63 E10.91772
G1 X68.969 Y164.1 E10.95228
G1 X68.765 Y163.812 E10.96989
G1 X68.448 Y163.332 E10.99859
G1 X68.101 Y162.733 E11.03312
G1 X67.824 Y162.098 E11.06769
G1 X67.623 Y161.435 E11.10225
G1 X67.499 Y160.754 E11.13678
G1 X67.455 Y160.062 E11.17138
G1 X67.491 Y159.371 E11.2059
G1 X67.606 Y158.688 E11.24045
G1 X67.729 Y158.232 E11.26402
G1 X68.424 Y156.013 E11.38003
G1 X69.816 Y150.846 E11.647
G1 X70.904 Y145.654 E11.91166
G1 X71.702 Y140.38 E12.17777
G1 X72.2 Y135.075 E12.4436
G1 X72.401 Y130.155 E12.68927
G1 X72.469 Y129.465 E12.72386
G1 X72.616 Y128.789 E12.75837
G1 X72.892 Y128.01 E12.7996
G1 X75.333 Y122.387 E13.10543
G1 X77.251 Y117.401 E13.37195
G1 X78.874 Y112.339 E13.63716
G1 X80.229 Y107.117 E13.90631
G1 X80.758 Y104.645 E14.03243
G1 X81.663 Y99.338 E14.30102
G1 X82.257 Y94.076 E14.56521
G1 X82.555 Y88.745 E14.83159
G1 X82.603 Y45.536 E16.9873
G1 X82.644 Y44.845 E17.02184
G1 X82.764 Y44.163 E17.05638
G1 X82.962 Y43.499 E17.09095
G1 X83.235 Y42.863 E17.12548
G0 F2400 X83.634 Y42.961
G1 F1200 X83.977 Y42.387 E17.15884
G1 X84.387 Y41.857 E17.19227
G1 X84.941 Y41.306 E17.23125
G1 X86.829 Y39.674 E17.35576
G1 X87.367 Y39.263 E17.38954
G1 X89.486 Y37.839 E17.51691
G1 X89.908 Y37.582 E17.54156
G1 X91.048 Y36.954 E17.60649
G1 X91.498 Y36.732 E17.63153
G1 X93.822 Y35.711 E17.75817
G1 X94.373 Y35.503 E17.78755
G1 X96.261 Y34.901 E17.88641
G1 X96.825 Y34.753 E17.91551
G1 X99.324 Y34.235 E18.04283
G1 X99.975 Y34.139 E18.07566
G1 X102.512 Y33.918 E18.20271
G1 X103.175 Y33.9 E18.2358
G1 X105.706 Y33.98 E18.36214
G1 X106.357 Y34.039 E18.39475
G1 X108.878 Y34.416 E18.52192
G1 X109.435 Y34.528 E18.55026
G1 X111.214 Y34.982 E18.64186
G1 X111.757 Y35.15 E18.67022
G1 X114.132 Y36.021 E18.79643
G1 X114.733 Y36.283 E18.82914
G1 X117.007 Y37.434 E18.95629
G1 X117.575 Y37.764 E18.98907
G1 X119.702 Y39.176 E19.11644
G1 X120.235 Y39.578 E19.14974
G1 X122.2 Y41.251 E19.2785
G1 X122.683 Y41.714 E19.31188
G1 X123.107 Y42.232 E19.34527
G1 X123.466 Y42.797 E19.37867
G1 X123.755 Y43.4 E19.41203
G1 X123.97 Y44.033 E19.44538
G1 X124.109 Y44.688 E19.47879
G1 X124.17 Y45.512 E19.52001
G1 X124.193 Y82.452 E21.36295
G1 X124.347 Y87.881 E21.63392
G1 X124.799 Y93.2 E21.90024
G1 X125.551 Y98.479 E22.16627
G1 X126.61 Y103.76 E22.43498
G1 X127.232 Y106.296 E22.56526
G1 X128.144 Y109.583 E22.73544
G1 X128.244 Y110.007 E22.75717
G1 X129.416 Y116.009 E23.06227
G1 X130.987 Y122.029 E23.37267
G1 X131.105 Y122.607 E23.4021
G1 X132.036 Y128.772 E23.71316
G1 X132.099 Y129.573 E23.75324
G1 X132.148 Y137.514 E24.14943
G1 X132.112 Y138.183 E24.18286
G1 X131.997 Y138.842 E24.21623
G1 X131.804 Y139.482 E24.24958
G1 X131.536 Y140.095 E24.28296
G1 X131.326 Y140.469 E24.30436
G1 X130.256 Y142.219 E24.40669
G1 X127.626 Y146.911 E24.67504
G1 X124.737 Y152.959 E25.00943
G1 X124.078 Y154.352 E25.08632
G1 X123.756 Y154.938 E25.11968
G1 X123.23 Y155.646 E25.16368
G1 X122.984 Y155.927 E25.18231
G1 X122.514 Y156.403 E25.21568
G1 X121.99 Y156.82 E25.24909
G1 X121.421 Y157.171 E25.28245
G1 X120.814 Y157.452 E25.31582
G1 X120.177 Y157.658 E25.34922
G1 X119.521 Y157.787 E25.38258
G1 X119.017 Y157.833 E25.40782
G1 X116.485 Y157.945 E25.53427
G1 X111.163 Y158.402 E25.80076
G1 X105.824 Y159.166 E26.06984
G1 X102.081 Y159.886 E26.26
G1 X101.538 Y159.963 E26.28736
G1 X99.655 Y160.137 E26.38171
G1 X94.321 Y160.829 E26.65005
G1 X89.016 Y161.825 E26.91934
G1 X86.477 Y162.415 E27.04939
G1 X83.927 Y163.083 E27.1809
G1 X78.727 Y164.685 E27.45236
G1 X75.651 Y165.78 E27.61526
G1 X75.008 Y165.967 E27.64867
G1 X74.348 Y166.075 E27.68203
G1 X73.68 Y166.104 E27.71539
G1 X73.012 Y166.053 E27.74882
G1 X72.356 Y165.923 E27.78218
G1 X71.72 Y165.716 E27.81555
G1 X71.113 Y165.434 E27.84894
G1 X70.545 Y165.081 E27.8823
G1 X70.022 Y164.664 E27.91568
G1 X69.553 Y164.187 E27.94905
G1 X69.099 Y163.591 E27.98643
G1 X68.782 Y163.111 E28.01513
G1 X68.447 Y162.532 E28.0485
G1 X68.184 Y161.917 E28.08187
G1 X67.996 Y161.275 E28.11524
G1 X67.886 Y160.615 E28.14863
G1 X67.856 Y159.946 E28.18204
G1 X67.905 Y159.279 E28.2154
G1 X68.111 Y158.352 E28.26278
G1 X68.804 Y156.14 E28.37843
G1 X70.204 Y150.944 E28.6469
G1 X71.301 Y145.71 E28.9137
G1 X72.098 Y140.44 E29.17961
G1 X72.6 Y135.091 E29.44765
G1 X72.801 Y130.171 E29.69331
G1 X72.868 Y129.505 E29.7267
G1 X73.014 Y128.852 E29.76009
G1 X73.259 Y128.17 E29.79624
G1 X75.699 Y122.551 E30.10186
G1 X77.63 Y117.53 E30.37025
G1 X79.262 Y112.439 E30.63697
G1 X80.614 Y107.226 E30.90565
G1 X81.155 Y104.704 E31.03434
G1 X82.057 Y99.415 E31.30202
G1 X82.657 Y94.089 E31.56941
G1 X82.955 Y88.768 E31.8353
G1 X83.003 Y45.537 E33.9921
G1 X83.044 Y44.869 E34.02549
G1 X83.164 Y44.211 E34.05886
G1 X83.361 Y43.572 E34.09222
G1 X83.634 Y42.961 E34.12561
G0 F2400 X84.033 Y43.062
G1 F1200 X84.375 Y42.516 E34.15775
G1 X84.782 Y42.016 E34.18991
G1 X85.202 Y41.609 E34.21909
G1 X87.09 Y39.977 E34.3436
G1 X87.591 Y39.595 E34.37503
G1 X89.71 Y38.171 E34.5024
G1 X90.101 Y37.932 E34.52526
G1 X91.241 Y37.304 E34.5902
G1 X91.658 Y37.098 E34.6134
G1 X93.982 Y36.077 E34.74004
G1 X94.494 Y35.884 E34.76734
G1 X96.382 Y35.282 E34.86621
G1 X96.907 Y35.144 E34.89329
G1 X99.406 Y34.626 E35.02061
G1 X100.01 Y34.538 E35.05106
G1 X102.547 Y34.317 E35.17812
G1 X103.162 Y34.3 E35.20881
G1 X105.693 Y34.38 E35.33515
G1 X106.298 Y34.434 E35.36545
G1 X108.819 Y34.811 E35.49262
G1 X109.336 Y34.915 E35.51893
G1 X111.115 Y35.369 E35.61053
G1 X111.619 Y35.526 E35.63687
G1 X113.994 Y36.397 E35.76307
G1 X114.552 Y36.639 E35.79342
G1 X116.826 Y37.79 E35.92057
G1 X117.354 Y38.098 E35.95107
G1 X119.481 Y39.51 E36.07844
G1 X119.976 Y39.883 E36.10936
G1 X121.941 Y41.556 E36.23811
G1 X122.405 Y42.003 E36.27026
G1 X122.81 Y42.505 E36.30244
G1 X123.15 Y43.052 E36.33457
G1 X123.419 Y43.638 E36.36674
G1 X123.614 Y44.253 E36.39892
G1 X123.732 Y44.886 E36.43105
G1 X123.77 Y45.512 E36.46234
G1 X123.793 Y82.463 E38.30583
G1 X123.947 Y87.909 E38.57764
G1 X124.4 Y93.236 E38.84437
G1 X125.157 Y98.545 E39.11191
G1 X126.222 Y103.86 E39.38235
G1 X126.838 Y106.37 E39.51129
G1 X127.759 Y109.69 E39.68318
G1 X127.852 Y110.083 E39.70333
G1 X129.029 Y116.109 E40.00965
G1 X130.6 Y122.13 E40.32009
G1 X130.71 Y122.667 E40.34744
G1 X131.641 Y128.832 E40.6585
G1 X131.699 Y129.576 E40.69573
G1 X131.748 Y137.517 E41.09192
G1 X131.712 Y138.161 E41.1241
G1 X131.597 Y138.795 E41.15624
G1 X131.404 Y139.41 E41.1884
G1 X130.985 Y140.261 E41.23573
G1 X129.9 Y142.037 E41.33956
G1 X127.274 Y146.722 E41.60751
G1 X124.376 Y152.787 E41.94286
G1 X123.717 Y154.181 E42.01978
G1 X123.405 Y154.745 E42.05194
G1 X122.929 Y155.382 E42.09161
G1 X122.683 Y155.663 E42.11025
G1 X122.229 Y156.121 E42.14242
G1 X121.722 Y156.519 E42.17458
G1 X121.169 Y156.851 E42.20676
G1 X120.58 Y157.113 E42.23892
G1 X119.963 Y157.299 E42.27107
G1 X119.327 Y157.408 E42.30326
G1 X118.999 Y157.433 E42.31967
G1 X116.482 Y157.544 E42.44537
G1 X111.106 Y158.006 E42.71457
G1 X105.758 Y158.771 E42.9841
G1 X102.006 Y159.493 E43.17472
G1 X101.501 Y159.565 E43.20017
G1 X99.619 Y159.739 E43.29446
G1 X94.249 Y160.436 E43.56462
G1 X88.925 Y161.435 E43.83487
G1 X86.391 Y162.024 E43.96466
G1 X83.821 Y162.697 E44.0972
G1 X78.608 Y164.303 E44.36934
G1 X75.516 Y165.404 E44.53309
G1 X74.897 Y165.582 E44.56522
G1 X74.26 Y165.682 E44.59739
G1 X73.616 Y165.703 E44.62954
G1 X72.974 Y165.643 E44.66171
G1 X72.344 Y165.505 E44.69389
G1 X71.736 Y165.29 E44.72606
G1 X71.16 Y165.001 E44.75821
G1 X70.624 Y164.644 E44.79034
G1 X70.136 Y164.222 E44.82253
G1 X69.704 Y163.744 E44.85467
G1 X69.433 Y163.371 E44.87767
G1 X69.116 Y162.891 E44.90637
G1 X68.795 Y162.332 E44.93853
G1 X68.545 Y161.737 E44.97073
G1 X68.371 Y161.117 E45.00286
G1 X68.275 Y160.479 E45.03504
G1 X68.258 Y159.835 E45.06719
G1 X68.322 Y159.193 E45.09937
G1 X68.493 Y158.471 E45.13639
G1 X69.185 Y156.26 E45.25197
G1 X70.596 Y151.024 E45.52252
G1 X71.692 Y145.798 E45.78892
G1 X72.498 Y140.466 E46.05795
G1 X72.997 Y135.146 E46.32453
G1 X73.2 Y130.187 E46.57215
G1 X73.267 Y129.546 E46.6043
G1 X73.412 Y128.918 E46.63646
G1 X73.626 Y128.329 E46.66772
G1 X76.073 Y122.692 E46.97431
G1 X78.005 Y117.669 E47.2428
G1 X79.646 Y112.552 E47.5109
G1 X81.002 Y107.324 E47.78035
G1 X81.548 Y104.776 E47.91036
G1 X82.455 Y99.459 E48.17946
G1 X83.055 Y94.139 E48.44656
G1 X83.355 Y88.772 E48.71474
G1 X83.403 Y45.537 E50.87174
G1 X83.444 Y44.894 E50.90388
G1 X83.564 Y44.26 E50.93608
G1 X83.761 Y43.647 E50.9682
G1 X84.033 Y43.062 E51.00039
G1 F2400 E47.50039
;MESH:daisy_bookmark.stl
G0 F2400 X88.35 Y44.846
G0 X89.211 Y45.795
G0 X92.298 Y102.773
;TYPE:WALL-INNER
G1 F2400 E51.00039
G1 F1200 X98.466 Y102.773 E51.30811
G1 X98.466 Y51.291 E53.87656
G1 X99.651 Y50.685 E53.94296
G1 X99.722 Y50.656 E53.94678
G1 X100.702 Y50.355 E53.99793
G1 X102.603 Y50.108 E54.09357
G1 X103.593 Y50.066 E54.143
G1 X104.582 Y50.108 E54.19239
G1 X105.55 Y50.234 E54.24109
G1 X106.504 Y50.441 E54.28979
G1 X107.436 Y50.731 E54.33849
G1 X108.365 Y51.109 E54.38853
G1 X108.719 Y51.29 E54.40836
G1 X108.719 Y102.773 E56.97686
G1 X114.888 Y102.773 E57.28463
G1 X114.888 Y48.113 E60.01163
G1 X113.582 Y47.112 E60.09373
G1 X112.598 Y46.459 E60.15265
G1 X111.568 Y45.873 E60.21177
G1 X110.499 Y45.36 E60.27092
G1 X109.399 Y44.923 E60.32997
G1 X108.271 Y44.562 E60.38906
G1 X107.121 Y44.279 E60.44815
G1 X105.955 Y44.077 E60.50719
G1 X104.776 Y43.954 E60.56633
G1 X103.593 Y43.914 E60.62538
G1 X102.41 Y43.954 E60.68443
G1 X101.23 Y44.077 E60.74362
G1 X100.064 Y44.279 E60.80266
G1 X98.914 Y44.562 E60.86175
G1 X97.786 Y44.923 E60.92083
G1 X96.686 Y45.36 E60.97989
G1 X95.617 Y45.873 E61.03904
G1 X94.587 Y46.459 E61.09816
G1 X93.602 Y47.112 E61.15712
G1 X92.298 Y48.113 E61.23914
G1 X92.298 Y102.773 E63.96614
G0 F2400 X113.552 Y114.038
G1 F1200 X113.824 Y114.148 E63.98077
G1 X117.207 Y115.515 E64.16281
G1 X118.599 Y115.1 E64.23528
G1 X119.655 Y114.501 E64.29585
G1 X120.535 Y113.699 E64.35525
G1 X120.957 Y113.148 E64.38987
G1 X121.294 Y112.569 E64.4233
G1 X121.385 Y112.355 E64.4349
G1 X121.591 Y111.87 E64.46119
G1 X121.779 Y111.429 E64.48511
G1 X121.812 Y111.963 E64.49453
G1 X121.76 Y112.487 E64.51557
G1 X121.735 Y112.74 E64.52825
G1 X121.391 Y114.445 E64.61503
G1 X120.917 Y115.958 E64.69413
G1 X119.818 Y117.155 E64.7752
G1 X117.849 Y117.882 E64.87992
G1 X116.926 Y118.061 E64.92683
G1 X115.896 Y118.391 E64.98079
G1 X115.063 Y118.766 E65.02636
G1 X113.646 Y119.582 E65.10794
G1 X114.059 Y121.075 E65.18522
G1 X118.658 Y120.994 E65.4147
G1 X119.497 Y120.459 E65.46435
G1 X120.064 Y120.249 E65.49451
G1 X120.655 Y120.166 E65.52429
G1 X121.341 Y120.23 E65.55866
G1 X121.997 Y120.462 E65.59338
G1 X122.597 Y120.857 E65.62921
G1 X123.204 Y121.445 E65.67138
G1 X123.777 Y122.14 E65.71632
G1 X124.276 Y122.922 E65.7626
G1 X124.614 Y123.728 E65.8062
G1 X124.829 Y124.973 E65.86923
G1 X124.862 Y125.48 E65.89458
G1 X124.896 Y126.021 E65.92162
G1 X124.908 Y126.206 E65.93087
G1 X124.796 Y126.027 E65.93302
G1 X124.489 Y125.58 E65.95029
G1 X124.319 Y125.334 E65.96521
G1 X123.697 Y124.649 E66.01137
G1 X122.804 Y124.018 E66.06593
G1 X121.816 Y123.596 E66.11953
G1 X120.793 Y123.358 E66.17193
G1 X119.652 Y123.274 E66.229
G1 X118.488 Y123.4 E66.28742
G1 X117.364 Y123.773 E66.3465
G1 X116.129 Y124.505 E66.41812
G1 X114.973 Y125.177 E66.48483
G1 X113.23 Y126.114 E66.58356
G1 X113.52 Y127.569 E66.65758
G1 X117.479 Y127.947 E66.85599
G1 X118.032 Y127.902 E66.88367
G1 X118.419 Y127.933 E66.90304
G1 X118.783 Y128.02 E66.92171
G1 X119.17 Y128.193 E66.94286
G1 X119.522 Y128.453 E66.9647
G1 X119.628 Y128.567 E66.97246
G1 X119.711 Y128.687 E66.97974
G1 X119.822 Y128.928 E66.99298
G1 X119.896 Y129.207 E67.00738
G1 X119.929 Y129.489 E67.02154
G1 X119.867 Y130.684 E67.08124
G1 X119.768 Y131.753 E67.1348
G1 X119.858 Y132.721 E67.18331
G1 X119.879 Y132.958 E67.19518
G1 X120.049 Y133.392 E67.21843
G1 X119.739 Y133.117 E67.22337
G1 X119.561 Y132.959 E67.23264
G1 X119.015 Y132.475 E67.26904
G1 X117.682 Y131.652 E67.3472
G1 X116.512 Y131.217 E67.40947
G1 X115.373 Y130.909 E67.46834
G1 X114.173 Y130.655 E67.52953
G1 X113.522 Y130.625 E67.56205
G1 X113.075 Y130.667 E67.58445
G1 X112.624 Y130.775 E67.60758
G1 X112.131 Y130.984 E67.6343
G1 X111.678 Y131.284 E67.6614
G1 X111.285 Y131.662 E67.68861
G1 X110.969 Y132.108 E67.71588
G1 X110.741 Y132.603 E67.74307
G1 X110.41 Y133.906 E67.81014
G1 X112.35 Y134.637 E67.91357
G1 X113.146 Y134.334 E67.95606
G1 X113.377 Y134.28 E67.9679
G1 X113.589 Y134.254 E67.97855
G1 X113.908 Y134.254 E67.99447
G1 X114.213 Y134.298 E68.00984
G1 X114.487 Y134.382 E68.02414
G1 X114.75 Y134.511 E68.03875
G1 X114.977 Y134.672 E68.05264
G1 X115.167 Y134.864 E68.06612
G1 X115.396 Y135.212 E68.0869
G1 X115.574 Y135.619 E68.10906
G1 X115.736 Y136.125 E68.13557
G1 X115.996 Y137.203 E68.19089
G1 X116.184 Y138.286 E68.24573
G1 X116.348 Y139.617 E68.31264
