;FLAVOR:Marlin
;TIME:1132
;Filament used: 0.691137m
;Layer height: 0.15
;Generated with Cura_SteamEngine 3.6.0
M140 S60
M105
M190 S60
M104 S200
M105
M109 S200
M82 ;absolute extrusion mode
G21 ;metric values
G90 ;absolute positioning
M82 ;set extruder to absolute mode
M107 ;start with the fan off
G28 X0 Y0 ;move X/Y to min endstops
G28 Z0 ;move Z to min endstops
G1 Z15.0 F120 ;move the platform down 15mm
G92 E0 ;zero the extruded length
G1 F200 E6 ;extrude 6 mm of feed stock
G92 E0 ;zero the extruded length again
G1 F120
M117 Printing...
G92 E0
G1 F2400 E-2.5
;LAYER_COUNT:20
;LAYER:0
M107
G0 F3600 X86.723 Y84.677 Z0.2
;TYPE:SKIRT
G1 F2400 E0
G1 F1500 X87.674 Y83.813 E0.04274
G1 X87.944 Y83.589 E0.0544
G1 X89.085 Y82.722 E0.10207
G1 X89.403 Y82.504 E0.11489
G1 X90.666 Y81.724 E0.16426
G1 X91.013 Y81.532 E0.17745
G1 X92.357 Y80.876 E0.22719
G1 X92.72 Y80.721 E0.24032
G1 X94.083 Y80.215 E0.28868
G1 X94.453 Y80.098 E0.30159
G1 X95.876 Y79.722 E0.35054
G1 X96.233 Y79.645 E0.36269
G1 X97.319 Y79.462 E0.39932
G1 X97.64 Y79.421 E0.41008
G1 X99.113 Y79.294 E0.45925
G1 X99.509 Y79.279 E0.47243
G1 X100.973 Y79.298 E0.52113
G1 X101.403 Y79.327 E0.53547
G1 X103.224 Y79.548 E0.59648
G1 X103.633 Y79.619 E0.61028
G1 X104.745 Y79.873 E0.64822
G1 X105.071 Y79.963 E0.65947
G1 X106.464 Y80.408 E0.70811
G1 X106.83 Y80.545 E0.72111
G1 X108.178 Y81.126 E0.76993
G1 X108.53 Y81.298 E0.78296
G1 X109.822 Y82.012 E0.83206
G1 X110.156 Y82.219 E0.84512
G1 X111.355 Y83.045 E0.89355
G1 X111.704 Y83.315 E0.90823
G1 X113.224 Y84.631 E0.9751
G1 X113.567 Y84.966 E0.99104
G1 X114.436 Y85.923 E1.03404
G1 X114.661 Y86.193 E1.04573
G1 X115.529 Y87.336 E1.09346
G1 X115.746 Y87.653 E1.10624
G1 X116.526 Y88.916 E1.15561
G1 X116.718 Y89.263 E1.1688
G1 X117.374 Y90.607 E1.21855
G1 X117.529 Y90.97 E1.23167
G1 X118.035 Y92.333 E1.28003
G1 X118.152 Y92.703 E1.29294
G1 X118.528 Y94.126 E1.34189
G1 X118.605 Y94.483 E1.35404
G1 X118.788 Y95.569 E1.39067
G1 X118.829 Y95.89 E1.40143
G1 X118.956 Y97.363 E1.45061
G1 X118.971 Y97.759 E1.46379
G1 X118.952 Y99.223 E1.51248
G1 X118.923 Y99.653 E1.52682
G1 X118.702 Y101.474 E1.58783
G1 X118.63 Y101.884 E1.60167
G1 X118.378 Y102.986 E1.63927
G1 X118.291 Y103.307 E1.65033
G1 X117.845 Y104.708 E1.69924
G1 X117.693 Y105.109 E1.7135
G1 X116.971 Y106.746 E1.77301
G1 X116.77 Y107.141 E1.78775
G1 X116.027 Y108.42 E1.83694
G1 X115.809 Y108.755 E1.85024
G1 X114.937 Y109.961 E1.89974
G1 X114.651 Y110.313 E1.91482
G1 X113.322 Y111.77 E1.98041
G1 X112.912 Y112.16 E1.99923
G1 X107.268 Y116.815 E2.24256
G1 X105.718 Y118.215 E2.31203
G1 X105.604 Y118.314 E2.31706
G1 X104.572 Y119.177 E2.3618
G1 X103.938 Y119.611 E2.38735
G1 X103.329 Y119.947 E2.41049
G1 X102.638 Y120.248 E2.43556
G1 X102.022 Y120.449 E2.45711
G1 X101.206 Y120.623 E2.48486
G1 X100.335 Y120.716 E2.51399
G1 X99.77 Y120.737 E2.5328
G1 X99.118 Y120.66 E2.55463
G1 X97.954 Y120.425 E2.59413
G1 X97.41 Y120.274 E2.61291
G1 X96.962 Y120.084 E2.62909
G1 X96.334 Y119.771 E2.65243
G1 X95.847 Y119.484 E2.67123
G1 X95.498 Y119.213 E2.68593
G1 X92.559 Y116.665 E2.8153
G1 X88.123 Y113.061 E3.0054
G1 X87.951 Y112.912 E3.01297
G1 X86.483 Y111.574 E3.07903
G1 X86.096 Y111.169 E3.09766
G1 X84.772 Y109.57 E3.16671
G1 X84.497 Y109.196 E3.18215
G1 X83.69 Y107.952 E3.23147
G1 X83.492 Y107.611 E3.24459
G1 X82.821 Y106.312 E3.29321
G1 X82.661 Y105.962 E3.30601
G1 X82.126 Y104.625 E3.35391
G1 X81.989 Y104.219 E3.36816
G1 X81.488 Y102.432 E3.42989
G1 X81.395 Y102.017 E3.44403
G1 X81.212 Y100.931 E3.48066
G1 X81.171 Y100.61 E3.49143
G1 X81.044 Y99.137 E3.5406
G1 X81.029 Y98.741 E3.55378
G1 X81.048 Y97.277 E3.60248
G1 X81.077 Y96.847 E3.61681
G1 X81.298 Y95.026 E3.67782
G1 X81.369 Y94.617 E3.69163
G1 X81.623 Y93.505 E3.72957
G1 X81.713 Y93.179 E3.74082
G1 X82.158 Y91.786 E3.78946
G1 X82.295 Y91.42 E3.80245
G1 X82.876 Y90.072 E3.85128
G1 X83.048 Y89.72 E3.86431
G1 X83.762 Y88.428 E3.9134
G1 X83.969 Y88.094 E3.92647
G1 X84.795 Y86.895 E3.9749
G1 X85.068 Y86.543 E3.98972
G1 X86.392 Y85.017 E4.05691
G1 X86.723 Y84.677 E4.07269
G0 F3600 X86.992 Y84.973
G1 F1500 X87.943 Y84.109 E4.11543
G1 X88.186 Y83.908 E4.12592
G1 X89.327 Y83.041 E4.17358
G1 X89.613 Y82.844 E4.18513
G1 X90.876 Y82.064 E4.2345
G1 X91.189 Y81.892 E4.24638
G1 X92.533 Y81.236 E4.29612
G1 X92.859 Y81.096 E4.30792
G1 X94.222 Y80.59 E4.35628
G1 X94.555 Y80.484 E4.3679
G1 X95.978 Y80.108 E4.41686
G1 X96.3 Y80.039 E4.42781
G1 X97.386 Y79.856 E4.46444
G1 X97.675 Y79.819 E4.47413
G1 X99.148 Y79.692 E4.52331
G1 X99.504 Y79.679 E4.53515
G1 X100.968 Y79.698 E4.58385
G1 X101.355 Y79.724 E4.59675
G1 X103.176 Y79.945 E4.65776
G1 X103.544 Y80.009 E4.67019
G1 X104.656 Y80.263 E4.70812
G1 X104.949 Y80.344 E4.71823
G1 X106.342 Y80.789 E4.76687
G1 X106.672 Y80.912 E4.77859
G1 X108.02 Y81.493 E4.82741
G1 X108.336 Y81.648 E4.83911
G1 X109.628 Y82.362 E4.88821
G1 X109.929 Y82.548 E4.89998
G1 X111.128 Y83.374 E4.94841
G1 X111.442 Y83.617 E4.96161
G1 X112.962 Y84.933 E5.02848
G1 X113.271 Y85.235 E5.04285
G1 X114.14 Y86.192 E5.08585
G1 X114.342 Y86.435 E5.09636
G1 X115.21 Y87.578 E5.14409
G1 X115.406 Y87.863 E5.1556
G1 X116.186 Y89.126 E5.20497
G1 X116.358 Y89.439 E5.21685
G1 X117.014 Y90.783 E5.26659
G1 X117.154 Y91.109 E5.27839
G1 X117.66 Y92.472 E5.32675
G1 X117.766 Y92.805 E5.33837
G1 X118.142 Y94.228 E5.38733
G1 X118.211 Y94.55 E5.39828
G1 X118.394 Y95.636 E5.43491
G1 X118.431 Y95.925 E5.4446
G1 X118.558 Y97.398 E5.49377
G1 X118.571 Y97.754 E5.50562
G1 X118.552 Y99.218 E5.55432
G1 X118.526 Y99.605 E5.56722
G1 X118.305 Y101.426 E5.62823
G1 X118.24 Y101.795 E5.64069
G1 X117.988 Y102.897 E5.67829
G1 X117.909 Y103.186 E5.68826
G1 X117.463 Y104.587 E5.73716
G1 X117.327 Y104.948 E5.74999
G1 X116.605 Y106.585 E5.8095
G1 X116.424 Y106.94 E5.82275
G1 X115.681 Y108.219 E5.87195
G1 X115.485 Y108.52 E5.88389
G1 X114.613 Y109.726 E5.93339
G1 X114.356 Y110.043 E5.94696
G1 X113.027 Y111.5 E6.01256
G1 X112.658 Y111.851 E6.02949
G1 X107.006 Y116.513 E6.27318
G1 X105.45 Y117.918 E6.34291
G1 X105.347 Y118.008 E6.34746
G1 X104.315 Y118.871 E6.3922
G1 X103.745 Y119.261 E6.41517
G1 X103.136 Y119.597 E6.43831
G1 X102.514 Y119.867 E6.46086
G1 X101.898 Y120.068 E6.48241
G1 X101.163 Y120.226 E6.50741
G1 X100.292 Y120.319 E6.53655
G1 X99.756 Y120.336 E6.55439
G1 X99.198 Y120.268 E6.57308
G1 X98.034 Y120.033 E6.61258
G1 X97.517 Y119.888 E6.63044
G1 X97.14 Y119.726 E6.64408
G1 X96.512 Y119.413 E6.66742
G1 X96.051 Y119.139 E6.68526
G1 X95.76 Y118.911 E6.69755
G1 X92.805 Y116.349 E6.82763
G1 X88.375 Y112.75 E7.01747
G1 X88.22 Y112.617 E7.02427
G1 X86.752 Y111.279 E7.09033
G1 X86.404 Y110.914 E7.1071
G1 X85.08 Y109.315 E7.17615
G1 X84.833 Y108.978 E7.19005
G1 X84.026 Y107.734 E7.23937
G1 X83.848 Y107.427 E7.25117
G1 X83.177 Y106.128 E7.2998
G1 X83.033 Y105.813 E7.31132
G1 X82.498 Y104.476 E7.35922
G1 X82.374 Y104.111 E7.37204
G1 X81.873 Y102.324 E7.43376
G1 X81.789 Y101.95 E7.44651
G1 X81.606 Y100.864 E7.48314
G1 X81.569 Y100.575 E7.49283
G1 X81.442 Y99.102 E7.54201
G1 X81.429 Y98.746 E7.55386
G1 X81.448 Y97.282 E7.60255
G1 X81.474 Y96.895 E7.61545
G1 X81.695 Y95.074 E7.67647
G1 X81.759 Y94.706 E7.68889
G1 X82.013 Y93.594 E7.72683
G1 X82.094 Y93.301 E7.73694
G1 X82.539 Y91.908 E7.78558
G1 X82.662 Y91.578 E7.79729
G1 X83.243 Y90.23 E7.84611
G1 X83.398 Y89.914 E7.85782
G1 X84.112 Y88.622 E7.90691
G1 X84.298 Y88.321 E7.91868
G1 X85.124 Y87.122 E7.96711
G1 X85.37 Y86.805 E7.98046
G1 X86.694 Y85.279 E8.04765
G1 X86.992 Y84.973 E8.06186
G0 F3600 X87.261 Y85.27
G1 F1500 X88.212 Y84.406 E8.10459
G1 X88.428 Y84.226 E8.11394
G1 X89.569 Y83.359 E8.16161
G1 X89.824 Y83.184 E8.17189
G1 X91.087 Y82.404 E8.22127
G1 X91.364 Y82.251 E8.23179
G1 X92.708 Y81.595 E8.28153
G1 X92.998 Y81.471 E8.29202
G1 X94.361 Y80.965 E8.34038
G1 X94.658 Y80.871 E8.35074
G1 X96.081 Y80.495 E8.39969
G1 X96.366 Y80.433 E8.4094
G1 X97.452 Y80.25 E8.44603
G1 X97.709 Y80.218 E8.45464
G1 X99.182 Y80.091 E8.50381
G1 X99.499 Y80.079 E8.51436
G1 X100.963 Y80.098 E8.56306
G1 X101.307 Y80.121 E8.57453
G1 X103.128 Y80.342 E8.63554
G1 X103.455 Y80.399 E8.64658
G1 X104.567 Y80.653 E8.68452
G1 X104.828 Y80.725 E8.69352
G1 X106.221 Y81.17 E8.74216
G1 X106.514 Y81.279 E8.75256
G1 X107.862 Y81.86 E8.80138
G1 X108.143 Y81.998 E8.81179
G1 X109.435 Y82.712 E8.86089
G1 X109.702 Y82.878 E8.87135
G1 X110.901 Y83.704 E8.91977
G1 X111.181 Y83.92 E8.93153
G1 X112.701 Y85.236 E8.99841
G1 X112.975 Y85.504 E9.01115
G1 X113.844 Y86.461 E9.05415
G1 X114.023 Y86.677 E9.06348
G1 X114.891 Y87.82 E9.11121
G1 X115.066 Y88.074 E9.12147
G1 X115.846 Y89.337 E9.17085
G1 X115.999 Y89.614 E9.18137
G1 X116.655 Y90.958 E9.23111
G1 X116.779 Y91.248 E9.2416
G1 X117.285 Y92.611 E9.28996
G1 X117.379 Y92.908 E9.30032
G1 X117.755 Y94.331 E9.34927
G1 X117.817 Y94.616 E9.35898
G1 X118 Y95.702 E9.3956
G1 X118.032 Y95.959 E9.40422
G1 X118.159 Y97.432 E9.45339
G1 X118.171 Y97.749 E9.46394
G1 X118.152 Y99.213 E9.51264
G1 X118.129 Y99.557 E9.52411
G1 X117.908 Y101.378 E9.58512
G1 X117.85 Y101.705 E9.59616
G1 X117.598 Y102.807 E9.63376
G1 X117.528 Y103.065 E9.64265
G1 X117.082 Y104.466 E9.69156
G1 X116.961 Y104.786 E9.70294
G1 X116.239 Y106.423 E9.76244
G1 X116.078 Y106.739 E9.77424
G1 X115.335 Y108.018 E9.82344
G1 X115.161 Y108.286 E9.83406
G1 X114.289 Y109.492 E9.88356
G1 X114.06 Y109.774 E9.89564
G1 X112.731 Y111.231 E9.96124
G1 X112.403 Y111.542 E9.97627
G1 X106.755 Y116.201 E10.21979
G1 X105.182 Y117.621 E10.29027
G1 X105.091 Y117.701 E10.2943
G1 X104.059 Y118.564 E10.33904
G1 X103.552 Y118.911 E10.35948
G1 X102.943 Y119.247 E10.38261
G1 X102.39 Y119.487 E10.40266
G1 X101.774 Y119.688 E10.42421
G1 X101.121 Y119.828 E10.44643
G1 X100.25 Y119.921 E10.47556
G1 X99.744 Y119.935 E10.4924
G1 X99.277 Y119.876 E10.50805
G1 X98.113 Y119.641 E10.54755
G1 X97.627 Y119.502 E10.56436
G1 X97.319 Y119.368 E10.57553
G1 X96.691 Y119.055 E10.59887
G1 X96.257 Y118.794 E10.61571
G1 X96.022 Y118.609 E10.62566
G1 X93.069 Y116.049 E10.75565
G1 X88.627 Y112.44 E10.94601
G1 X88.489 Y112.321 E10.95207
G1 X87.021 Y110.983 E11.01813
G1 X86.712 Y110.659 E11.03302
G1 X85.388 Y109.06 E11.10207
G1 X85.168 Y108.761 E11.11442
G1 X84.361 Y107.517 E11.16374
G1 X84.203 Y107.244 E11.17423
G1 X83.532 Y105.945 E11.22286
G1 X83.404 Y105.665 E11.2331
G1 X82.869 Y104.328 E11.28099
G1 X82.759 Y104.003 E11.2924
G1 X82.258 Y102.216 E11.35413
G1 X82.183 Y101.884 E11.36545
G1 X82 Y100.798 E11.40208
G1 X81.968 Y100.541 E11.4107
G1 X81.841 Y99.068 E11.45987
G1 X81.829 Y98.751 E11.47042
G1 X81.848 Y97.287 E11.51912
G1 X81.871 Y96.943 E11.53058
G1 X82.092 Y95.122 E11.5916
G1 X82.149 Y94.795 E11.60264
G1 X82.403 Y93.683 E11.64057
G1 X82.475 Y93.422 E11.64958
G1 X82.92 Y92.029 E11.69822
G1 X83.029 Y91.736 E11.70861
G1 X83.61 Y90.388 E11.75744
G1 X83.748 Y90.107 E11.76785
G1 X84.462 Y88.815 E11.81695
G1 X84.628 Y88.548 E11.8274
G1 X85.454 Y87.349 E11.87583
G1 X85.672 Y87.067 E11.88768
G1 X86.996 Y85.541 E11.95488
G1 X87.261 Y85.27 E11.96749
G1 F2400 E9.46749
;MESH:medallion-aries-001.stl
G0 F3600 X91.237 Y85.269
G0 X92.002 Y86.3
G0 X101.376 Y84.32
;TYPE:WALL-INNER
G1 F2400 E11.96749
G1 F1500 X102.739 Y84.523 E12.01332
G1 X104.059 Y84.853 E12.05858
G1 X105.354 Y85.317 E12.10433
G1 X106.598 Y85.905 E12.15009
G1 X107.789 Y86.618 E12.19626
G1 X108.879 Y87.427 E12.24141
G1 X109.9 Y88.35 E12.28719
G1 X110.823 Y89.371 E12.33297
G1 X111.635 Y90.465 E12.37828
G1 X112.345 Y91.651 E12.42425
G1 X112.933 Y92.896 E12.47005
G1 X113.396 Y94.187 E12.51567
G1 X113.727 Y95.511 E12.56106
G1 X113.93 Y96.874 E12.60689
G1 X113.998 Y98.25 E12.65271
G1 X113.93 Y99.626 E12.69854
G1 X113.727 Y100.989 E12.74437
G1 X113.397 Y102.309 E12.78962
G1 X112.933 Y103.605 E12.83541
G1 X112.345 Y104.849 E12.88117
G1 X111.635 Y106.035 E12.92715
G1 X110.823 Y107.129 E12.97246
G1 X109.9 Y108.15 E13.01824
G1 X108.879 Y109.073 E13.06402
G1 X107.789 Y109.882 E13.10917
G1 X106.598 Y110.595 E13.15533
G1 X105.354 Y111.183 E13.2011
G1 X104.059 Y111.647 E13.24685
G1 X102.719 Y111.983 E13.2928
G1 X101.38 Y112.18 E13.33782
G1 X100 Y112.248 E13.38377
G1 X98.62 Y112.18 E13.42972
G1 X97.281 Y111.983 E13.47474
G1 X95.941 Y111.647 E13.52069
G1 X94.646 Y111.183 E13.56644
G1 X93.402 Y110.595 E13.61221
G1 X92.211 Y109.882 E13.65837
G1 X91.121 Y109.073 E13.70352
G1 X90.1 Y108.15 E13.7493
G1 X89.177 Y107.129 E13.79508
G1 X88.365 Y106.035 E13.84039
G1 X87.655 Y104.849 E13.88637
G1 X87.067 Y103.605 E13.93213
G1 X86.603 Y102.309 E13.97792
G1 X86.273 Y100.989 E14.02317
G1 X86.07 Y99.626 E14.069
G1 X86.002 Y98.25 E14.11483
G1 X86.07 Y96.874 E14.16065
G1 X86.273 Y95.511 E14.20648
G1 X86.604 Y94.187 E14.25187
G1 X87.067 Y92.896 E14.29749
G1 X87.655 Y91.651 E14.34328
G1 X88.365 Y90.465 E14.38926
G1 X89.177 Y89.371 E14.43457
G1 X90.1 Y88.35 E14.48035
G1 X91.121 Y87.427 E14.52613
G1 X92.211 Y86.618 E14.57128
G1 X93.402 Y85.905 E14.61745
G1 X94.646 Y85.317 E14.66321
G1 X95.941 Y84.853 E14.70896
G1 X97.261 Y84.523 E14.75422
G1 X98.624 Y84.32 E14.80005
G1 X100 Y84.252 E14.84587
G1 X101.376 Y84.32 E14.8917
G0 F3600 X101.414 Y83.921
G1 F1500 X102.813 Y84.129 E14.93874
G1 X104.18 Y84.471 E14.98561
G1 X105.507 Y84.946 E15.03249
G1 X106.785 Y85.55 E15.0795
G1 X108.007 Y86.282 E15.12688
G1 X109.136 Y87.12 E15.17364
G1 X110.183 Y88.067 E15.2206
G1 X111.13 Y89.114 E15.26755
G1 X111.968 Y90.243 E15.31432
G1 X112.702 Y91.469 E15.36184
G1 X113.304 Y92.743 E15.40871
G1 X113.778 Y94.066 E15.45545
G1 X114.121 Y95.437 E15.50246
G1 X114.329 Y96.836 E15.5495
G1 X114.399 Y98.25 E15.59658
G1 X114.329 Y99.664 E15.64367
G1 X114.121 Y101.063 E15.69071
G1 X113.779 Y102.43 E15.73758
G1 X113.304 Y103.758 E15.78449
G1 X112.702 Y105.031 E15.83133
G1 X111.968 Y106.257 E15.87885
G1 X111.13 Y107.386 E15.92562
G1 X110.183 Y108.433 E15.97257
G1 X109.136 Y109.38 E16.01953
G1 X108.007 Y110.218 E16.06629
G1 X106.785 Y110.95 E16.11367
G1 X105.507 Y111.554 E16.16069
G1 X104.18 Y112.029 E16.20756
G1 X102.794 Y112.376 E16.25509
G1 X101.416 Y112.579 E16.30141
G1 X100 Y112.649 E16.34857
G1 X98.584 Y112.579 E16.39572
G1 X97.206 Y112.376 E16.44205
G1 X95.82 Y112.029 E16.48957
G1 X94.493 Y111.554 E16.53645
G1 X93.215 Y110.95 E16.58346
G1 X91.993 Y110.218 E16.63084
G1 X90.864 Y109.38 E16.6776
G1 X89.817 Y108.433 E16.72456
G1 X88.87 Y107.386 E16.77151
G1 X88.032 Y106.257 E16.81828
G1 X87.298 Y105.031 E16.8658
G1 X86.696 Y103.758 E16.91264
G1 X86.221 Y102.43 E16.95955
G1 X85.879 Y101.063 E17.00642
G1 X85.671 Y99.664 E17.05346
G1 X85.601 Y98.25 E17.10055
G1 X85.671 Y96.836 E17.14764
G1 X85.879 Y95.437 E17.19468
G1 X86.222 Y94.066 E17.24168
G1 X86.696 Y92.743 E17.28842
G1 X87.298 Y91.469 E17.33529
G1 X88.032 Y90.243 E17.38282
G1 X88.87 Y89.114 E17.42958
G1 X89.817 Y88.067 E17.47654
G1 X90.864 Y87.12 E17.52349
G1 X91.993 Y86.282 E17.57025
G1 X93.215 Y85.55 E17.61763
G1 X94.493 Y84.946 E17.66465
G1 X95.82 Y84.471 E17.71153
G1 X97.187 Y84.129 E17.75839
G1 X98.586 Y83.921 E17.80544
G1 X100 Y83.851 E17.85252
G1 X101.414 Y83.921 E17.89961
G0 F3600 X101.41 Y84.02
G0 X103.151 Y112.69
G0 X103.235 Y112.678
;TYPE:WALL-OUTER
G1 F1500 X103.284 Y113.002 E17.91051
G1 X103.299 Y113.318 E17.92103
G1 X103.284 Y113.635 E17.93159
G1 X103.237 Y113.947 E17.94208
G1 X103.156 Y114.26 E17.95283
G1 X103.05 Y114.554 E17.96323
G1 X102.912 Y114.838 E17.97373
G1 X102.747 Y115.108 E17.98426
G1 X102.55 Y115.369 E17.99513
G1 X102.336 Y115.6 E18.00561
G1 X102.094 Y115.815 E18.01637
G1 X101.826 Y116.01 E18.0274
G1 X101.558 Y116.168 E18.03774
G1 X101.27 Y116.301 E18.04829
G1 X100.955 Y116.411 E18.05939
G1 X100.647 Y116.487 E18.06994
G1 X100.325 Y116.533 E18.08076
G1 X100 Y116.55 E18.09159
G1 X99.675 Y116.533 E18.10241
G1 X99.353 Y116.487 E18.11323
G1 X99.045 Y116.411 E18.12378
G1 X98.73 Y116.301 E18.13488
G1 X98.442 Y116.168 E18.14543
G1 X98.174 Y116.01 E18.15578
G1 X97.906 Y115.815 E18.1668
G1 X97.664 Y115.6 E18.17757
G1 X97.45 Y115.369 E18.18804
G1 X97.253 Y115.108 E18.19892
G1 X97.088 Y114.838 E18.20944
G1 X96.95 Y114.554 E18.21994
G1 X96.844 Y114.26 E18.23034
G1 X96.763 Y113.947 E18.24109
G1 X96.716 Y113.635 E18.25158
G1 X96.701 Y113.318 E18.26214
G1 X96.716 Y113.002 E18.27266
G1 X96.765 Y112.678 E18.28356
G1 X95.699 Y112.411 E18.32011
G1 X94.34 Y111.925 E18.36811
