;FLAVOR:Marlin
;TIME:1081
;Filament used: 0.660399m
;Layer height: 0.15
;Generated with Cura_SteamEngine 3.6.0
M140 S60
M105
M190 S60
M104 S200
M105
M109 S200
M82 ;absolute extrusion mode
G21 ;metric values
G90 ;absolute positioning
M82 ;set extruder to absolute mode
M107 ;start with the fan off
G28 X0 Y0 ;move X/Y to min endstops
G28 Z0 ;move Z to min endstops
G1 Z15.0 F120 ;move the platform down 15mm
G92 E0 ;zero the extruded length
G1 F200 E6 ;extrude 6 mm of feed stock
G92 E0 ;zero the extruded length again
G1 F120
M117 Printing...
G92 E0
G1 F2400 E-2.5
;LAYER_COUNT:20
;LAYER:0
M107
G0 F3600 X86.723 Y84.677 Z0.2
;TYPE:SKIRT
G1 F2400 E0
G1 F1500 X87.674 Y83.813 E0.04274
G1 X87.944 Y83.589 E0.0544
G1 X89.085 Y82.722 E0.10207
G1 X89.403 Y82.504 E0.11489
G1 X90.666 Y81.724 E0.16426
G1 X91.013 Y81.532 E0.17745
G1 X92.357 Y80.876 E0.22719
G1 X92.72 Y80.721 E0.24032
G1 X94.083 Y80.215 E0.28868
G1 X94.453 Y80.098 E0.30159
G1 X95.876 Y79.722 E0.35054
G1 X96.233 Y79.645 E0.36269
G1 X97.319 Y79.462 E0.39932
G1 X97.64 Y79.421 E0.41008
G1 X99.113 Y79.294 E0.45925
G1 X99.509 Y79.279 E0.47243
G1 X100.973 Y79.298 E0.52113
G1 X101.403 Y79.327 E0.53547
G1 X103.224 Y79.548 E0.59648
G1 X103.633 Y79.619 E0.61028
G1 X104.745 Y79.873 E0.64822
G1 X105.071 Y79.963 E0.65947
G1 X106.464 Y80.408 E0.70811
G1 X106.83 Y80.545 E0.72111
G1 X108.178 Y81.126 E0.76993
G1 X108.53 Y81.298 E0.78296
G1 X109.822 Y82.012 E0.83206
G1 X110.156 Y82.219 E0.84512
G1 X111.355 Y83.045 E0.89355
G1 X111.704 Y83.315 E0.90823
G1 X113.224 Y84.631 E0.9751
G1 X113.567 Y84.966 E0.99104
G1 X114.436 Y85.923 E1.03404
G1 X114.661 Y86.193 E1.04573
G1 X115.529 Y87.336 E1.09346
G1 X115.746 Y87.653 E1.10624
G1 X116.526 Y88.916 E1.15561
G1 X116.718 Y89.263 E1.1688
G1 X117.374 Y90.607 E1.21855
G1 X117.529 Y90.97 E1.23167
G1 X118.035 Y92.333 E1.28003
G1 X118.152 Y92.703 E1.29294
G1 X118.528 Y94.126 E1.34189
G1 X118.605 Y94.483 E1.35404
G1 X118.788 Y95.569 E1.39067
G1 X118.829 Y95.89 E1.40143
G1 X118.956 Y97.363 E1.45061
G1 X118.971 Y97.759 E1.46379
G1 X118.952 Y99.207 E1.51195
G1 X118.915 Y99.697 E1.52829
G1 X118.599 Y102.007 E1.60584
G1 X118.492 Y102.527 E1.6235
G1 X118.072 Y104.052 E1.67611
G1 X117.901 Y104.547 E1.69353
G1 X116.996 Y106.689 E1.77087
G1 X116.77 Y107.141 E1.78768
G1 X116.027 Y108.42 E1.83687
G1 X115.809 Y108.755 E1.85017
G1 X114.937 Y109.961 E1.89967
G1 X114.651 Y110.313 E1.91475
G1 X113.322 Y111.77 E1.98034
G1 X112.912 Y112.16 E1.99916
G1 X107.268 Y116.815 E2.24249
G1 X105.718 Y118.215 E2.31196
G1 X105.604 Y118.314 E2.31698
G1 X104.572 Y119.177 E2.36173
G1 X103.938 Y119.611 E2.38728
G1 X103.329 Y119.947 E2.41042
G1 X102.638 Y120.248 E2.43549
G1 X102.022 Y120.449 E2.45704
G1 X101.206 Y120.623 E2.48479
G1 X100.335 Y120.716 E2.51392
G1 X99.77 Y120.737 E2.53273
G1 X99.118 Y120.66 E2.55456
G1 X97.954 Y120.425 E2.59406
G1 X97.41 Y120.274 E2.61284
G1 X96.962 Y120.084 E2.62902
G1 X96.334 Y119.771 E2.65236
G1 X95.847 Y119.484 E2.67116
G1 X95.498 Y119.213 E2.68586
G1 X92.559 Y116.665 E2.81523
G1 X88.123 Y113.061 E3.00533
G1 X87.951 Y112.912 E3.0129
G1 X86.483 Y111.574 E3.07896
G1 X86.096 Y111.169 E3.09759
G1 X84.772 Y109.57 E3.16664
G1 X84.497 Y109.196 E3.18208
G1 X83.69 Y107.952 E3.2314
G1 X83.492 Y107.611 E3.24451
G1 X82.821 Y106.312 E3.29314
G1 X82.661 Y105.962 E3.30594
G1 X82.126 Y104.625 E3.35384
G1 X81.989 Y104.219 E3.36809
G1 X81.488 Y102.432 E3.42982
G1 X81.395 Y102.017 E3.44396
G1 X81.212 Y100.931 E3.48059
G1 X81.171 Y100.61 E3.49136
G1 X81.044 Y99.137 E3.54053
G1 X81.029 Y98.741 E3.55371
G1 X81.048 Y97.277 E3.60241
G1 X81.077 Y96.847 E3.61674
G1 X81.298 Y95.026 E3.67775
G1 X81.369 Y94.617 E3.69156
G1 X81.623 Y93.505 E3.7295
G1 X81.713 Y93.179 E3.74075
G1 X82.158 Y91.786 E3.78938
G1 X82.295 Y91.42 E3.80238
G1 X82.876 Y90.072 E3.8512
G1 X83.048 Y89.72 E3.86424
G1 X83.762 Y88.428 E3.91333
G1 X83.969 Y88.094 E3.9264
G1 X84.795 Y86.895 E3.97483
G1 X85.068 Y86.543 E3.98964
G1 X86.392 Y85.017 E4.05684
G1 X86.723 Y84.677 E4.07262
G0 F3600 X86.992 Y84.973
G1 F1500 X87.943 Y84.109 E4.11536
G1 X88.186 Y83.908 E4.12585
G1 X89.327 Y83.041 E4.17351
G1 X89.613 Y82.844 E4.18506
G1 X90.876 Y82.064 E4.23443
G1 X91.189 Y81.892 E4.24631
G1 X92.533 Y81.236 E4.29605
G1 X92.859 Y81.096 E4.30785
G1 X94.222 Y80.59 E4.35621
G1 X94.555 Y80.484 E4.36783
G1 X95.978 Y80.108 E4.41679
G1 X96.3 Y80.039 E4.42774
G1 X97.386 Y79.856 E4.46437
G1 X97.675 Y79.819 E4.47406
G1 X99.148 Y79.692 E4.52323
G1 X99.504 Y79.679 E4.53508
G1 X100.968 Y79.698 E4.58378
G1 X101.355 Y79.724 E4.59668
G1 X103.176 Y79.945 E4.65769
G1 X103.544 Y80.009 E4.67011
G1 X104.656 Y80.263 E4.70805
G1 X104.949 Y80.344 E4.71816
G1 X106.342 Y80.789 E4.7668
G1 X106.672 Y80.912 E4.77851
G1 X108.02 Y81.493 E4.82734
G1 X108.336 Y81.648 E4.83904
G1 X109.628 Y82.362 E4.88814
G1 X109.929 Y82.548 E4.89991
G1 X111.128 Y83.374 E4.94834
G1 X111.442 Y83.617 E4.96154
G1 X112.962 Y84.933 E5.02841
G1 X113.271 Y85.235 E5.04278
G1 X114.14 Y86.192 E5.08578
G1 X114.342 Y86.435 E5.09629
G1 X115.21 Y87.578 E5.14402
G1 X115.406 Y87.863 E5.15553
G1 X116.186 Y89.126 E5.2049
G1 X116.358 Y89.439 E5.21678
G1 X117.014 Y90.783 E5.26652
G1 X117.154 Y91.109 E5.27832
G1 X117.66 Y92.472 E5.32668
G1 X117.766 Y92.805 E5.3383
G1 X118.142 Y94.228 E5.38725
G1 X118.211 Y94.55 E5.39821
G1 X118.394 Y95.636 E5.43484
G1 X118.431 Y95.925 E5.44453
G1 X118.558 Y97.398 E5.4937
G1 X118.571 Y97.754 E5.50555
G1 X118.552 Y99.202 E5.55372
G1 X118.519 Y99.643 E5.56842
G1 X118.203 Y101.953 E5.64597
G1 X118.107 Y102.421 E5.66186
G1 X117.687 Y103.946 E5.71447
G1 X117.532 Y104.391 E5.73014
G1 X116.627 Y106.533 E5.80748
G1 X116.424 Y106.94 E5.82261
G1 X115.681 Y108.219 E5.87181
G1 X115.485 Y108.52 E5.88376
G1 X114.613 Y109.726 E5.93325
G1 X114.356 Y110.043 E5.94683
G1 X113.027 Y111.5 E6.01242
G1 X112.658 Y111.851 E6.02936
G1 X107.006 Y116.513 E6.27304
G1 X105.45 Y117.918 E6.34277
G1 X105.347 Y118.008 E6.34732
G1 X104.315 Y118.871 E6.39206
G1 X103.745 Y119.261 E6.41503
G1 X103.136 Y119.597 E6.43817
G1 X102.514 Y119.867 E6.46072
G1 X101.898 Y120.068 E6.48227
G1 X101.163 Y120.226 E6.50728
G1 X100.292 Y120.319 E6.53641
G1 X99.756 Y120.336 E6.55425
G1 X99.198 Y120.268 E6.57294
G1 X98.034 Y120.033 E6.61244
G1 X97.517 Y119.888 E6.6303
G1 X97.14 Y119.726 E6.64395
G1 X96.512 Y119.413 E6.66729
G1 X96.051 Y119.139 E6.68512
G1 X95.76 Y118.911 E6.69742
G1 X92.805 Y116.349 E6.8275
G1 X88.375 Y112.75 E7.01734
G1 X88.22 Y112.617 E7.02413
G1 X86.752 Y111.279 E7.09019
G1 X86.404 Y110.914 E7.10697
G1 X85.08 Y109.315 E7.17601
G1 X84.833 Y108.978 E7.18991
G1 X84.026 Y107.734 E7.23923
G1 X83.848 Y107.427 E7.25103
G1 X83.177 Y106.128 E7.29966
G1 X83.033 Y105.813 E7.31118
G1 X82.498 Y104.476 E7.35908
G1 X82.374 Y104.111 E7.3719
G1 X81.873 Y102.324 E7.43363
G1 X81.789 Y101.95 E7.44638
G1 X81.606 Y100.864 E7.48301
G1 X81.569 Y100.575 E7.4927
G1 X81.442 Y99.102 E7.54187
G1 X81.429 Y98.746 E7.55372
G1 X81.448 Y97.282 E7.60242
G1 X81.474 Y96.895 E7.61532
G1 X81.695 Y95.074 E7.67633
G1 X81.759 Y94.706 E7.68875
G1 X82.013 Y93.594 E7.72669
G1 X82.094 Y93.301 E7.7368
G1 X82.539 Y91.908 E7.78544
G1 X82.662 Y91.578 E7.79715
G1 X83.243 Y90.23 E7.84597
G1 X83.398 Y89.914 E7.85768
G1 X84.112 Y88.622 E7.90678
G1 X84.298 Y88.321 E7.91855
G1 X85.124 Y87.122 E7.96697
G1 X85.37 Y86.805 E7.98032
G1 X86.694 Y85.279 E8.04751
G1 X86.992 Y84.973 E8.06172
G0 F3600 X87.261 Y85.27
G1 F1500 X88.212 Y84.406 E8.10446
G1 X88.428 Y84.226 E8.11381
G1 X89.569 Y83.359 E8.16147
G1 X89.824 Y83.184 E8.17176
G1 X91.087 Y82.404 E8.22113
G1 X91.364 Y82.251 E8.23165
G1 X92.708 Y81.595 E8.2814
G1 X92.998 Y81.471 E8.29189
G1 X94.361 Y80.965 E8.34024
G1 X94.658 Y80.871 E8.3506
G1 X96.081 Y80.495 E8.39956
G1 X96.366 Y80.433 E8.40926
G1 X97.452 Y80.25 E8.44589
G1 X97.709 Y80.218 E8.4545
G1 X99.182 Y80.091 E8.50368
G1 X99.499 Y80.079 E8.51423
G1 X100.963 Y80.098 E8.56292
G1 X101.307 Y80.121 E8.57439
G1 X103.128 Y80.342 E8.6354
G1 X103.455 Y80.399 E8.64644
G1 X104.567 Y80.653 E8.68438
G1 X104.828 Y80.725 E8.69339
G1 X106.221 Y81.17 E8.74202
G1 X106.514 Y81.279 E8.75242
G1 X107.862 Y81.86 E8.80124
G1 X108.143 Y81.998 E8.81166
G1 X109.435 Y82.712 E8.86075
G1 X109.702 Y82.878 E8.87121
G1 X110.901 Y83.704 E8.91964
G1 X111.181 Y83.92 E8.9314
G1 X112.701 Y85.236 E8.99827
G1 X112.975 Y85.504 E9.01102
G1 X113.844 Y86.461 E9.05401
G1 X114.023 Y86.677 E9.06334
G1 X114.891 Y87.82 E9.11108
G1 X115.066 Y88.074 E9.12134
G1 X115.846 Y89.337 E9.17071
G1 X115.999 Y89.614 E9.18123
G1 X116.655 Y90.958 E9.23098
G1 X116.779 Y91.248 E9.24147
G1 X117.285 Y92.611 E9.28982
G1 X117.379 Y92.908 E9.30018
G1 X117.755 Y94.331 E9.34914
G1 X117.817 Y94.616 E9.35884
G1 X118 Y95.702 E9.39547
G1 X118.032 Y95.959 E9.40408
G1 X118.159 Y97.432 E9.45326
G1 X118.171 Y97.749 E9.46381
G1 X118.152 Y99.197 E9.51197
G1 X118.122 Y99.589 E9.52505
G1 X117.806 Y101.899 E9.60259
G1 X117.721 Y102.315 E9.61672
G1 X117.301 Y103.84 E9.66933
G1 X117.164 Y104.235 E9.68323
G1 X116.259 Y106.377 E9.76057
G1 X116.078 Y106.739 E9.77403
G1 X115.335 Y108.018 E9.82323
G1 X115.161 Y108.286 E9.83386
G1 X114.289 Y109.492 E9.88336
G1 X114.06 Y109.774 E9.89544
G1 X112.731 Y111.231 E9.96103
G1 X112.403 Y111.542 E9.97606
G1 X106.755 Y116.201 E10.21958
G1 X105.182 Y117.621 E10.29007
G1 X105.091 Y117.701 E10.2941
G1 X104.059 Y118.564 E10.33884
G1 X103.552 Y118.911 E10.35927
G1 X102.943 Y119.247 E10.38241
G1 X102.39 Y119.487 E10.40246
G1 X101.774 Y119.688 E10.42401
G1 X101.121 Y119.828 E10.44622
G1 X100.25 Y119.921 E10.47536
G1 X99.744 Y119.935 E10.49219
G1 X99.277 Y119.876 E10.50785
G1 X98.113 Y119.641 E10.54734
G1 X97.627 Y119.502 E10.56416
G1 X97.319 Y119.368 E10.57533
G1 X96.691 Y119.055 E10.59867
G1 X96.257 Y118.794 E10.61551
G1 X96.022 Y118.609 E10.62546
G1 X93.069 Y116.049 E10.75544
G1 X88.627 Y112.44 E10.9458
G1 X88.489 Y112.321 E10.95186
G1 X87.021 Y110.983 E11.01793
G1 X86.712 Y110.659 E11.03282
G1 X85.388 Y109.06 E11.10187
G1 X85.168 Y108.761 E11.11421
G1 X84.361 Y107.517 E11.16353
G1 X84.203 Y107.244 E11.17402
G1 X83.532 Y105.945 E11.22265
G1 X83.404 Y105.665 E11.23289
G1 X82.869 Y104.328 E11.28079
G1 X82.759 Y104.003 E11.2922
G1 X82.258 Y102.216 E11.35393
G1 X82.183 Y101.884 E11.36525
G1 X82 Y100.798 E11.40188
G1 X81.968 Y100.541 E11.41049
G1 X81.841 Y99.068 E11.45967
G1 X81.829 Y98.751 E11.47022
G1 X81.848 Y97.287 E11.51891
G1 X81.871 Y96.943 E11.53038
G1 X82.092 Y95.122 E11.59139
G1 X82.149 Y94.795 E11.60243
G1 X82.403 Y93.683 E11.64037
G1 X82.475 Y93.422 E11.64938
G1 X82.92 Y92.029 E11.69801
G1 X83.029 Y91.736 E11.70841
G1 X83.61 Y90.388 E11.75723
G1 X83.748 Y90.107 E11.76764
G1 X84.462 Y88.815 E11.81674
G1 X84.628 Y88.548 E11.8272
G1 X85.454 Y87.349 E11.87563
G1 X85.672 Y87.067 E11.88748
G1 X86.996 Y85.541 E11.95468
G1 X87.261 Y85.27 E11.96728
G1 F2400 E9.46728
;MESH:medallion-gemini-001.stl
G0 F3600 X91.237 Y85.269
G0 X92.002 Y86.3
G0 X101.376 Y84.32
;TYPE:WALL-INNER
G1 F2400 E11.96728
G1 F1500 X102.739 Y84.523 E12.01312
G1 X104.059 Y84.853 E12.05837
G1 X105.354 Y85.317 E12.10412
G1 X106.598 Y85.905 E12.14989
G1 X107.789 Y86.618 E12.19606
G1 X108.879 Y87.427 E12.24121
G1 X109.9 Y88.35 E12.28698
G1 X110.823 Y89.371 E12.33276
G1 X111.635 Y90.465 E12.37808
G1 X112.345 Y91.651 E12.42405
G1 X112.933 Y92.896 E12.46985
G1 X113.396 Y94.187 E12.51546
G1 X113.727 Y95.511 E12.56085
G1 X113.93 Y96.874 E12.60669
G1 X113.998 Y98.25 E12.65251
G1 X113.932 Y99.585 E12.69697
G1 X113.735 Y100.944 E12.74264
G1 X113.4 Y102.303 E12.78919
G1 X112.933 Y103.604 E12.83517
G1 X112.345 Y104.849 E12.88096
G1 X111.635 Y106.035 E12.92694
G1 X110.823 Y107.129 E12.97225
G1 X109.9 Y108.15 E13.01803
G1 X108.879 Y109.073 E13.06381
G1 X107.789 Y109.882 E13.10895
G1 X106.598 Y110.595 E13.15512
G1 X105.354 Y111.183 E13.20089
G1 X104.059 Y111.647 E13.24664
G1 X102.719 Y111.983 E13.29259
G1 X101.38 Y112.18 E13.3376
G1 X100 Y112.248 E13.38356
G1 X98.62 Y112.18 E13.42951
G1 X97.281 Y111.983 E13.47453
G1 X95.941 Y111.647 E13.52048
G1 X94.646 Y111.183 E13.56623
G1 X93.402 Y110.595 E13.61199
G1 X92.211 Y109.882 E13.65816
G1 X91.121 Y109.073 E13.70331
G1 X90.1 Y108.15 E13.74909
G1 X89.177 Y107.129 E13.79487
G1 X88.365 Y106.035 E13.84018
G1 X87.655 Y104.849 E13.88616
G1 X87.067 Y103.605 E13.93192
G1 X86.603 Y102.309 E13.97771
G1 X86.273 Y100.989 E14.02296
G1 X86.07 Y99.626 E14.06879
G1 X86.002 Y98.25 E14.11462
G1 X86.07 Y96.874 E14.16044
G1 X86.273 Y95.511 E14.20627
G1 X86.604 Y94.187 E14.25166
G1 X87.067 Y92.896 E14.29728
G1 X87.655 Y91.651 E14.34307
G1 X88.365 Y90.465 E14.38905
G1 X89.177 Y89.371 E14.43436
G1 X90.1 Y88.35 E14.48014
G1 X91.121 Y87.427 E14.52592
G1 X92.211 Y86.618 E14.57107
G1 X93.402 Y85.905 E14.61724
G1 X94.646 Y85.317 E14.663
G1 X95.941 Y84.853 E14.70875
G1 X97.261 Y84.523 E14.75401
G1 X98.624 Y84.32 E14.79984
G1 X100 Y84.252 E14.84566
G1 X101.376 Y84.32 E14.89149
G0 F3600 X101.414 Y83.921
G1 F1500 X102.813 Y84.129 E14.93853
G1 X104.18 Y84.471 E14.9854
G1 X105.507 Y84.946 E15.03227
G1 X106.785 Y85.55 E15.07929
G1 X108.007 Y86.282 E15.12667
G1 X109.136 Y87.12 E15.17343
G1 X110.183 Y88.067 E15.22039
G1 X111.13 Y89.114 E15.26734
G1 X111.968 Y90.243 E15.31411
G1 X112.702 Y91.469 E15.36163
G1 X113.304 Y92.743 E15.4085
G1 X113.778 Y94.066 E15.45524
G1 X114.121 Y95.437 E15.50224
G1 X114.329 Y96.836 E15.54929
G1 X114.399 Y98.25 E15.59637
G1 X114.331 Y99.619 E15.64196
G1 X114.129 Y101.017 E15.68894
G1 X113.781 Y102.426 E15.73722
G1 X113.304 Y103.757 E15.78424
G1 X112.702 Y105.031 E15.83111
G1 X111.968 Y106.257 E15.87863
G1 X111.13 Y107.386 E15.9254
G1 X110.183 Y108.433 E15.97235
G1 X109.136 Y109.38 E16.01931
G1 X108.007 Y110.218 E16.06607
G1 X106.785 Y110.95 E16.11345
G1 X105.507 Y111.554 E16.16046
G1 X104.18 Y112.029 E16.20734
G1 X102.794 Y112.376 E16.25486
G1 X101.416 Y112.579 E16.30119
G1 X100 Y112.649 E16.34835
G1 X98.584 Y112.579 E16.3955
G1 X97.206 Y112.376 E16.44183
G1 X95.82 Y112.029 E16.48935
G1 X94.493 Y111.554 E16.53623
G1 X93.215 Y110.95 E16.58324
G1 X91.993 Y110.218 E16.63062
G1 X90.864 Y109.38 E16.67738
G1 X89.817 Y108.433 E16.72434
G1 X88.87 Y107.386 E16.77129
G1 X88.032 Y106.257 E16.81806
G1 X87.298 Y105.031 E16.86558
G1 X86.696 Y103.758 E16.91242
G1 X86.221 Y102.43 E16.95933
G1 X85.879 Y101.063 E17.0062
G1 X85.671 Y99.664 E17.05324
G1 X85.601 Y98.25 E17.10033
G1 X85.671 Y96.836 E17.14741
G1 X85.879 Y95.437 E17.19446
G1 X86.222 Y94.066 E17.24146
G1 X86.696 Y92.743 E17.2882
G1 X87.298 Y91.469 E17.33507
G1 X88.032 Y90.243 E17.3826
G1 X88.87 Y89.114 E17.42936
G1 X89.817 Y88.067 E17.47632
G1 X90.864 Y87.12 E17.52327
G1 X91.993 Y86.282 E17.57003
G1 X93.215 Y85.55 E17.61741
G1 X94.493 Y84.946 E17.66443
G1 X95.82 Y84.471 E17.71131
G1 X97.187 Y84.129 E17.75817
G1 X98.586 Y83.921 E17.80522
G1 X100 Y83.851 E17.8523
G1 X101.414 Y83.921 E17.89939
G0 F3600 X101.41 Y84.02
G0 X103.151 Y112.69
G0 X103.235 Y112.678
;TYPE:WALL-OUTER
G1 F1500 X103.284 Y113.002 E17.91029
G1 X103.299 Y113.318 E17.92081
G1 X103.284 Y113.635 E17.93137
G1 X103.237 Y113.947 E17.94186
G1 X103.156 Y114.26 E17.95261
G1 X103.05 Y114.554 E17.96301
G1 X102.912 Y114.838 E17.97351
G1 X102.747 Y115.108 E17.98404
G1 X102.55 Y115.369 E17.99491
G1 X102.336 Y115.6 E18.00538
G1 X102.094 Y115.815 E18.01615
G1 X101.826 Y116.01 E18.02718
G1 X101.558 Y116.168 E18.03752
G1 X101.27 Y116.301 E18.04807
G1 X100.955 Y116.411 E18.05917
G1 X100.647 Y116.487 E18.06972
G1 X100.325 Y116.533 E18.08054
G1 X100 Y116.55 E18.09137
G1 X99.675 Y116.533 E18.10219
G1 X99.353 Y116.487 E18.11301
G1 X99.045 Y116.411 E18.12356
G1 X98.73 Y116.301 E18.13466
G1 X98.442 Y116.168 E18.14521
G1 X98.174 Y116.01 E18.15556
G1 X97.906 Y115.815 E18.16658
G1 X97.664 Y115.6 E18.17735
G1 X97.45 Y115.369 E18.18782
G1 X97.253 Y115.108 E18.1987
G1 X97.088 Y114.838 E18.20922
G1 X96.95 Y114.554 E18.21972
G1 X96.844 Y114.26 E18.23012
G1 X96.763 Y113.947 E18.24087
G1 X96.716 Y113.635 E18.25136
G1 X96.701 Y113.318 E18.26192
G1 X96.716 Y113.002 E18.27244
G1 X96.765 Y112.678 E18.28334
G1 X95.699 Y112.411 E18.31989
G1 X94.34 Y111.925 E18.36789
G1 X93.028 Y111.305 E18.41616
G1 X91.775 Y110.554 E18.46475
G1 X90.607 Y109.687 E18.51313
G1 X89.534 Y108.716 E18.56126
G1 X88.563 Y107.643 E18.60939
