;FLAVOR:Marlin
;TIME:2198
;Filament used: 1.26044m
;Layer height: 0.15
;Generated with Cura_SteamEngine 3.6.0
M140 S60
M105
M190 S60
M104 S200
M105
M109 S200
M82 ;absolute extrusion mode
G21 ;metric values
G90 ;absolute positioning
M82 ;set extruder to absolute mode
M107 ;start with the fan off
G28 X0 Y0 ;move X/Y to min endstops
G28 Z0 ;move Z to min endstops
G1 Z15.0 F120 ;move the platform down 15mm
G92 E0 ;zero the extruded length
G1 F200 E6 ;extrude 6 mm of feed stock
G92 E0 ;zero the extruded length again
G1 F120
M117 Printing...
G92 E0
G1 F2400 E-2.5
;LAYER_COUNT:15
;LAYER:0
M107
G0 F3600 X38.479 Y74.778 Z0.2
;TYPE:SKIRT
G1 F2400 E0
G1 F1500 X40.299 Y73.964 E0.04973
G1 X45.207 Y71.543 E0.18625
G1 X50.33 Y68.634 E0.33321
G1 X50.815 Y68.405 E0.34659
G1 X51.328 Y68.25 E0.35996
G1 X51.859 Y68.174 E0.37334
G1 X52.395 Y68.177 E0.38671
G1 X52.818 Y68.236 E0.39736
G1 X55.298 Y68.735 E0.46047
G1 X60.72 Y69.593 E0.5974
G1 X66.14 Y70.14 E0.73329
G1 X71.594 Y70.381 E0.86947
G1 X77.054 Y70.311 E1.00568
G1 X82.47 Y69.936 E1.14111
G1 X87.909 Y69.249 E1.27786
G1 X93.483 Y68.239 E1.41917
G1 X94.017 Y68.183 E1.43257
G1 X94.552 Y68.206 E1.44592
G1 X95.079 Y68.31 E1.45932
G1 X95.584 Y68.49 E1.4727
G1 X96.057 Y68.743 E1.48608
G1 X96.486 Y69.064 E1.49944
G1 X96.711 Y69.277 E1.50717
G1 X101.514 Y74.237 E1.6794
G1 X105.538 Y77.916 E1.81541
G1 X109.758 Y81.36 E1.95129
G1 X114.217 Y84.594 E2.08869
G1 X116.129 Y85.894 E2.14637
G1 X116.64 Y86.315 E2.16288
G1 X117.364 Y87.033 E2.18832
G1 X117.716 Y87.438 E2.2017
G1 X117.884 Y87.685 E2.20916
G1 X118.526 Y88.715 E2.23943
G1 X118.796 Y89.24 E2.25416
G1 X121.571 Y95.929 E2.43481
G1 X121.635 Y96.095 E2.43924
G1 X122.047 Y97.246 E2.46974
G1 X122.179 Y97.708 E2.48172
G1 X122.431 Y98.89 E2.51187
G1 X122.505 Y99.448 E2.52591
G1 X122.564 Y100.547 E2.55337
G1 X122.553 Y101.083 E2.56674
G1 X122.499 Y101.447 E2.57592
G1 X121.903 Y104.422 E2.65161
G1 X121.066 Y109.811 E2.78765
G1 X120.535 Y115.236 E2.92362
G1 X120.299 Y122.5 E3.10492
G1 X120.242 Y123.033 E3.11829
G1 X120.106 Y123.552 E3.13167
G1 X119.895 Y124.045 E3.14505
G1 X119.612 Y124.501 E3.15844
G1 X119.265 Y124.91 E3.17182
G1 X118.862 Y125.263 E3.18518
G1 X118.41 Y125.552 E3.19856
G1 X118.132 Y125.686 E3.20626
G1 X116.122 Y126.557 E3.26091
G1 X111.166 Y128.936 E3.39804
G1 X106.894 Y131.247 E3.5192
G1 X106.405 Y131.467 E3.53258
G1 X105.784 Y131.63 E3.54859
G1 X104.896 Y131.781 E3.57106
G1 X104.363 Y131.831 E3.58442
G1 X103.674 Y131.778 E3.60165
G1 X97.538 Y130.707 E3.75703
G1 X92.094 Y130.055 E3.8938
G1 X86.661 Y129.714 E4.0296
G1 X81.201 Y129.682 E4.1658
G1 X75.766 Y129.956 E4.30155
G1 X70.33 Y130.541 E4.43793
G1 X67.629 Y130.947 E4.50607
G1 X63.038 Y131.778 E4.62245
G1 X62.505 Y131.834 E4.63582
G1 X62.038 Y131.818 E4.64747
G1 X61.519 Y131.766 E4.66049
G1 X60.991 Y131.673 E4.67386
G1 X60.638 Y131.564 E4.68308
G1 X60.063 Y131.353 E4.69835
G1 X59.575 Y131.131 E4.71173
G1 X59.019 Y130.756 E4.72846
G1 X58.3 Y130.166 E4.75166
G1 X57.796 Y129.66 E4.76947
G1 X55.963 Y127.415 E4.84177
G1 X52.296 Y123.304 E4.97919
G1 X50.431 Y121.382 E5.04599
G1 X46.462 Y117.624 E5.18234
G1 X41.83 Y113.713 E5.33357
G1 X41.509 Y113.405 E5.34466
G1 X40.952 Y112.802 E5.36514
G1 X40.601 Y112.356 E5.3793
G1 X40.201 Y111.756 E5.39729
G1 X39.967 Y111.35 E5.40897
G1 X36.697 Y104.715 E5.59349
G1 X36.584 Y104.461 E5.60043
G1 X36.035 Y103.089 E5.63729
G1 X35.902 Y102.694 E5.64769
G1 X35.7 Y101.949 E5.66694
G1 X35.604 Y101.459 E5.6794
G1 X35.445 Y100.203 E5.71098
G1 X35.417 Y99.668 E5.72434
G1 X35.439 Y99.342 E5.7325
G1 X36.258 Y92.173 E5.91249
G1 X36.529 Y86.764 E6.04759
G1 X36.493 Y81.265 E6.18476
G1 X36.353 Y78.23 E6.26055
G1 X36.368 Y77.694 E6.27393
G1 X36.463 Y77.166 E6.28731
G1 X36.635 Y76.659 E6.30067
G1 X36.88 Y76.182 E6.31404
G1 X37.194 Y75.747 E6.32743
G1 X37.569 Y75.363 E6.34081
G1 X37.996 Y75.04 E6.35417
G1 X38.479 Y74.778 E6.36788
G0 F3600 X38.642 Y75.143
G1 F1500 X40.46 Y74.33 E6.41755
G1 X45.402 Y71.892 E6.55502
G1 X50.527 Y68.982 E6.70203
G1 X50.985 Y68.768 E6.71464
G1 X51.471 Y68.629 E6.72725
G1 X51.973 Y68.568 E6.73987
G1 X52.478 Y68.587 E6.75247
G1 X52.739 Y68.628 E6.75906
G1 X55.23 Y69.129 E6.82245
G1 X60.671 Y69.99 E6.95986
G1 X66.116 Y70.54 E7.09638
G1 X71.581 Y70.781 E7.23284
G1 X77.07 Y70.711 E7.36977
G1 X82.511 Y70.334 E7.50582
G1 X87.959 Y69.646 E7.6428
G1 X93.555 Y68.632 E7.78467
G1 X94.058 Y68.582 E7.79728
G1 X94.562 Y68.611 E7.80987
G1 X95.056 Y68.719 E7.82249
G1 X95.527 Y68.904 E7.83511
G1 X95.962 Y69.161 E7.84771
G1 X96.424 Y69.555 E7.86286
G1 X101.248 Y74.536 E8.03583
G1 X105.268 Y78.212 E8.17171
G1 X109.516 Y81.678 E8.30848
G1 X113.987 Y84.921 E8.44626
G1 X115.904 Y86.225 E8.50409
G1 X116.358 Y86.599 E8.51876
G1 X117.082 Y87.317 E8.5442
G1 X117.545 Y87.896 E8.56269
G1 X118.187 Y88.926 E8.59297
G1 X118.427 Y89.393 E8.60607
G1 X121.202 Y96.082 E8.78671
G1 X121.259 Y96.23 E8.79067
G1 X121.671 Y97.381 E8.82117
G1 X121.788 Y97.792 E8.83183
G1 X122.04 Y98.974 E8.86197
G1 X122.105 Y99.469 E8.87443
G1 X122.164 Y100.568 E8.90188
G1 X122.152 Y101.074 E8.91451
G1 X122.107 Y101.369 E8.92195
G1 X121.509 Y104.352 E8.99784
G1 X120.669 Y109.765 E9.13449
G1 X120.135 Y115.215 E9.27109
G1 X119.899 Y122.487 E9.45258
G1 X119.843 Y122.989 E9.46518
G1 X119.708 Y123.477 E9.47781
G1 X119.499 Y123.937 E9.49042
G1 X119.219 Y124.358 E9.50303
G1 X118.876 Y124.73 E9.51565
G1 X118.48 Y125.043 E9.52824
G1 X117.973 Y125.319 E9.54264
G1 X115.969 Y126.187 E9.59712
G1 X110.973 Y128.585 E9.73536
G1 X106.704 Y130.895 E9.85644
G1 X106.242 Y131.1 E9.86905
G1 X105.717 Y131.236 E9.88258
G1 X104.829 Y131.387 E9.90505
G1 X104.326 Y131.432 E9.91764
G1 X103.743 Y131.384 E9.93224
G1 X97.58 Y130.308 E10.0883
G1 X92.149 Y129.658 E10.22474
G1 X86.671 Y129.314 E10.36166
G1 X81.201 Y129.282 E10.49811
G1 X75.738 Y129.557 E10.63456
G1 X70.25 Y130.148 E10.77225
G1 X67.602 Y130.546 E10.83905
G1 X62.967 Y131.385 E10.95655
G1 X62.464 Y131.435 E10.96916
G1 X62.078 Y131.42 E10.97879
G1 X61.559 Y131.368 E10.9918
G1 X61.061 Y131.278 E11.00443
G1 X60.776 Y131.188 E11.01188
G1 X60.201 Y130.977 E11.02716
G1 X59.741 Y130.766 E11.03979
G1 X59.273 Y130.447 E11.05391
G1 X58.554 Y129.857 E11.07712
G1 X58.106 Y129.407 E11.09296
G1 X56.266 Y127.154 E11.16552
G1 X52.588 Y123.03 E11.30336
G1 X50.723 Y121.107 E11.37018
G1 X46.721 Y117.319 E11.50764
G1 X42.088 Y113.407 E11.6589
G1 X41.802 Y113.133 E11.66878
G1 X41.245 Y112.53 E11.68926
G1 X40.933 Y112.134 E11.70184
G1 X40.533 Y111.534 E11.71982
G1 X40.326 Y111.174 E11.73018
G1 X37.056 Y104.539 E11.9147
G1 X36.955 Y104.313 E11.92088
G1 X36.406 Y102.941 E11.95774
G1 X36.289 Y102.589 E11.96699
G1 X36.087 Y101.844 E11.98625
G1 X36 Y101.409 E11.99731
G1 X35.841 Y100.153 E12.0289
G1 X35.818 Y99.648 E12.04151
G1 X35.837 Y99.388 E12.04801
G1 X36.656 Y92.223 E12.2279
G1 X36.929 Y86.764 E12.36425
G1 X36.893 Y81.269 E12.50133
G1 X36.752 Y78.212 E12.57766
G1 X36.769 Y77.707 E12.59027
G1 X36.865 Y77.21 E12.6029
G1 X37.038 Y76.735 E12.61551
G1 X37.284 Y76.293 E12.62812
G1 X37.596 Y75.896 E12.64072
G1 X37.967 Y75.552 E12.65334
G1 X38.387 Y75.271 E12.66595
G1 X38.642 Y75.143 E12.67306
G1 F2400 E10.17306
;MESH:pisces.stl(1)
G0 F3600 X40.884 Y77.332
G0 X40.97 Y78.603
G0 X42.007 Y78.944
;TYPE:WALL-INNER
G1 F2400 E12.67306
G1 F1500 X42.008 Y78.943 E12.6731
G1 X42.731 Y78.912 E12.69115
G1 X42.79 Y78.963 E12.6931
G1 X42.894 Y79.095 E12.69729
G1 X42.989 Y79.276 E12.70239
G1 X43.101 Y79.594 E12.7108
G1 X43.216 Y80.059 E12.72275
G1 X43.276 Y80.338 E12.72987
G1 X43.231 Y80.855 E12.74281
G1 X43.171 Y81.551 E12.76024
G1 X42.855 Y80.928 E12.76928
G1 X42.82 Y80.861 E12.77117
G1 X42.47 Y80.248 E12.78877
G1 X42.023 Y79.523 E12.81002
G1 X41.848 Y79.249 E12.81813
G1 X41.661 Y78.957 E12.82678
G1 X42.007 Y78.944 E12.83167
G0 F3600 X44.045 Y80.294
G0 X43.061 Y87.705
G0 X42.958 Y90.97
G0 X43.096 Y93.894
G0 X43.833 Y96.459
G0 X44.123 Y98.942
G0 X45.483 Y101.317
G0 X46.923 Y104.035
G0 X48.49 Y106.48
G0 X55.495 Y107.745
G0 X56.113 Y107.649
G0 X56.618 Y107.342
G0 X56.999 Y106.821
G0 X57.253 Y106.132
G0 X59.27 Y91.479
G0 X64.29 Y91.504
G0 X65.241 Y89.631
G0 X64.027 Y87.703
G0 X62.348 Y86.586
G0 X60.828 Y85.416
G0 X59.501 Y84.229
G0 X57.699 Y83.933
G0 X56.514 Y83.686
G0 X55.187 Y83.388
G0 X53.52 Y84.379
G1 F1500 X53.445 Y84.744 E12.84096
G1 X53.429 Y85.099 E12.84983
G1 X53.462 Y85.439 E12.85835
G1 X53.489 Y85.557 E12.86137
G1 X53.537 Y85.765 E12.86669
G1 X53.643 Y86.078 E12.87494
G1 X53.726 Y86.258 E12.87988
G1 X53.782 Y86.378 E12.88318
G1 X53.949 Y86.664 E12.89145
G1 X54.145 Y86.936 E12.89981
G1 X54.366 Y87.188 E12.90817
G1 X54.379 Y87.2 E12.90861
G1 X54.613 Y87.418 E12.91659
G1 X54.892 Y87.63 E12.92533
G1 X55.2 Y87.808 E12.9342
G1 X55.534 Y87.95 E12.94326
G1 X55.895 Y88.043 E12.95256
G1 X56.205 Y88.078 E12.96034
G1 X56.516 Y88.075 E12.9681
G1 X56.822 Y88.025 E12.97583
G1 X57.117 Y87.936 E12.98352
G1 X57.399 Y87.807 E12.99125
G1 X57.656 Y87.649 E12.99878
G1 X57.895 Y87.465 E13.0063
G1 X58.122 Y87.256 E13.014
G1 X58.317 Y87.04 E13.02126
G1 X58.403 Y87.12 E13.02178
G1 X58.802 Y87.544 E13.03631
G1 X59.128 Y87.945 E13.0492
G1 X59.011 Y88.128 E13.05462
G1 X58.816 Y88.406 E13.06309
G1 X58.342 Y88.99 E13.08185
G1 X58.131 Y89.217 E13.08958
G1 X57.919 Y89.424 E13.09697
G1 X57.734 Y89.579 E13.10299
G1 X57.579 Y89.687 E13.1077
G1 X57.37 Y89.804 E13.11368
G1 X57.178 Y89.883 E13.11886
G1 X57.018 Y89.926 E13.12299
G1 X56.857 Y89.945 E13.12703
G1 X56.695 Y89.941 E13.13108
G1 X56.535 Y89.914 E13.13512
G1 X56.34 Y89.853 E13.14022
G1 X56.137 Y89.761 E13.14578
G1 X55.986 Y89.676 E13.1501
G1 X55.841 Y89.579 E13.15446
G1 X55.475 Y89.279 E13.16626
G1 X55.112 Y88.908 E13.17921
G1 X54.708 Y88.414 E13.19513
G1 X54.307 Y87.846 E13.21247
G1 X54.039 Y87.411 E13.22522
G1 X54.03 Y87.396 E13.22565
G1 X53.884 Y87.159 E13.232
G1 X53.851 Y87.099 E13.23371
G1 X53.69 Y86.807 E13.24027
G1 X53.53 Y86.518 E13.24627
G1 X53.456 Y86.384 E13.24913
G1 X53.371 Y86.214 E13.25267
G1 X53.225 Y85.922 E13.25942
G1 X53.13 Y85.731 E13.2644
G1 X53.008 Y85.487 E13.27121
G1 X52.862 Y85.155 E13.28026
G1 X52.784 Y84.908 E13.28672
G1 X52.75 Y84.705 E13.29185
G1 X52.738 Y84.39 E13.29971
G1 X52.748 Y84.167 E13.30528
G1 X52.776 Y83.994 E13.30965
G1 X52.82 Y83.845 E13.31353
G1 X52.896 Y83.67 E13.31829
G1 X52.954 Y83.565 E13.32128
G1 X53.019 Y83.473 E13.32409
G1 X53.091 Y83.391 E13.32681
G1 X53.187 Y83.302 E13.33008
G1 X53.307 Y83.21 E13.33385
G1 X53.423 Y83.137 E13.33727
G1 X53.59 Y83.05 E13.34197
G1 X53.748 Y82.982 E13.34626
G1 X53.987 Y82.904 E13.35253
G1 X54.299 Y82.827 E13.36055
G1 X54.488 Y82.79 E13.36535
G1 X54.534 Y82.782 E13.36651
G1 X54.68 Y82.753 E13.37023
G1 X54.854 Y82.73 E13.37461
G1 X54.962 Y82.715 E13.37733
G1 X55.123 Y82.706 E13.38135
G1 X55.452 Y82.778 E13.38975
G1 X55.567 Y82.804 E13.39269
G1 X55.897 Y82.895 E13.40123
G1 X55.573 Y82.914 E13.40225
G1 X55.42 Y82.924 E13.40381
G1 X55.186 Y82.978 E13.40653
G1 X55.031 Y83.013 E13.40959
G1 X54.897 Y83.045 E13.41234
G1 X54.811 Y83.079 E13.41409
G1 X54.609 Y83.16 E13.41916
G1 X54.568 Y83.182 E13.4203
G1 X54.351 Y83.302 E13.42648
G1 X54.113 Y83.48 E13.4339
G1 X53.886 Y83.706 E13.44189
G1 X53.671 Y84.024 E13.45146
G1 X53.52 Y84.379 E13.46109
G0 F3600 X54.762 Y83.487
G0 X55.471 Y83.282
G0 X56.567 Y83.289
G0 X57.801 Y83.546
G0 X59.513 Y84.192
G0 X60.938 Y85.012
G0 X62.608 Y86.281
G0 X64.787 Y88.458
G0 X65.713 Y89.581
G0 X64.418 Y92.14
G0 X60.431 Y90.761
G0 X59.544 Y91.772
G0 X58.545 Y92.524
G0 X57.739 Y105.63
G0 X57.565 Y106.508
G0 X57.214 Y107.245
G0 X56.701 Y107.792
G0 X56.011 Y108.095
G0 X55.119 Y108.123
G0 X54.378 Y107.917
G0 X52.958 Y107.215
G0 X51.912 Y99.574
G0 X51.014 Y100.183
G0 X50.191 Y98.221
G0 X49.817 Y96.908
G0 X48.53 Y90.679
G1 F1500 X48.529 Y90.678 E13.46112
G1 X48.509 Y90.076 E13.47615
G1 X48.886 Y90.546 E13.48404
G1 X49.172 Y90.902 E13.49543
G1 X49.113 Y91.782 E13.51744
G1 X49.083 Y92.522 E13.53591
G1 X49.08 Y92.794 E13.5427
G1 X49.08 Y92.854 E13.54419
G1 X49.074 Y93.436 E13.55871
G1 X49.077 Y93.772 E13.56709
G1 X49.084 Y94.319 E13.58074
G1 X49.1 Y94.659 E13.58923
G1 X49.115 Y94.976 E13.59715
G1 X49.175 Y95.525 E13.61092
G1 X49.179 Y95.555 E13.61168
G1 X49.267 Y96.119 E13.62592
G1 X49.304 Y96.31 E13.63077
G1 X49.338 Y96.482 E13.63514
G1 X49.29 Y96.313 E13.63522
G1 X49.246 Y96.125 E13.63542
G1 X49.114 Y95.57 E13.63697
G1 X49.105 Y95.532 E13.63723
G1 X49.002 Y94.998 E13.64028
G1 X48.937 Y94.666 E13.6434
G1 X48.888 Y94.35 E13.64685
G1 X48.798 Y93.776 E13.65568
G1 X48.762 Y93.474 E13.6612
G1 X48.686 Y92.851 E13.67513
G1 X48.681 Y92.792 E13.6766
G1 X48.599 Y91.883 E13.69936
G1 X48.538 Y90.874 E13.72458
G1 X48.53 Y90.679 E13.72945
G0 F3600 X49.859 Y97.142
G0 X50.386 Y98.745
G0 X51.014 Y100.183
G0 X52.554 Y99.068
G0 X52.166 Y97.286
G1 F1500 X52.103 Y97.128 E13.73369
G1 X51.95 Y96.681 E13.74548
G1 X51.82 Y96.208 E13.75771
G1 X51.74 Y95.817 E13.76767
G1 X51.729 Y95.732 E13.76981
G1 X51.693 Y95.447 E13.77697
G1 X51.683 Y95.204 E13.78304
G1 X51.808 Y95.311 E13.78349
G1 X52.026 Y95.497 E13.78879
G1 X52.85 Y96.201 E13.81582
G1 X52.547 Y97.312 E13.84455
G1 X52.448 Y97.674 E13.85391
G1 X52.401 Y97.845 E13.85833
G1 X52.304 Y97.635 E13.8602
G1 X52.166 Y97.286 E13.86677
G0 F3600 X52.485 Y98.905
G0 X54.046 Y105.056
G0 X52.958 Y107.215
G0 X54.378 Y107.917
G0 X55.119 Y108.123
G0 X56.011 Y108.095
G0 X56.701 Y107.792
G0 X57.214 Y107.245
G0 X57.565 Y106.508
G0 X57.614 Y106.26
G0 X58.369 Y101.173
G1 F1500 X58.585 Y101.155 E13.87218
G1 X59.559 Y101.073 E13.89656
G1 X59.715 Y101.06 E13.90047
G1 X59.846 Y101.052 E13.90374
G1 X59.845 Y101.068
G1 X59.834 Y101.224 E13.90664
G1 X59.508 Y105.83 E14.02183
G1 X59.316 Y105.866 E14.0267
G1 X58.973 Y105.957 E14.03555
G1 X58.638 Y106.075 E14.04441
G1 X58.397 Y106.184 E14.05101
G1 X58.314 Y106.221 E14.05328
G1 X58.038 Y106.37 E14.0611
G1 X57.964 Y106.411 E14.06321
G1 X57.996 Y106.294 E14.06376
G1 X58.015 Y106.173 E14.06425
G1 X58.029 Y106.084 E14.06625
G1 X58.099 Y105.663 E14.0769
G1 X58.145 Y104.925 E14.09534
G1 X58.151 Y104.301 E14.11091
G1 X58.122 Y103.677 E14.12649
G1 X58.046 Y102.928 E14.14527
G1 X57.917 Y101.926 E14.17047
G1 X57.798 Y100.891 E14.19646
G1 X57.76 Y100.007 E14.21853
G1 X57.731 Y98.192 E14.26381
G1 X56.495 Y98.192 E14.29465
G1 X56.494 Y98.192 E14.29467
G1 X56.266 Y98.192 E14.30036
G1 X56.297 Y97.966 E14.30391
G1 X56.916 Y93.44 E14.41786
G1 X57.038 Y93.434 E14.42091
G1 X57.522 Y93.344 E14.43319
G1 X58.096 Y93.147 E14.44833
G1 X58.136 Y93.134 E14.44938
G1 X58.233 Y93.086 E14.45208
G1 X58.506 Y92.948 E14.45971
G1 X58.43 Y93.216 E14.46194
G1 X58.383 Y93.382 E14.46493
G1 X58.375 Y93.424 E14.46599
G1 X58.287 Y93.85 E14.47684
G1 X58.215 Y94.346 E14.48935
G1 X58.173 Y94.863 E14.50229
G1 X58.154 Y95.398 E14.51564
G1 X58.162 Y95.945 E14.52929
G1 X58.251 Y97.505 E14.56826
G1 X58.302 Y98.134 E14.58401
G1 X58.337 Y98.381 E14.59023
G1 X58.359 Y98.646 E14.59686
G1 X58.369 Y99.235 E14.61156
G1 X58.369 Y100.956 E14.65449
G1 X58.369 Y100.957 E14.65451
G1 X58.369 Y101.173 E14.65792
G0 F3600 X58.573 Y94.394
G0 X58.848 Y93.065
G0 X59.175 Y92.346
G0 X59.736 Y91.74
G0 X60.466 Y91.418
G0 X61.267 Y91.403
G0 X62.092 Y91.649
G0 X63.157 Y92.288
G0 X63.653 Y92.713
G0 X63.797 Y93.026
G0 X62.881 Y100.215
G0 X63.478 Y100.825
G0 X63.7 Y102.436
G1 F1500 X63.73 Y102.525 E14.66026
G1 X63.85 Y102.941 E14.67106
G1 X63.951 Y103.356 E14.68172
G1 X63.992 Y103.56 E14.68691
G1 X64.012 Y103.711 E14.69071
G1 X64.021 Y104.018 E14.69837
G1 X64.029 Y104.324 E14.706
G1 X64.026 Y104.535 E14.71127
G1 X63.923 Y104.434 E14.71156
G1 X63.705 Y104.221 E14.71696
G1 X62.941 Y103.474 E14.74362
G1 X63.322 Y102.382 E14.77247
G1 X63.438 Y102.05 E14.78124
G1 X63.503 Y101.865 E14.78613
G1 X63.591 Y102.102 E14.78822
G1 X63.7 Y102.436 E14.7945
G0 F3600 X63.43 Y100.666
G0 X63.915 Y100.285
G0 X65.057 Y99.623
G0 X66.57 Y104.373
G1 F1500 X66.519 Y103.838 E14.80791
G1 X66.491 Y103.556 E14.81498
G1 X66.546 Y103.836 E14.81524
G1 X66.631 Y104.363 E14.81666
G1 X66.649 Y104.468 E14.81932
G1 X66.747 Y105.283 E14.8398
G1 X66.8 Y105.721 E14.8508
G1 X66.837 Y106.262 E14.86433
G1 X66.893 Y107.08 E14.88478
G1 X66.895 Y107.21 E14.88802
G1 X66.924 Y108.503 E14.92029
G1 X66.907 Y109.249 E14.9389
G1 X66.893 Y109.864 E14.95425
