;FLAVOR:Marlin
;TIME:1785
;Filament used: 1.13374m
;Layer height: 0.16
;MINX:68.636
;MINY:86.731
;MINZ:0.3
;MAXX:113.242
;MAXY:135.23
;MAXZ:9.9
;Generated with Cura_SteamEngine 4.1.0
M140 S70
M105
M190 S70
M104 S225
M105
M109 S225
M82 ;absolute extrusion mode
G21 ;metric values
G90 ;absolute positioning
M82 ;set extruder to absolute mode
M107 ;start with the fan off
G28 X0 Y0 ;move X/Y to min endstops
G28 Z0 ;move Z to min endstops
G1 Z15.0 F80 ;move the platform down 15mm
G92 E0 ;zero the extruded length
G1 F200 E6 ;extrude 6 mm of feed stock
G92 E0 ;zero the extruded length again
M117 Printing...
G1 F80
G92 E0
G92 E0
G1 F2100 E-1.75
;LAYER_COUNT:61
;LAYER:0
M107
G0 F2400 X90.129 Y89.976 Z0.3
;TYPE:SKIRT
G1 F2100 E0
G1 F1050 X90.273 Y89.836 E0.01002
G1 X90.595 Y89.534 E0.03204
G1 X91.264 Y88.991 E0.07503
G1 X91.652 Y88.72 E0.09864
G1 X91.792 Y88.625 E0.10708
G1 X92.113 Y88.414 E0.12625
G1 X92.798 Y88.026 E0.16552
G1 X93.216 Y87.824 E0.18869
G1 X93.422 Y87.729 E0.2
G1 X93.838 Y87.547 E0.22266
G1 X94.655 Y87.258 E0.26589
G1 X95.125 Y87.129 E0.29021
G1 X95.279 Y87.089 E0.29815
G1 X95.665 Y86.994 E0.31798
G1 X96.487 Y86.851 E0.3596
G1 X96.955 Y86.803 E0.38308
G1 X97.146 Y86.787 E0.39264
G1 X97.572 Y86.757 E0.41394
G1 X97.904 Y86.743 E0.43052
G1 X98.644 Y86.732 E0.46744
G1 X98.733 Y86.731 E0.47189
G1 X106.535 Y86.731 E0.86113
G1 X106.621 Y86.732 E0.86542
G1 X107.319 Y86.742 E0.90025
G1 X108.01 Y86.791 E0.93481
G1 X108.69 Y86.921 E0.96935
G1 X109.351 Y87.127 E1.00389
G1 X109.984 Y87.409 E1.03846
G1 X110.58 Y87.761 E1.07299
G1 X111.131 Y88.18 E1.10753
G1 X111.631 Y88.66 E1.14211
G1 X112.072 Y89.194 E1.17666
G1 X112.449 Y89.775 E1.21121
G1 X112.756 Y90.396 E1.24578
G1 X112.989 Y91.048 E1.28032
G1 X113.146 Y91.722 E1.31484
G1 X113.23 Y92.563 E1.35701
G1 X113.239 Y92.867 E1.37218
G1 X113.242 Y93.045 E1.38107
G1 X113.241 Y106.372 E2.04595
G1 X113.24 Y106.458 E2.05024
G1 X113.23 Y107.158 E2.08517
G1 X113.13 Y108.168 E2.13581
G1 X112.905 Y109.378 E2.19721
G1 X112.439 Y112.095 E2.33474
G1 X112.066 Y114.714 E2.46672
G1 X111.765 Y117.353 E2.59923
G1 X111.539 Y120.007 E2.73212
G1 X111.386 Y122.722 E2.86779
G1 X111.363 Y123.269 E2.8951
G1 X111.294 Y123.958 E2.92965
G1 X111.146 Y124.635 E2.96422
G1 X110.921 Y125.29 E2.99877
G1 X110.699 Y125.771 E3.0252
G1 X110.621 Y125.922 E3.03368
G1 X110.268 Y126.518 E3.06824
G1 X109.849 Y127.069 E3.10278
G1 X109.369 Y127.568 E3.13732
G1 X109.08 Y127.82 E3.15645
G1 X108.821 Y128.031 E3.17312
G1 X106.789 Y129.728 E3.3052
G1 X104.78 Y131.504 E3.43898
G1 X103.67 Y132.556 E3.51527
G1 X103.6 Y132.621 E3.52004
G1 X102.57 Y133.566 E3.58978
G1 X102.034 Y134.004 E3.62431
G1 X101.45 Y134.377 E3.65888
G1 X101.079 Y134.569 E3.67972
G1 X100.931 Y134.639 E3.68789
G1 X100.289 Y134.898 E3.72243
G1 X99.622 Y135.082 E3.75695
G1 X98.937 Y135.188 E3.79153
G1 X98.472 Y135.214 E3.81477
G1 X97.625 Y135.229 E3.85703
G1 X97.519 Y135.23 E3.86232
G1 X90.558 Y135.23 E4.2096
G1 X90.472 Y135.229 E4.21389
G1 X89.777 Y135.219 E4.24857
G1 X89.086 Y135.169 E4.28314
G1 X88.406 Y135.04 E4.31767
G1 X87.613 Y134.782 E4.35927
G1 X87.44 Y134.712 E4.36858
G1 X86.814 Y134.416 E4.40313
G1 X86.226 Y134.049 E4.43771
G1 X85.685 Y133.617 E4.47225
G1 X85.286 Y133.225 E4.50015
G1 X83.518 Y131.315 E4.63
G1 X81.693 Y129.448 E4.76026
G1 X79.754 Y127.571 E4.89489
G1 X77.804 Y125.79 E5.02665
G1 X75.779 Y124.043 E5.16008
G1 X73.74 Y122.38 E5.29135
G1 X71.145 Y120.399 E5.45423
G1 X70.62 Y119.948 E5.48876
G1 X70.15 Y119.439 E5.52332
G1 X69.857 Y119.051 E5.54758
G1 X69.703 Y118.829 E5.56106
G1 X69.342 Y118.238 E5.59561
G1 X69.051 Y117.609 E5.63018
G1 X68.835 Y116.952 E5.66469
G1 X68.696 Y116.273 E5.69927
G1 X68.636 Y115.583 E5.73382
G1 X68.637 Y115.199 E5.75298
G1 X68.654 Y114.714 E5.77719
G1 X68.718 Y114.024 E5.81176
G1 X68.861 Y113.347 E5.84628
G1 X69.081 Y112.69 E5.88085
G1 X69.376 Y112.063 E5.91542
G1 X69.741 Y111.475 E5.94995
G1 X70.171 Y110.932 E5.9845
G1 X70.434 Y110.655 E6.00356
G1 X70.597 Y110.494 E6.01499
G1 X70.987 Y110.141 E6.04123
G1 X71.498 Y109.718 E6.07433
G1 X71.564 Y109.664 E6.07858
G1 X72.608 Y108.825 E6.1454
G1 X74.613 Y107.116 E6.27684
G1 X76.594 Y105.33 E6.40991
G1 X78.503 Y103.508 E6.54157
G1 X80.417 Y101.576 E6.67725
G1 X82.198 Y99.669 E6.80743
G1 X83.963 Y97.672 E6.94039
G1 X85.655 Y95.645 E7.07212
G1 X87.319 Y93.532 E7.2063
G1 X88.837 Y91.484 E7.33349
G1 X88.874 Y91.435 E7.33655
G1 X89.257 Y90.929 E7.36821
G1 X89.792 Y90.314 E7.40888
G1 X90.129 Y89.976 E7.43269
G0 F2400 X90.412 Y90.258
G1 F1050 X90.547 Y90.127 E7.44207
G1 X90.869 Y89.825 E7.4641
G1 X91.493 Y89.319 E7.50418
G1 X91.881 Y89.048 E7.52779
G1 X92.012 Y88.959 E7.53569
G1 X92.333 Y88.748 E7.55486
G1 X92.972 Y88.386 E7.5915
G1 X93.39 Y88.184 E7.61466
G1 X93.582 Y88.096 E7.6252
G1 X93.998 Y87.914 E7.64785
G1 X94.761 Y87.644 E7.68823
G1 X95.231 Y87.515 E7.71254
G1 X95.375 Y87.477 E7.71997
G1 X95.761 Y87.382 E7.73981
G1 X96.528 Y87.249 E7.77864
G1 X96.996 Y87.201 E7.80211
G1 X97.174 Y87.186 E7.81103
G1 X97.6 Y87.156 E7.83233
G1 X97.91 Y87.143 E7.84781
G1 X98.65 Y87.132 E7.88473
G1 X98.733 Y87.131 E7.88888
G1 X106.535 Y87.131 E8.27812
G1 X106.615 Y87.132 E8.28211
G1 X107.313 Y87.142 E8.31694
G1 X107.98 Y87.191 E8.3503
G1 X108.637 Y87.32 E8.38371
G1 X109.273 Y87.526 E8.41706
G1 X109.881 Y87.807 E8.45048
G1 X110.45 Y88.157 E8.48381
G1 X110.974 Y88.574 E8.51722
G1 X111.444 Y89.05 E8.55059
G1 X111.854 Y89.578 E8.58394
G1 X112.199 Y90.152 E8.61735
G1 X112.472 Y90.763 E8.65074
G1 X112.67 Y91.402 E8.68411
G1 X112.791 Y92.06 E8.71749
G1 X112.831 Y92.575 E8.74326
G1 X112.84 Y92.879 E8.75844
G1 X112.842 Y93.045 E8.76672
G1 X112.841 Y106.372 E9.43161
G1 X112.84 Y106.452 E9.4356
G1 X112.83 Y107.152 E9.47052
G1 X112.737 Y108.095 E9.5178
G1 X112.497 Y109.387 E9.58336
G1 X112.048 Y112.002 E9.71573
G1 X111.669 Y114.665 E9.84993
G1 X111.368 Y117.31 E9.98274
G1 X111.14 Y119.986 E10.11673
G1 X110.984 Y122.741 E10.2544
G1 X110.963 Y123.252 E10.27991
G1 X110.895 Y123.918 E10.31331
G1 X110.748 Y124.571 E10.34671
G1 X110.525 Y125.201 E10.38005
G1 X110.343 Y125.587 E10.40134
G1 X110.265 Y125.738 E10.40982
G1 X109.923 Y126.313 E10.44319
G1 X109.515 Y126.843 E10.47656
G1 X108.827 Y127.51 E10.52437
G1 X108.568 Y127.721 E10.54104
G1 X106.513 Y129.437 E10.67461
G1 X104.508 Y131.211 E10.80817
G1 X103.395 Y132.265 E10.88464
G1 X103.33 Y132.326 E10.88909
G1 X102.3 Y133.271 E10.95883
G1 X101.781 Y133.693 E10.9922
G1 X101.215 Y134.051 E11.02561
G1 X100.908 Y134.207 E11.04279
G1 X100.76 Y134.277 E11.05096
G1 X100.14 Y134.527 E11.08431
G1 X99.493 Y134.7 E11.11773
G1 X98.831 Y134.796 E11.1511
G1 X98.465 Y134.814 E11.16938
G1 X97.618 Y134.829 E11.21165
G1 X97.519 Y134.83 E11.21659
G1 X90.558 Y134.83 E11.56387
G1 X90.477 Y134.829 E11.56791
G1 X89.782 Y134.819 E11.60259
G1 X89.115 Y134.77 E11.63596
G1 X88.459 Y134.641 E11.66931
G1 X87.763 Y134.411 E11.70588
G1 X87.59 Y134.341 E11.71519
G1 X86.985 Y134.054 E11.7486
G1 X86.42 Y133.696 E11.78197
G1 X85.901 Y133.274 E11.81534
G1 X85.58 Y132.953 E11.83799
G1 X83.833 Y131.065 E11.96632
G1 X81.956 Y129.145 E12.10028
G1 X80.054 Y127.305 E12.23231
G1 X78.051 Y125.475 E12.36766
G1 X76.047 Y123.746 E12.49971
G1 X73.989 Y122.068 E12.63219
G1 X71.388 Y120.082 E12.79546
G1 X70.882 Y119.644 E12.82884
G1 X70.431 Y119.15 E12.86222
G1 X70.186 Y118.823 E12.8826
G1 X70.032 Y118.601 E12.89608
G1 X69.684 Y118.029 E12.92948
G1 X69.407 Y117.42 E12.96286
G1 X69.204 Y116.783 E12.99622
G1 X69.079 Y116.126 E13.02958
G1 X69.036 Y115.213 E13.07518
G1 X69.053 Y114.728 E13.0994
G1 X69.117 Y114.062 E13.13278
G1 X69.259 Y113.408 E13.16616
G1 X69.478 Y112.776 E13.19953
G1 X69.771 Y112.175 E13.23289
G1 X70.134 Y111.612 E13.26631
G1 X70.715 Y110.94 E13.31063
G1 X70.878 Y110.779 E13.32206
G1 X71.242 Y110.449 E13.34657
G1 X71.753 Y110.026 E13.37967
G1 X71.815 Y109.976 E13.38364
G1 X72.852 Y109.142 E13.45003
G1 X74.86 Y107.432 E13.58162
G1 X76.872 Y105.617 E13.7168
G1 X78.817 Y103.761 E13.85093
G1 X80.677 Y101.883 E13.9828
G1 X82.489 Y99.944 E14.1152
G1 X84.286 Y97.91 E14.25061
G1 X85.978 Y95.882 E14.38238
G1 X87.628 Y93.789 E14.51534
G1 X89.159 Y91.722 E14.64367
G1 X89.193 Y91.676 E14.64653
G1 X89.576 Y91.17 E14.67819
G1 X90.075 Y90.596 E14.71613
G1 X90.412 Y90.258 E14.73995
G0 F2400 X90.696 Y90.54
G1 F1050 X90.821 Y90.419 E14.74863
G1 X91.143 Y90.117 E14.77065
G1 X91.722 Y89.647 E14.80786
G1 X92.11 Y89.376 E14.83147
G1 X92.232 Y89.294 E14.8388
G1 X92.553 Y89.083 E14.85797
G1 X93.146 Y88.746 E14.89199
G1 X93.564 Y88.544 E14.91516
G1 X93.743 Y88.462 E14.92498
G1 X94.159 Y88.28 E14.94763
G1 X94.867 Y88.029 E14.98511
G1 X95.337 Y87.9 E15.00942
G1 X95.47 Y87.866 E15.01627
G1 X95.856 Y87.771 E15.03611
G1 X96.568 Y87.647 E15.07216
G1 X97.036 Y87.599 E15.09563
G1 X97.202 Y87.585 E15.10394
G1 X97.628 Y87.555 E15.12525
G1 X97.916 Y87.543 E15.13963
G1 X98.656 Y87.532 E15.17655
G1 X98.733 Y87.531 E15.1804
G1 X106.535 Y87.531 E15.56964
G1 X106.609 Y87.532 E15.57333
G1 X107.307 Y87.542 E15.60816
G1 X107.95 Y87.591 E15.64033
G1 X108.582 Y87.719 E15.6725
G1 X109.193 Y87.925 E15.70467
G1 X109.774 Y88.204 E15.73683
G1 X110.316 Y88.553 E15.76899
G1 X110.81 Y88.967 E15.80114
G1 X111.25 Y89.439 E15.83334
G1 X111.628 Y89.961 E15.86549
G1 X111.938 Y90.526 E15.89764
G1 X112.176 Y91.125 E15.9298
G1 X112.338 Y91.749 E15.96196
G1 X112.431 Y92.587 E16.00403
G1 X112.44 Y92.891 E16.0192
G1 X112.442 Y93.045 E16.02688
G1 X112.441 Y106.372 E16.69177
G1 X112.44 Y106.446 E16.69546
G1 X112.43 Y107.146 E16.73039
G1 X112.344 Y108.022 E16.7743
G1 X112.104 Y109.314 E16.83986
G1 X111.651 Y111.955 E16.97355
G1 X111.275 Y114.595 E17.10659
G1 X110.967 Y117.302 E17.24251
G1 X110.743 Y119.929 E17.37405
G1 X110.583 Y122.763 E17.51566
G1 X110.563 Y123.235 E17.53923
G1 X110.496 Y123.877 E17.57144
G1 X110.351 Y124.505 E17.60359
G1 X110.128 Y125.11 E17.63576
G1 X109.988 Y125.404 E17.65201
G1 X109.91 Y125.555 E17.66048
G1 X109.579 Y126.108 E17.69264
G1 X109.182 Y126.616 E17.7248
G1 X108.574 Y127.2 E17.76686
G1 X108.315 Y127.411 E17.78353
G1 X106.255 Y129.131 E17.91742
G1 X104.251 Y130.903 E18.05088
G1 X103.12 Y131.975 E18.12862
G1 X103.059 Y132.032 E18.13279
G1 X102.029 Y132.977 E18.20253
G1 X101.528 Y133.382 E18.23467
G1 X100.737 Y133.846 E18.28042
G1 X100.589 Y133.916 E18.28859
G1 X99.991 Y134.155 E18.32071
G1 X99.367 Y134.318 E18.35289
G1 X98.458 Y134.414 E18.39849
G1 X97.611 Y134.429 E18.44076
G1 X97.519 Y134.43 E18.44535
G1 X90.558 Y134.43 E18.79263
G1 X90.483 Y134.429 E18.79637
G1 X89.788 Y134.419 E18.83105
G1 X89.145 Y134.37 E18.86322
G1 X88.514 Y134.242 E18.89535
G1 X87.913 Y134.04 E18.92698
G1 X87.74 Y133.97 E18.93629
G1 X87.158 Y133.692 E18.96847
G1 X86.616 Y133.344 E19.0006
G1 X86.12 Y132.931 E19.0328
G1 X85.873 Y132.682 E19.0503
G1 X84.094 Y130.759 E19.181
G1 X82.256 Y128.879 E19.31217
G1 X80.301 Y126.987 E19.4479
G1 X78.325 Y125.183 E19.58139
G1 X76.298 Y123.435 E19.71492
G1 X74.235 Y121.753 E19.84772
G1 X71.631 Y119.764 E20.0112
G1 X71.144 Y119.341 E20.04338
G1 X70.713 Y118.862 E20.07553
G1 X70.514 Y118.595 E20.09214
G1 X70.36 Y118.373 E20.10562
G1 X70.026 Y117.821 E20.13781
G1 X69.763 Y117.233 E20.16995
G1 X69.575 Y116.616 E20.20212
G1 X69.465 Y115.981 E20.23428
G1 X69.436 Y115.227 E20.27192
G1 X69.453 Y114.742 E20.29613
G1 X69.516 Y114.1 E20.32832
G1 X69.657 Y113.471 E20.36048
G1 X69.875 Y112.865 E20.39261
G1 X70.167 Y112.29 E20.42478
G1 X70.527 Y111.755 E20.45695
G1 X70.996 Y111.224 E20.4923
G1 X71.159 Y111.063 E20.50373
G1 X71.497 Y110.757 E20.52647
G1 X72.008 Y110.334 E20.55957
G1 X72.065 Y110.288 E20.56322
G1 X73.116 Y109.443 E20.6305
G1 X75.141 Y107.718 E20.76322
G1 X77.151 Y105.905 E20.89826
G1 X79.058 Y104.084 E21.02981
G1 X80.97 Y102.154 E21.16535
G1 X82.798 Y100.198 E21.29892
G1 X84.576 Y98.185 E21.43291
G1 X86.283 Y96.14 E21.56581
G1 X87.947 Y94.029 E21.69992
G1 X89.48 Y91.96 E21.82839
G1 X89.512 Y91.918 E21.83102
G1 X89.895 Y91.412 E21.86268
G1 X90.359 Y90.878 E21.89797
G1 X90.696 Y90.54 E21.92179
G1 F2100 E20.17179
;MESH:i3_tensioner_2.STL
G0 F2400 X93.626 Y94.01
G0 X94.518 Y94.933
G0 X94.659 Y98.6
G0 X95.074 Y99.703
G0 X97.316 Y102.079
;TYPE:WALL-INNER
G1 F2100 E21.92179
G1 F1050 X97.327 Y102.079 E21.92233
G1 X98.04 Y102.137 E21.95802
G1 X98.764 Y102.065 E21.99432
G1 X99.461 Y101.871 E22.03042
G1 X100.115 Y101.557 E22.06661
G1 X100.705 Y101.136 E22.10277
G1 X101.212 Y100.616 E22.13901
G1 X101.624 Y100.018 E22.17524
G1 X101.923 Y99.357 E22.21143
G1 X102.102 Y98.657 E22.24748
G1 X102.16 Y97.933 E22.28371
G1 X102.088 Y97.209 E22.32001
G1 X101.894 Y96.512 E22.35611
G1 X101.581 Y95.859 E22.39223
G1 X101.158 Y95.268 E22.42849
G1 X100.639 Y94.761 E22.46469
G1 X100.281 Y94.515 E22.48636
G1 X100.042 Y94.35 E22.50085
G1 X99.559 Y94.131 E22.52731
G1 X100.042 Y94.131 E22.53347
G1 X100.333 Y94.131 E22.54486
G1 X105.642 Y94.131 E22.80972
G1 X105.842 Y94.131 E22.8197
G1 X105.842 Y94.331 E22.82616
G1 X105.841 Y105.868 E23.40175
G1 X101.09 Y105.869 E23.63877
G1 X100.848 Y105.838 E23.65095
G1 X100.717 Y105.786 E23.65798
G1 X100.526 Y105.647 E23.66976
G1 X97.055 Y102.371 E23.90788
G1 X97.047 Y102.363 E23.90845
G1 X96.588 Y101.929 E23.93996
G1 X96.502 Y101.848 E23.94586
G1 X96.616 Y101.9 E23.94641
G1 X97.316 Y102.079 E23.96906
G0 F2400 X95.142 Y100.421
G1 F1050 X95.613 Y100.879 E24.00184
G1 X96.151 Y101.25 E24.03444
G1 X96.749 Y101.521 E24.0672
G1 X97.382 Y101.683 E24.0998
G1 X98.036 Y101.735 E24.13253
G1 X98.69 Y101.67 E24.16532
G1 X99.32 Y101.495 E24.19794
G1 X99.911 Y101.211 E24.23065
G1 X100.444 Y100.831 E24.26331
G1 X100.902 Y100.361 E24.29605
G1 X101.274 Y99.821 E24.32876
G1 X101.544 Y99.224 E24.36145
G1 X101.706 Y98.591 E24.39405
G1 X101.758 Y97.937 E24.42678
G1 X101.693 Y97.283 E24.45957
G1 X101.518 Y96.653 E24.49219
G1 X101.235 Y96.063 E24.52484
G1 X100.853 Y95.529 E24.55759
G1 X100.384 Y95.071 E24.5903
G1 X99.845 Y94.7 E24.62294
G1 X99.247 Y94.429 E24.6557
G1 X98.614 Y94.267 E24.6883
G1 X97.96 Y94.215 E24.72103
G1 X97.308 Y94.28 E24.75372
G1 X96.676 Y94.455 E24.78643
G1 X96.086 Y94.739 E24.8191
G1 X95.552 Y95.119 E24.8518
G1 X95.092 Y95.591 E24.88468
G1 X94.723 Y96.13 E24.91727
G1 X94.453 Y96.724 E24.94982
G1 X94.29 Y97.359 E24.98253
G1 X94.238 Y98.013 E25.01526
G1 X94.303 Y98.667 E25.04805
G1 X94.479 Y99.297 E25.08068
G1 X94.762 Y99.887 E25.11333
G1 X95.142 Y100.421 E25.14603
G0 F2400 X101.062 Y106.269
G1 F1050 X100.751 Y106.229 E25.16167
G1 X100.521 Y106.139 E25.17399
G1 X100.267 Y105.953 E25.1897
G1 X95.115 Y101.09 E25.54315
G1 X94.607 Y100.52 E25.58125
G1 X94.225 Y99.91 E25.61715
G1 X93.95 Y99.24 E25.65329
G1 X93.796 Y98.546 E25.68875
G1 X93.761 Y97.813 E25.72536
G1 X93.85 Y97.097 E25.76136
G1 X94.059 Y96.406 E25.79738
G1 X94.379 Y95.764 E25.83316
G1 X94.803 Y95.187 E25.86889
G1 X95.329 Y94.68 E25.90534
G1 X95.923 Y94.277 E25.94115
G1 X96.58 Y93.978 E25.97716
G1 X97.276 Y93.796 E26.01305
G1 X98.047 Y93.731 E26.05165
G1 X106.042 Y93.731 E26.45052
G1 X106.242 Y93.731 E26.4605
G1 X106.242 Y93.931 E26.46696
G1 X106.241 Y106.268 E27.08246
G1 X101.062 Y106.269 E27.34084
G0 F2400 X101.034 Y106.669
G1 F1050 X100.652 Y106.62 E27.36005
G1 X100.327 Y106.492 E27.37748
G1 X100.009 Y106.26 E27.39712
G1 X94.829 Y101.371 E27.75248
G1 X94.287 Y100.763 E27.79312
G1 X93.867 Y100.092 E27.83261
G1 X93.566 Y99.358 E27.87219
G1 X93.398 Y98.599 E27.91097
G1 X93.36 Y97.8 E27.95088
G1 X93.457 Y97.013 E27.99044
G1 X93.685 Y96.26 E28.02969
G1 X94.036 Y95.555 E28.06898
G1 X94.503 Y94.92 E28.10831
G1 X95.076 Y94.368 E28.148
G1 X95.726 Y93.927 E28.18719
G1 X96.445 Y93.6 E28.2266
G1 X97.211 Y93.4 E28.26609
G1 X98.025 Y93.331 E28.30685
G1 X106.442 Y93.331 E28.72677
G1 X106.642 Y93.331 E28.73675
G1 X106.642 Y93.531 E28.74321
G1 X106.641 Y106.668 E29.39862
G1 X101.034 Y106.669 E29.67836
G0 F2400 X101.04 Y106.57
G0 X95.372 Y100.225
G0 X95.447 Y100.16
G1 F1050 X95.868 Y100.569 E29.70764
G1 X96.349 Y100.9 E29.73677
G1 X96.882 Y101.142 E29.76597
G1 X97.448 Y101.287 E29.79512
G1 X98.032 Y101.333 E29.82435
G1 X98.616 Y101.275 E29.85363
G1 X99.179 Y101.119 E29.88277
G1 X99.707 Y100.865 E29.91201
G1 X100.183 Y100.526 E29.94116
G1 X100.592 Y100.106 E29.97041
G1 X100.924 Y99.624 E29.99961
G1 X101.165 Y99.091 E30.02879
G1 X101.31 Y98.525 E30.05794
