;FLAVOR:Marlin
;TIME:7937
;Filament used: 5.14672m
;Layer height: 0.16
;MINX:74
;MINY:72.622
;MINZ:0.3
;MAXX:125.999
;MAXY:127.378
;MAXZ:48.94
;Generated with Cura_SteamEngine 4.1.0
M140 S70
M105
M190 S70
M104 S225
M105
M109 S225
M82 ;absolute extrusion mode
G21 ;metric values
G90 ;absolute positioning
M82 ;set extruder to absolute mode
M107 ;start with the fan off
G28 X0 Y0 ;move X/Y to min endstops
G28 Z0 ;move Z to min endstops
G1 Z15.0 F80 ;move the platform down 15mm
G92 E0 ;zero the extruded length
G1 F200 E6 ;extrude 6 mm of feed stock
G92 E0 ;zero the extruded length again
M117 Printing...
G1 F80
G92 E0
G92 E0
G1 F2100 E-1.75
;LAYER_COUNT:305
;LAYER:0
M107
G0 F2400 X75.929 Y75.861 Z0.3
;TYPE:SKIRT
G1 F2100 E0
G1 F1050 X76.471 Y75.414 E0.03505
G1 X76.744 Y75.214 E0.05193
G1 X78.206 Y74.13 E0.14274
G1 X78.271 Y74.083 E0.14674
G1 X78.712 Y73.765 E0.17386
G1 X79.296 Y73.393 E0.20841
G1 X79.919 Y73.091 E0.24295
G1 X80.573 Y72.863 E0.2775
G1 X81.249 Y72.711 E0.31207
G1 X82.04 Y72.635 E0.35172
G1 X82.338 Y72.626 E0.36659
G1 X82.518 Y72.623 E0.37557
G1 X87.08 Y72.622 E0.60317
G1 X87.167 Y72.623 E0.60751
G1 X87.865 Y72.633 E0.64234
G1 X88.452 Y72.67 E0.67168
G1 X91.196 Y72.98 E0.80945
G1 X93.808 Y73.202 E0.94023
G1 X96.494 Y73.353 E1.07445
G1 X99.165 Y73.429 E1.20776
G1 X101.795 Y73.429 E1.33897
G1 X104.488 Y73.353 E1.47338
G1 X107.124 Y73.203 E1.6051
G1 X109.777 Y72.977 E1.73794
G1 X111.195 Y72.825 E1.80909
G1 X112.542 Y72.671 E1.87673
G1 X113.041 Y72.635 E1.90169
G1 X113.368 Y72.625 E1.91801
G1 X113.551 Y72.622 E1.92714
G1 X118.054 Y72.622 E2.1518
G1 X118.14 Y72.623 E2.15609
G1 X118.838 Y72.633 E2.19092
G1 X119.529 Y72.682 E2.22548
G1 X120.209 Y72.812 E2.26002
G1 X120.87 Y73.018 E2.29456
G1 X121.503 Y73.3 E2.32913
G1 X122.099 Y73.652 E2.36367
G1 X122.65 Y74.071 E2.3982
G1 X123.15 Y74.551 E2.43278
G1 X123.519 Y74.989 E2.46135
G1 X124.744 Y76.592 E2.562
G1 X125.132 Y77.165 E2.59653
G1 X125.452 Y77.78 E2.63112
G1 X125.698 Y78.427 E2.66565
G1 X125.868 Y79.098 E2.70018
G1 X125.961 Y79.796 E2.73532
G1 X125.983 Y80.096 E2.75032
G1 X125.999 Y80.539 E2.77244
G1 X125.974 Y119.044 E4.69346
G1 X125.973 Y119.125 E4.6975
G1 X125.963 Y119.828 E4.73258
G1 X125.914 Y120.519 E4.76714
G1 X125.785 Y121.199 E4.80167
G1 X125.578 Y121.86 E4.83623
G1 X125.297 Y122.493 E4.87078
G1 X124.944 Y123.089 E4.90534
G1 X124.525 Y123.641 E4.93991
G1 X124.155 Y124.037 E4.96695
G1 X122.569 Y125.585 E5.07752
G1 X122.046 Y126.039 E5.11207
G1 X121.475 Y126.43 E5.1466
G1 X120.862 Y126.753 E5.18117
G1 X120.216 Y127.003 E5.21572
G1 X119.546 Y127.176 E5.25025
G1 X118.86 Y127.272 E5.2848
G1 X118.477 Y127.29 E5.30393
G1 X117.693 Y127.303 E5.34305
G1 X117.594 Y127.304 E5.34799
G1 X114.3 Y127.304 E5.51233
G1 X114.214 Y127.303 E5.51662
G1 X113.516 Y127.293 E5.55145
G1 X112.929 Y127.256 E5.58079
G1 X110.289 Y126.958 E5.71334
G1 X107.638 Y126.731 E5.84608
G1 X105.01 Y126.581 E5.97741
G1 X102.313 Y126.504 E6.11202
G1 X99.682 Y126.504 E6.24328
G1 X97.016 Y126.579 E6.37634
G1 X94.357 Y126.728 E6.5092
G1 X91.694 Y126.954 E6.64254
G1 X88.479 Y127.326 E6.804
G1 X87.882 Y127.365 E6.83385
G1 X87.111 Y127.377 E6.87232
G1 X87.018 Y127.378 E6.87696
G1 X82.917 Y127.378 E7.08156
G1 X82.831 Y127.377 E7.08585
G1 X82.133 Y127.367 E7.12068
G1 X81.442 Y127.318 E7.15524
G1 X80.762 Y127.188 E7.18978
G1 X80.101 Y126.982 E7.22432
G1 X79.468 Y126.7 E7.25889
G1 X78.677 Y126.211 E7.30529
G1 X77.438 Y125.305 E7.38187
G1 X77.413 Y125.287 E7.3834
G1 X76.45 Y124.575 E7.44315
G1 X75.918 Y124.131 E7.47772
G1 X75.44 Y123.63 E7.51227
G1 X75.024 Y123.077 E7.5468
G1 X74.674 Y122.479 E7.58136
G1 X74.395 Y121.845 E7.61592
G1 X74.191 Y121.183 E7.65048
G1 X74.064 Y120.502 E7.68504
G1 X74.025 Y120.059 E7.70723
G1 X74.008 Y119.729 E7.72371
G1 X74 Y119.42 E7.73914
G1 X74 Y80.957 E9.65806
G1 X74.001 Y80.871 E9.66235
G1 X74.011 Y80.173 E9.69718
G1 X74.06 Y79.482 E9.73174
G1 X74.19 Y78.802 E9.76628
G1 X74.396 Y78.141 E9.80082
G1 X74.678 Y77.508 E9.8354
G1 X75.03 Y76.912 E9.86993
G1 X75.449 Y76.361 E9.90446
G1 X75.929 Y75.861 E9.93904
G0 F2400 X76.319 Y76.048
G1 F1050 X76.707 Y75.737 E9.96385
G1 X77.015 Y75.512 E9.98288
G1 X78.445 Y74.452 E10.07169
G1 X78.505 Y74.408 E10.0754
G1 X78.946 Y74.09 E10.10252
G1 X79.511 Y73.732 E10.13589
G1 X80.114 Y73.443 E10.16925
G1 X80.748 Y73.229 E10.20264
G1 X81.403 Y73.092 E10.23602
G1 X82.052 Y73.035 E10.26853
G1 X82.35 Y73.026 E10.2834
G1 X82.518 Y73.023 E10.29178
G1 X87.08 Y73.022 E10.51938
G1 X87.161 Y73.023 E10.52342
G1 X87.859 Y73.033 E10.55825
G1 X88.407 Y73.067 E10.58564
G1 X91.153 Y73.377 E10.72351
G1 X93.82 Y73.604 E10.85705
G1 X96.462 Y73.753 E10.98907
G1 X99.153 Y73.829 E11.12338
G1 X101.807 Y73.829 E11.25579
G1 X104.487 Y73.753 E11.38955
G1 X107.145 Y73.602 E11.52237
G1 X109.85 Y73.371 E11.65781
G1 X111.215 Y73.225 E11.7263
G1 X112.587 Y73.068 E11.7952
G1 X113.053 Y73.035 E11.8185
G1 X113.38 Y73.025 E11.83483
G1 X113.551 Y73.022 E11.84336
G1 X118.054 Y73.022 E12.06801
G1 X118.134 Y73.023 E12.07201
G1 X118.832 Y73.033 E12.10683
G1 X119.499 Y73.082 E12.1402
G1 X120.156 Y73.211 E12.1736
G1 X120.792 Y73.417 E12.20696
G1 X121.4 Y73.698 E12.24037
G1 X121.969 Y74.048 E12.2737
G1 X122.493 Y74.465 E12.30711
G1 X122.963 Y74.941 E12.34048
G1 X123.202 Y75.232 E12.35927
G1 X124.427 Y76.835 E12.45992
G1 X124.8 Y77.39 E12.49328
G1 X125.105 Y77.985 E12.52664
G1 X125.337 Y78.613 E12.56004
G1 X125.492 Y79.264 E12.59343
G1 X125.562 Y79.825 E12.62163
G1 X125.584 Y80.125 E12.63664
G1 X125.599 Y80.539 E12.65731
G1 X125.574 Y119.044 E14.57833
G1 X125.573 Y119.12 E14.58212
G1 X125.563 Y119.823 E14.6172
G1 X125.514 Y120.49 E14.65057
G1 X125.385 Y121.146 E14.68392
G1 X125.179 Y121.783 E14.71732
G1 X124.899 Y122.39 E14.75067
G1 X124.548 Y122.96 E14.78407
G1 X124.131 Y123.484 E14.81748
G1 X123.875 Y123.751 E14.83593
G1 X122.289 Y125.299 E14.9465
G1 X121.784 Y125.736 E14.97982
G1 X121.229 Y126.111 E15.01324
G1 X120.634 Y126.416 E15.04659
G1 X120.007 Y126.649 E15.07997
G1 X119.356 Y126.805 E15.11336
G1 X118.471 Y126.89 E15.15772
G1 X117.687 Y126.903 E15.19684
G1 X117.594 Y126.904 E15.20148
G1 X114.3 Y126.904 E15.36582
G1 X114.22 Y126.903 E15.36981
G1 X113.522 Y126.893 E15.40464
G1 X112.973 Y126.859 E15.43208
G1 X110.328 Y126.56 E15.56488
G1 X107.659 Y126.332 E15.69852
G1 X105.009 Y126.181 E15.83094
G1 X102.325 Y126.104 E15.9649
G1 X99.67 Y126.104 E16.09736
G1 X96.984 Y126.179 E16.23142
G1 X94.334 Y126.328 E16.36384
G1 X91.68 Y126.553 E16.49672
G1 X88.433 Y126.929 E16.6598
G1 X87.876 Y126.965 E16.68764
G1 X87.105 Y126.977 E16.72611
G1 X87.018 Y126.978 E16.73046
G1 X82.917 Y126.978 E16.93505
G1 X82.837 Y126.977 E16.93905
G1 X82.139 Y126.967 E16.97387
G1 X81.472 Y126.918 E17.00724
G1 X80.815 Y126.789 E17.04064
G1 X80.179 Y126.583 E17.074
G1 X79.571 Y126.302 E17.10741
G1 X78.914 Y125.888 E17.14616
G1 X77.675 Y124.982 E17.22273
G1 X77.651 Y124.965 E17.2242
G1 X76.688 Y124.253 E17.28395
G1 X76.175 Y123.824 E17.31731
G1 X75.716 Y123.336 E17.35074
G1 X75.319 Y122.798 E17.38409
G1 X74.989 Y122.216 E17.41747
G1 X74.731 Y121.599 E17.45084
G1 X74.548 Y120.955 E17.48424
G1 X74.424 Y120.038 E17.53041
G1 X74.407 Y119.708 E17.54689
G1 X74.4 Y119.42 E17.56126
G1 X74.4 Y80.957 E19.48019
G1 X74.401 Y80.877 E19.48418
G1 X74.411 Y80.179 E19.51901
G1 X74.46 Y79.512 E19.55238
G1 X74.589 Y78.855 E19.58578
G1 X74.795 Y78.219 E19.61913
G1 X75.076 Y77.611 E19.65255
G1 X75.426 Y77.042 E19.68588
G1 X75.843 Y76.518 E19.71929
G1 X76.319 Y76.048 E19.75266
G0 F2400 X76.236 Y76.682
G1 F1050 X76.943 Y76.06 E19.79964
G1 X77.251 Y75.835 E19.81867
G1 X78.683 Y74.773 E19.90762
G1 X78.739 Y74.732 E19.91108
G1 X79.18 Y74.414 E19.9382
G1 X79.725 Y74.07 E19.97036
G1 X80.308 Y73.796 E20.00249
G1 X80.922 Y73.597 E20.0347
G1 X81.555 Y73.475 E20.06686
G1 X82.064 Y73.434 E20.09233
G1 X82.362 Y73.425 E20.10721
G1 X82.518 Y73.423 E20.11499
G1 X87.08 Y73.422 E20.34259
G1 X87.155 Y73.423 E20.34633
G1 X87.853 Y73.433 E20.38116
G1 X88.362 Y73.465 E20.4066
G1 X91.11 Y73.775 E20.54457
G1 X93.765 Y74.001 E20.67751
G1 X96.462 Y74.153 E20.81228
G1 X99.142 Y74.229 E20.94604
G1 X101.818 Y74.229 E21.07954
G1 X104.487 Y74.153 E21.21275
G1 X107.201 Y73.999 E21.34837
G1 X109.836 Y73.774 E21.48031
G1 X111.3 Y73.618 E21.55376
G1 X111.3 Y73.619 E21.55381
G1 X112.633 Y73.466 E21.62075
G1 X113.065 Y73.434 E21.64237
G1 X113.392 Y73.424 E21.65869
G1 X113.551 Y73.422 E21.66662
G1 X118.054 Y73.422 E21.89128
G1 X118.128 Y73.423 E21.89497
G1 X118.826 Y73.433 E21.9298
G1 X119.469 Y73.482 E21.96197
G1 X120.101 Y73.61 E21.99414
G1 X120.712 Y73.816 E22.02631
G1 X121.293 Y74.095 E22.05846
G1 X121.835 Y74.444 E22.09062
G1 X122.329 Y74.858 E22.12278
G1 X122.884 Y75.475 E22.16418
G1 X124.109 Y77.078 E22.26484
G1 X124.468 Y77.613 E22.29698
G1 X124.758 Y78.189 E22.32915
G1 X124.974 Y78.796 E22.3613
G1 X125.114 Y79.426 E22.39349
G1 X125.163 Y79.855 E22.41504
G1 X125.185 Y80.155 E22.43004
G1 X125.199 Y80.538 E22.44916
G1 X125.174 Y119.043 E24.37019
G1 X125.173 Y119.114 E24.37373
G1 X125.163 Y119.817 E24.40881
G1 X125.114 Y120.46 E24.44098
G1 X124.986 Y121.092 E24.47315
G1 X124.781 Y121.703 E24.5053
G1 X124.501 Y122.284 E24.53748
G1 X124.152 Y122.825 E24.5696
G1 X123.596 Y123.464 E24.61186
G1 X122.01 Y125.012 E24.72243
G1 X121.522 Y125.433 E24.75458
G1 X120.985 Y125.79 E24.78675
G1 X120.408 Y126.078 E24.81892
G1 X119.8 Y126.293 E24.8511
G1 X119.171 Y126.43 E24.88322
G1 X118.464 Y126.49 E24.91861
G1 X117.68 Y126.503 E24.95773
G1 X117.594 Y126.504 E24.96202
G1 X114.3 Y126.504 E25.12636
G1 X114.226 Y126.503 E25.13005
G1 X113.528 Y126.493 E25.16488
G1 X113.018 Y126.461 E25.19038
G1 X110.371 Y126.162 E25.32328
G1 X107.715 Y125.935 E25.45627
G1 X105.009 Y125.781 E25.59149
G1 X102.336 Y125.704 E25.7249
G1 X99.659 Y125.704 E25.85846
G1 X96.984 Y125.779 E25.99196
G1 X94.278 Y125.931 E26.12718
G1 X91.666 Y126.153 E26.25796
G1 X88.387 Y126.532 E26.42264
G1 X87.87 Y126.565 E26.44849
G1 X87.099 Y126.577 E26.48696
G1 X87.018 Y126.578 E26.491
G1 X82.917 Y126.578 E26.6956
G1 X82.843 Y126.577 E26.69929
G1 X82.145 Y126.567 E26.73412
G1 X81.502 Y126.518 E26.76629
G1 X80.87 Y126.39 E26.79846
G1 X80.259 Y126.184 E26.83063
G1 X79.678 Y125.905 E26.86279
G1 X79.15 Y125.566 E26.89409
G1 X77.911 Y124.66 E26.97067
G1 X77.889 Y124.643 E26.97205
G1 X76.926 Y123.931 E27.0318
G1 X76.432 Y123.517 E27.06396
G1 X75.993 Y123.044 E27.09616
G1 X75.617 Y122.521 E27.12829
G1 X75.308 Y121.955 E27.16046
G1 X75.071 Y121.355 E27.19265
G1 X74.91 Y120.731 E27.2248
G1 X74.824 Y120.018 E27.26063
G1 X74.807 Y119.688 E27.27711
G1 X74.8 Y119.42 E27.29049
G1 X74.8 Y80.957 E29.20942
G1 X74.801 Y80.883 E29.21311
G1 X74.811 Y80.185 E29.24794
G1 X74.86 Y79.542 E29.28011
G1 X74.988 Y78.91 E29.31228
G1 X75.194 Y78.299 E29.34445
G1 X75.473 Y77.718 E29.3766
G1 X75.822 Y77.176 E29.40876
G1 X76.236 Y76.682 E29.44092
G0 F2400 X82.419 Y78.822
;TYPE:SUPPORT
G1 F1050 X87.588 Y78.822 E29.6988
G1 X87.587 Y79.35 E29.72514
G1 X82.42 Y79.35 E29.98293
G1 X82.419 Y78.822 E30.00927
G0 F2400 X82.677 Y78.982
G1 F1050 X82.677 Y79.19 E30.01965
G0 F2400 X85.344 Y79.19
G1 F1050 X85.344 Y78.982 E30.03002
G0 F2400 X113.421 Y78.822
G1 F1050 X118.564 Y78.822 E30.28661
G1 X118.573 Y79.35 E30.31295
G1 X113.421 Y79.35 E30.56999
G1 X113.421 Y78.822 E30.59633
G0 F2400 X114.681 Y78.982
G1 F1050 X114.681 Y79.19 E30.60671
G0 F2400 X117.348 Y79.19
G1 F1050 X117.348 Y78.982 E30.61709
G1 F2100 E28.86709
G0 F2400 X120.534 Y79.597
G0 X120.662 Y119.906
G0 X118.351 Y120.65
G1 F2100 E30.61709
G1 F1050 X118.226 Y121.104 E30.64058
G1 X113.747 Y121.104 E30.86404
G1 X113.627 Y120.65 E30.88746
G1 X118.351 Y120.65 E31.12315
G0 F2400 X117.348 Y120.81
G1 F1050 X117.348 Y120.944 E31.12983
G0 F2400 X114.681 Y120.944
G1 F1050 X114.681 Y120.81 E31.13652
G0 F2400 X87.589 Y120.65
G1 F1050 X87.583 Y121.178 E31.16286
G1 X82.41 Y121.178 E31.42094
G1 X82.41 Y120.65 E31.44728
G1 X87.589 Y120.65 E31.70567
G0 F2400 X85.344 Y120.81
G1 F1050 X85.344 Y121.018 E31.71604
G0 F2400 X82.677 Y121.018
G1 F1050 X82.677 Y120.81 E31.72642
G1 F2100 E29.97642
;MESH:bracket.stl
G0 F2400 X82.677 Y119.13
G0 X81.4 Y118.35
;TYPE:WALL-INNER
G1 F2100 E31.72642
G1 F1050 X81.4 Y81.65 E33.55739
G1 X118.6 Y81.65 E35.41331
G1 X118.6 Y118.35 E37.24428
G1 X81.4 Y118.35 E39.10019
G0 F2400 X93.516 Y113.862
G0 X94.332 Y113.211
G0 X94.783 Y112.271
G0 X94.837 Y110.991
G0 X107.5 Y100.14
G1 F1050 X106.808 Y100.221 E39.13495
G1 X106.153 Y100.448 E39.16954
G1 X105.561 Y100.819 E39.20439
G1 X105.069 Y101.311 E39.23911
G1 X104.698 Y101.903 E39.27396
G1 X104.471 Y102.557 E39.3085
G1 X104.4 Y103.17 E39.33929
G1 X104.4 Y112.03 E39.78131
G1 X104.471 Y112.643 E39.8121
G1 X104.698 Y113.297 E39.84664
G1 X105.069 Y113.889 E39.88149
G1 X105.561 Y114.381 E39.91621
G1 X106.153 Y114.752 E39.95106
G1 X106.814 Y114.982 E39.98598
G1 X107.516 Y115.056 E40.0212
G1 X108.191 Y114.979 E40.05509
G1 X108.847 Y114.752 E40.08972
G1 X109.439 Y114.381 E40.12458
G1 X109.931 Y113.889 E40.15929
G1 X110.302 Y113.297 E40.19415
G1 X110.529 Y112.643 E40.22868
G1 X110.6 Y112.03 E40.25947
G1 X110.6 Y103.17 E40.7015
G1 X110.529 Y102.557 E40.73229
G1 X110.302 Y101.903 E40.76682
G1 X109.931 Y101.311 E40.80168
G1 X109.439 Y100.819 E40.83639
G1 X108.847 Y100.448 E40.87125
G1 X108.192 Y100.221 E40.90583
G1 X107.5 Y100.14 E40.94059
G0 F2400 X93.961 Y86.418
G0 X92.5 Y85.14
G1 F1050 X91.808 Y85.221 E40.97535
G1 X91.153 Y85.448 E41.00994
G1 X90.561 Y85.819 E41.04479
G1 X90.069 Y86.311 E41.07951
G1 X89.698 Y86.903 E41.11436
G1 X89.471 Y87.557 E41.1489
G1 X89.4 Y88.17 E41.17969
G1 X89.4 Y111.83 E42.36009
G1 X89.471 Y112.443 E42.39088
G1 X89.698 Y113.097 E42.42541
G1 X90.069 Y113.689 E42.46027
G1 X90.561 Y114.181 E42.49498
G1 X91.153 Y114.552 E42.52984
G1 X91.814 Y114.782 E42.56475
G1 X92.516 Y114.856 E42.59997
G1 X93.191 Y114.779 E42.63387
G1 X93.847 Y114.552 E42.6685
G1 X94.439 Y114.181 E42.70335
G1 X94.931 Y113.689 E42.73807
G1 X95.302 Y113.097 E42.77292
G1 X95.529 Y112.443 E42.80746
G1 X95.6 Y111.83 E42.83825
G1 X95.6 Y88.17 E44.01865
G1 X95.529 Y87.557 E44.04944
G1 X95.302 Y86.903 E44.08397
G1 X94.931 Y86.311 E44.11883
G1 X94.439 Y85.819 E44.15354
G1 X93.847 Y85.448 E44.1884
G1 X93.192 Y85.221 E44.22298
G1 X92.5 Y85.14 E44.25774
G0 F2400 X92.5 Y85.543
G1 F1050 X91.898 Y85.613 E44.28798
G1 X91.327 Y85.811 E44.31813
G1 X90.812 Y86.134 E44.34846
G1 X90.384 Y86.562 E44.37866
G1 X90.061 Y87.077 E44.40899
G1 X89.863 Y87.647 E44.43909
G1 X89.8 Y88.193 E44.46651
G1 X89.8 Y111.807 E45.64462
G1 X89.863 Y112.353 E45.67204
G1 X90.061 Y112.923 E45.70214
G1 X90.384 Y113.438 E45.73247
G1 X90.812 Y113.866 E45.76267
G1 X91.327 Y114.189 E45.793
G1 X91.902 Y114.389 E45.82337
G1 X92.514 Y114.454 E45.85408
G1 X93.102 Y114.387 E45.8836
G1 X93.673 Y114.189 E45.91375
G1 X94.188 Y113.866 E45.94408
G1 X94.616 Y113.438 E45.97428
G1 X94.939 Y112.923 E46.00461
G1 X95.137 Y112.353 E46.03471
G1 X95.2 Y111.807 E46.06213
G1 X95.2 Y88.193 E47.24024
G1 X95.137 Y87.647 E47.26766
G1 X94.939 Y87.077 E47.29776
G1 X94.616 Y86.562 E47.32809
G1 X94.188 Y86.134 E47.35829
G1 X93.673 Y85.811 E47.38862
G1 X93.102 Y85.613 E47.41877
G1 X92.5 Y85.543 E47.44901
G0 F2400 X93.961 Y86.418
G0 X107.5 Y100.543
G1 F1050 X106.898 Y100.613 E47.47924
G1 X106.327 Y100.811 E47.5094
G1 X105.812 Y101.134 E47.53972
G1 X105.384 Y101.562 E47.56992
G1 X105.061 Y102.077 E47.60025
G1 X104.863 Y102.647 E47.63035
G1 X104.8 Y103.193 E47.65778
G1 X104.8 Y112.007 E48.09751
G1 X104.863 Y112.553 E48.12493
G1 X105.061 Y113.123 E48.15503
G1 X105.384 Y113.638 E48.18536
G1 X105.812 Y114.066 E48.21556
G1 X106.327 Y114.389 E48.24589
G1 X106.902 Y114.589 E48.27626
G1 X107.514 Y114.654 E48.30697
G1 X108.102 Y114.587 E48.33649
G1 X108.673 Y114.389 E48.36664
G1 X109.188 Y114.066 E48.39697
G1 X109.616 Y113.638 E48.42717
G1 X109.939 Y113.123 E48.4575
G1 X110.137 Y112.553 E48.4876
G1 X110.2 Y112.007 E48.51502
G1 X110.2 Y103.193 E48.95475
G1 X110.137 Y102.647 E48.98218
G1 X109.939 Y102.077 E49.01228
G1 X109.616 Y101.562 E49.04261
G1 X109.188 Y101.134 E49.07281
G1 X108.673 Y100.811 E49.10313
G1 X108.102 Y100.613 E49.13329
G1 X107.5 Y100.543 E49.16352
G0 F2400 X106.039 Y101.418
G0 X93.961 Y113.582
G0 X81 Y118.75
G1 F1050 X81 Y81.25 E51.0344
