;FLAVOR:Marlin
;TIME:3183
;Filament used: 2.32348m
;Layer height: 0.16
;MINX:82.863
;MINY:59.059
;MINZ:0.3
;MAXX:117.15
;MAXY:126.5
;MAXZ:24.94
;Generated with Cura_SteamEngine 4.1.0
M140 S70
M105
M190 S70
M104 S225
M105
M109 S225
M82 ;absolute extrusion mode
G21 ;metric values
G90 ;absolute positioning
M82 ;set extruder to absolute mode
M107 ;start with the fan off
G28 X0 Y0 ;move X/Y to min endstops
G28 Z0 ;move Z to min endstops
G1 Z15.0 F80 ;move the platform down 15mm
G92 E0 ;zero the extruded length
G1 F200 E6 ;extrude 6 mm of feed stock
G92 E0 ;zero the extruded length again
M117 Printing...
G1 F80
G92 E0
G92 E0
G1 F2100 E-1.75
;LAYER_COUNT:155
;LAYER:0
M107
G0 F2400 X84.865 Y63.089 Z0.3
;TYPE:SKIRT
G1 F2100 E0
G1 F1050 X85.39 Y62.442 E0.04157
G1 X85.574 Y62.245 E0.05502
G1 X85.756 Y62.058 E0.06804
G1 X86.029 Y61.79 E0.08712
G1 X86.667 Y61.246 E0.12895
G1 X86.935 Y61.048 E0.14558
G1 X87.081 Y60.944 E0.15452
G1 X87.28 Y60.806 E0.1666
G1 X87.859 Y60.45 E0.20051
G1 X88.047 Y60.349 E0.21116
G1 X88.279 Y60.232 E0.22412
G1 X88.598 Y60.078 E0.24179
G1 X89.386 Y59.764 E0.28411
G1 X89.851 Y59.616 E0.30846
G1 X90.621 Y59.426 E0.34803
G1 X91.223 Y59.319 E0.37853
G1 X91.991 Y59.233 E0.41709
G1 X92.225 Y59.222 E0.42877
G1 X92.63 Y59.216 E0.44898
G1 X93.019 Y59.224 E0.46839
G1 X93.181 Y59.23 E0.47648
G1 X94.465 Y59.291 E0.54061
G1 X97.217 Y59.384 E0.67799
G1 X99.883 Y59.398 E0.811
G1 X102.511 Y59.337 E0.94214
G1 X105.174 Y59.201 E1.07517
G1 X106.924 Y59.071 E1.16272
G1 X107.596 Y59.059 E1.19625
G1 X108.171 Y59.081 E1.22496
G1 X109.081 Y59.186 E1.27066
G1 X109.66 Y59.298 E1.30009
G1 X110.41 Y59.494 E1.33876
G1 X110.609 Y59.56 E1.34922
G1 X110.965 Y59.691 E1.36814
G1 X111.25 Y59.806 E1.38348
G1 X111.893 Y60.111 E1.41898
G1 X112.381 Y60.379 E1.44676
G1 X113.146 Y60.878 E1.49233
G1 X113.606 Y61.231 E1.52125
G1 X114.299 Y61.854 E1.56775
G1 X114.695 Y62.27 E1.5964
G1 X115.289 Y63.001 E1.64339
G1 X115.602 Y63.455 E1.6709
G1 X115.973 Y64.07 E1.70674
G1 X116.086 Y64.285 E1.71885
G1 X116.263 Y64.65 E1.73909
G1 X116.385 Y64.926 E1.75415
G1 X116.636 Y65.601 E1.79008
G1 X116.813 Y66.181 E1.82033
G1 X116.995 Y66.964 E1.86044
G1 X117.03 Y67.178 E1.87125
G1 X117.079 Y67.544 E1.88968
G1 X117.125 Y68 E1.91254
G1 X117.15 Y68.855 E1.95522
G1 X117.136 Y69.187 E1.97179
G1 X117.126 Y69.36 E1.98044
G1 X117.09 Y69.866 E2.00575
G1 X116.94 Y72.496 E2.13717
G1 X116.863 Y75.193 E2.27178
G1 X116.863 Y77.825 E2.40309
G1 X116.938 Y80.49 E2.5361
G1 X117.093 Y83.253 E2.67417
G1 X117.101 Y83.672 E2.69507
G1 X117.098 Y83.892 E2.70605
G1 X117.086 Y84.199 E2.72138
G1 X117.07 Y84.445 E2.73368
G1 X116.982 Y85.153 E2.76927
G1 X116.855 Y85.836 E2.80393
G1 X116.706 Y86.452 E2.83555
G1 X115.936 Y89.036 E2.97007
G1 X115.248 Y91.613 E3.10314
G1 X114.628 Y94.224 E3.23702
G1 X114.09 Y96.81 E3.3688
G1 X113.621 Y99.456 E3.50287
G1 X113.236 Y102.037 E3.63306
G1 X112.917 Y104.686 E3.76617
G1 X112.672 Y107.35 E3.89964
G1 X112.503 Y110.01 E4.03262
G1 X112.413 Y112.633 E4.16356
G1 X112.391 Y114.671 E4.26524
G1 X112.391 Y119.764 E4.51933
G1 X112.39 Y119.847 E4.52347
G1 X112.38 Y120.574 E4.55974
G1 X112.331 Y121.264 E4.59426
G1 X112.202 Y121.945 E4.62883
G1 X111.996 Y122.606 E4.66338
G1 X111.715 Y123.239 E4.69793
G1 X111.363 Y123.835 E4.73246
G1 X110.944 Y124.387 E4.76704
G1 X110.465 Y124.887 E4.80158
G1 X109.931 Y125.328 E4.83613
G1 X109.35 Y125.705 E4.87069
G1 X108.73 Y126.012 E4.9052
G1 X108.078 Y126.246 E4.93976
G1 X107.403 Y126.403 E4.97434
G1 X106.55 Y126.489 E5.01711
G1 X106.23 Y126.498 E5.03308
G1 X106.061 Y126.5 E5.04151
G1 X92.521 Y126.5 E5.71703
G1 X91.823 Y126.491 E5.75185
G1 X91.132 Y126.442 E5.78641
G1 X90.451 Y126.313 E5.82099
G1 X89.79 Y126.108 E5.85552
G1 X89.157 Y125.827 E5.89007
G1 X88.56 Y125.476 E5.92462
G1 X88.008 Y125.058 E5.95917
G1 X87.508 Y124.579 E5.99371
G1 X87.066 Y124.045 E6.0283
G1 X86.689 Y123.465 E6.06281
G1 X86.381 Y122.844 E6.09739
G1 X86.146 Y122.193 E6.13192
G1 X85.989 Y121.518 E6.1665
G1 X85.902 Y120.653 E6.20987
G1 X85.893 Y120.32 E6.22649
G1 X85.891 Y120.158 E6.23457
G1 X85.891 Y108.573 E6.81255
G1 X85.854 Y105.944 E6.94372
G1 X85.739 Y103.244 E7.07855
G1 X85.553 Y100.616 E7.20999
G1 X85.287 Y97.931 E7.3446
G1 X84.955 Y95.336 E7.47512
G1 X84.541 Y92.702 E7.60814
G1 X84.054 Y90.085 E7.74095
G1 X83.306 Y86.678 E7.91497
G1 X83.113 Y85.87 E7.95642
G1 X83.056 Y85.61 E7.9697
G1 X83.003 Y85.335 E7.98367
G1 X82.911 Y84.633 E8.01899
G1 X82.863 Y83.969 E8.05221
G1 X82.865 Y83.077 E8.09671
G1 X82.886 Y82.809 E8.11012
G1 X83.052 Y80.139 E8.24358
G1 X83.143 Y77.445 E8.37806
G1 X83.158 Y74.776 E8.51122
G1 X83.098 Y72.16 E8.64177
G1 X83.025 Y70.816 E8.70892
G1 X83.022 Y70.751 E8.71217
G1 X82.957 Y69.262 E8.78652
G1 X82.951 Y69 E8.7996
G1 X82.951 Y68.611 E8.81901
G1 X83.011 Y67.767 E8.86122
G1 X83.089 Y67.218 E8.88889
G1 X83.293 Y66.301 E8.93575
G1 X83.437 Y65.832 E8.96023
G1 X83.731 Y65.067 E9.00112
G1 X84.003 Y64.481 E9.03335
G1 X84.33 Y63.871 E9.06788
G1 X84.535 Y63.559 E9.0865
G1 X84.865 Y63.089 E9.11515
G0 F2400 X85.192 Y63.319
G1 F1050 X85.682 Y62.715 E9.15396
G1 X85.866 Y62.518 E9.16741
G1 X86.036 Y62.344 E9.17954
G1 X86.309 Y62.076 E9.19863
G1 X86.904 Y61.568 E9.23766
G1 X87.172 Y61.37 E9.25428
G1 X87.309 Y61.272 E9.26269
G1 X87.508 Y61.134 E9.27477
G1 X88.049 Y60.803 E9.30641
G1 X88.237 Y60.702 E9.31706
G1 X88.452 Y60.592 E9.32911
G1 X88.771 Y60.438 E9.34678
G1 X89.508 Y60.145 E9.38635
G1 X89.973 Y59.997 E9.41069
G1 X90.691 Y59.819 E9.4476
G1 X91.293 Y59.712 E9.4781
G1 X92.01 Y59.632 E9.5141
G1 X92.244 Y59.621 E9.52578
G1 X92.622 Y59.616 E9.54464
G1 X93.011 Y59.624 E9.56406
G1 X93.162 Y59.629 E9.57159
G1 X94.502 Y59.693 E9.63852
G1 X97.201 Y59.783 E9.77325
G1 X99.854 Y59.798 E9.90561
G1 X102.542 Y59.736 E10.03975
G1 X105.225 Y59.598 E10.17378
G1 X106.954 Y59.47 E10.26028
G1 X107.581 Y59.459 E10.29157
G1 X108.156 Y59.481 E10.32027
G1 X109.006 Y59.579 E10.36296
G1 X109.585 Y59.691 E10.39238
G1 X110.284 Y59.874 E10.42843
G1 X110.483 Y59.94 E10.43889
G1 X110.815 Y60.062 E10.45654
G1 X111.1 Y60.177 E10.47187
G1 X111.701 Y60.461 E10.50504
G1 X112.189 Y60.729 E10.53281
G1 X112.902 Y61.195 E10.57531
G1 X113.362 Y61.548 E10.60423
G1 X114.009 Y62.13 E10.64765
G1 X114.405 Y62.546 E10.67631
G1 X114.959 Y63.228 E10.72014
G1 X115.272 Y63.682 E10.74765
G1 X115.619 Y64.256 E10.78112
G1 X115.732 Y64.471 E10.79323
G1 X115.897 Y64.812 E10.81213
G1 X116.019 Y65.088 E10.82719
G1 X116.253 Y65.717 E10.86067
G1 X116.43 Y66.297 E10.89092
G1 X116.601 Y67.028 E10.92838
G1 X116.636 Y67.242 E10.9392
G1 X116.681 Y67.584 E10.95641
G1 X116.727 Y68.04 E10.97927
G1 X116.75 Y68.838 E11.0191
G1 X116.736 Y69.17 E11.03568
G1 X116.727 Y69.331 E11.04372
G1 X116.694 Y69.798 E11.06708
G1 X116.54 Y72.497 E11.20195
G1 X116.463 Y75.181 E11.33591
G1 X116.463 Y77.837 E11.46842
G1 X116.538 Y80.522 E11.60243
G1 X116.693 Y83.275 E11.74
G1 X116.701 Y83.666 E11.75951
G1 X116.698 Y83.886 E11.77048
G1 X116.687 Y84.173 E11.78481
G1 X116.671 Y84.419 E11.79711
G1 X116.589 Y85.08 E11.83034
G1 X116.462 Y85.763 E11.865
G1 X116.323 Y86.338 E11.89451
G1 X115.543 Y88.956 E12.0308
G1 X114.864 Y91.498 E12.16207
G1 X114.242 Y94.121 E12.29656
G1 X113.694 Y96.757 E12.43088
G1 X113.231 Y99.363 E12.56293
G1 X112.838 Y102.001 E12.69599
G1 X112.516 Y104.673 E12.83026
G1 X112.275 Y107.289 E12.96133
G1 X112.105 Y109.97 E13.09535
G1 X112.012 Y112.656 E13.22944
G1 X111.991 Y114.667 E13.32977
G1 X111.991 Y119.764 E13.58406
G1 X111.99 Y119.841 E13.58791
G1 X111.98 Y120.568 E13.62418
G1 X111.931 Y121.235 E13.65755
G1 X111.803 Y121.892 E13.69094
G1 X111.597 Y122.528 E13.72429
G1 X111.317 Y123.136 E13.75769
G1 X110.966 Y123.706 E13.79109
G1 X110.55 Y124.23 E13.82446
G1 X110.075 Y124.7 E13.8578
G1 X109.546 Y125.111 E13.89122
G1 X108.973 Y125.455 E13.92457
G1 X108.362 Y125.729 E13.95797
G1 X107.724 Y125.928 E13.99132
G1 X107.066 Y126.049 E14.0247
G1 X106.538 Y126.089 E14.05111
G1 X106.218 Y126.098 E14.06708
G1 X106.061 Y126.1 E14.07492
G1 X92.526 Y126.1 E14.75018
G1 X91.828 Y126.091 E14.78501
G1 X91.161 Y126.042 E14.81837
G1 X90.504 Y125.914 E14.85177
G1 X89.867 Y125.709 E14.88515
G1 X89.259 Y125.429 E14.91855
G1 X88.689 Y125.079 E14.95192
G1 X88.165 Y124.663 E14.9853
G1 X87.694 Y124.188 E15.01867
G1 X87.283 Y123.66 E15.05205
G1 X86.938 Y123.087 E15.08542
G1 X86.664 Y122.477 E15.11878
G1 X86.464 Y121.838 E15.15219
G1 X86.343 Y121.18 E15.18557
G1 X86.302 Y120.642 E15.21249
G1 X86.293 Y120.309 E15.22911
G1 X86.291 Y120.158 E15.23664
G1 X86.291 Y108.573 E15.81462
G1 X86.253 Y105.921 E15.94694
G1 X86.139 Y103.234 E16.08112
G1 X85.951 Y100.581 E16.21381
G1 X85.687 Y97.916 E16.34741
G1 X85.347 Y95.256 E16.4812
G1 X84.935 Y92.639 E16.61337
G1 X84.448 Y90.016 E16.74647
G1 X83.687 Y86.55 E16.92351
G1 X83.502 Y85.777 E16.96316
G1 X83.449 Y85.535 E16.97552
G1 X83.396 Y85.26 E16.9895
G1 X83.31 Y84.604 E17.0225
G1 X83.262 Y83.94 E17.05572
G1 X83.263 Y83.108 E17.09723
G1 X83.287 Y82.795 E17.11289
G1 X83.452 Y80.143 E17.24545
G1 X83.542 Y77.46 E17.37938
G1 X83.557 Y74.805 E17.51184
G1 X83.497 Y72.129 E17.64538
G1 X83.424 Y70.794 E17.71209
G1 X83.421 Y70.733 E17.71513
G1 X83.356 Y69.244 E17.78949
G1 X83.351 Y69 E17.80167
G1 X83.351 Y68.611 E17.82107
G1 X83.407 Y67.823 E17.86049
G1 X83.485 Y67.274 E17.88815
G1 X83.676 Y66.418 E17.93191
G1 X83.82 Y65.949 E17.95638
G1 X84.094 Y65.235 E17.99454
G1 X84.366 Y64.649 E18.02677
G1 X84.862 Y63.789 E18.0763
G1 X85.192 Y63.319 E18.10495
G0 F2400 X85.519 Y63.549
G1 F1050 X85.975 Y62.988 E18.14102
G1 X86.159 Y62.791 E18.15447
G1 X86.316 Y62.629 E18.16572
G1 X86.589 Y62.361 E18.18481
G1 X87.142 Y61.89 E18.22105
G1 X87.41 Y61.692 E18.23767
G1 X87.537 Y61.601 E18.24547
G1 X87.736 Y61.463 E18.25755
G1 X88.238 Y61.155 E18.28693
G1 X88.426 Y61.054 E18.29758
G1 X88.626 Y60.952 E18.30878
G1 X88.945 Y60.798 E18.32645
G1 X89.629 Y60.526 E18.36318
G1 X90.094 Y60.378 E18.38752
G1 X90.761 Y60.213 E18.4218
G1 X91.363 Y60.106 E18.45231
G1 X92.029 Y60.032 E18.48574
G1 X92.263 Y60.021 E18.49743
G1 X92.614 Y60.016 E18.51494
G1 X93.003 Y60.024 E18.53435
G1 X93.143 Y60.029 E18.54134
G1 X94.468 Y60.092 E18.60752
G1 X97.186 Y60.183 E18.7432
G1 X99.861 Y60.198 E18.87665
G1 X102.57 Y60.135 E19.01184
G1 X105.23 Y59.999 E19.14472
G1 X106.983 Y59.869 E19.23242
G1 X107.566 Y59.859 E19.26151
G1 X108.141 Y59.881 E19.29022
G1 X108.93 Y59.972 E19.32984
G1 X109.509 Y60.084 E19.35927
G1 X110.158 Y60.253 E19.39272
G1 X110.357 Y60.319 E19.40318
G1 X110.666 Y60.433 E19.41962
G1 X110.951 Y60.548 E19.43495
G1 X111.508 Y60.812 E19.4657
G1 X111.996 Y61.08 E19.49348
G1 X112.659 Y61.513 E19.53298
G1 X113.119 Y61.866 E19.56191
G1 X113.719 Y62.406 E19.60218
G1 X114.115 Y62.822 E19.63084
G1 X114.63 Y63.455 E19.67155
G1 X114.943 Y63.909 E19.69906
G1 X115.265 Y64.442 E19.73013
G1 X115.378 Y64.657 E19.74225
G1 X115.531 Y64.974 E19.75981
G1 X115.653 Y65.25 E19.77486
G1 X115.871 Y65.834 E19.80596
G1 X116.048 Y66.414 E19.83622
G1 X116.206 Y67.093 E19.871
G1 X116.241 Y67.307 E19.88182
G1 X116.283 Y67.624 E19.89777
G1 X116.329 Y68.08 E19.92063
G1 X116.35 Y68.821 E19.95762
G1 X116.336 Y69.153 E19.9742
G1 X116.328 Y69.303 E19.98169
G1 X116.297 Y69.736 E20.00335
G1 X116.14 Y72.497 E20.14132
G1 X116.063 Y75.17 E20.27473
G1 X116.063 Y77.848 E20.40834
G1 X116.138 Y80.522 E20.54179
G1 X116.294 Y83.298 E20.68051
G1 X116.302 Y83.661 E20.69862
G1 X116.299 Y83.881 E20.7096
G1 X116.288 Y84.147 E20.72288
G1 X116.272 Y84.393 E20.73518
G1 X116.195 Y85.007 E20.76605
G1 X116.068 Y85.69 E20.80071
G1 X115.94 Y86.223 E20.82806
G1 X115.162 Y88.835 E20.96403
G1 X114.466 Y91.442 E21.09865
G1 X113.854 Y94.019 E21.23079
G1 X113.301 Y96.677 E21.36624
G1 X112.835 Y99.301 E21.4992
G1 X112.443 Y101.936 E21.63211
G1 X112.119 Y104.624 E21.76718
G1 X111.877 Y107.26 E21.89925
G1 X111.705 Y109.966 E22.03452
G1 X111.612 Y112.637 E22.16786
G1 X111.591 Y114.663 E22.26894
G1 X111.591 Y119.836 E22.52702
G1 X111.581 Y120.563 E22.5633
G1 X111.532 Y121.205 E22.59542
G1 X111.404 Y121.837 E22.62759
G1 X111.199 Y122.448 E22.65974
G1 X110.919 Y123.029 E22.69192
G1 X110.57 Y123.571 E22.72408
G1 X110.157 Y124.066 E22.75625
G1 X109.686 Y124.506 E22.7884
G1 X109.163 Y124.884 E22.8206
G1 X108.598 Y125.194 E22.85275
G1 X107.999 Y125.433 E22.88492
G1 X107.376 Y125.595 E22.91704
G1 X106.527 Y125.689 E22.95965
G1 X106.207 Y125.698 E22.97563
G1 X106.061 Y125.7 E22.98291
G1 X92.531 Y125.7 E23.65792
G1 X91.833 Y125.691 E23.69275
G1 X91.19 Y125.642 E23.72492
G1 X90.558 Y125.515 E23.75708
G1 X89.947 Y125.31 E23.78924
G1 X89.366 Y125.032 E23.82137
G1 X88.823 Y124.683 E23.85357
G1 X88.328 Y124.27 E23.88574
G1 X87.888 Y123.799 E23.91789
G1 X87.509 Y123.277 E23.95008
G1 X87.198 Y122.713 E23.98221
G1 X86.96 Y122.114 E24.01437
G1 X86.797 Y121.49 E24.04654
G1 X86.702 Y120.631 E24.08966
G1 X86.693 Y120.298 E24.10628
G1 X86.691 Y120.158 E24.11326
G1 X86.691 Y108.573 E24.69124
G1 X86.653 Y105.898 E24.82471
G1 X86.54 Y103.225 E24.95819
G1 X86.35 Y100.55 E25.09198
G1 X86.083 Y97.859 E25.22689
G1 X85.744 Y95.209 E25.36018
G1 X85.326 Y92.546 E25.49466
G1 X84.843 Y89.948 E25.6265
G1 X84.078 Y86.464 E25.80446
G1 X83.891 Y85.684 E25.84447
G1 X83.842 Y85.459 E25.85596
G1 X83.789 Y85.184 E25.86994
G1 X83.709 Y84.575 E25.90058
G1 X83.661 Y83.911 E25.93379
G1 X83.662 Y83.138 E25.97236
G1 X83.686 Y82.825 E25.98802
G1 X83.853 Y80.145 E26.12198
G1 X83.942 Y77.475 E26.25527
G1 X83.958 Y74.798 E26.38882
G1 X83.896 Y72.1 E26.52346
G1 X83.824 Y70.773 E26.58976
G1 X83.821 Y70.716 E26.59261
G1 X83.756 Y69.227 E26.66697
G1 X83.751 Y69 E26.6783
G1 X83.751 Y68.611 E26.6977
G1 X83.803 Y67.88 E26.73427
G1 X83.881 Y67.331 E26.76193
G1 X84.058 Y66.536 E26.80257
G1 X84.202 Y66.067 E26.82704
G1 X84.456 Y65.404 E26.86246
G1 X84.728 Y64.818 E26.89469
G1 X85.189 Y64.019 E26.94072
G1 X85.519 Y63.549 E26.96937
G1 F2100 E25.21937
;MESH:m5-knob.stl
G0 F2400 X93.694 Y64.677
G0 X98.313 Y65.882
G0 X98.313 Y73.548
G0 X100.651 Y74.004
;TYPE:WALL-INNER
G1 F2100 E26.96937
G1 F1050 X100.966 Y74.157 E26.98684
G1 X101.226 Y74.341 E27.00273
G1 X101.461 Y74.57 E27.0191
G1 X101.666 Y74.848 E27.03633
G1 X101.816 Y75.136 E27.05253
G1 X101.924 Y75.461 E27.06962
G1 X101.973 Y75.754 E27.08444
G1 X101.952 Y76.315 E27.11245
G1 X101.883 Y76.606 E27.12737
G1 X101.756 Y76.911 E27.14385
G1 X101.582 Y77.193 E27.16038
G1 X101.358 Y77.45 E27.17739
G1 X101.114 Y77.657 E27.19336
G1 X100.813 Y77.836 E27.21083
G1 X100.513 Y77.955 E27.22693
G1 X100.188 Y78.029 E27.24356
G1 X99.848 Y78.05 E27.26055
G1 X99.525 Y78.02 E27.27674
G1 X99.207 Y77.937 E27.29313
G1 X98.893 Y77.799 E27.31025
G1 X98.618 Y77.622 E27.32656
G1 X98.369 Y77.397 E27.3433
G1 X98.158 Y77.134 E27.36013
G1 X97.993 Y76.846 E27.37669
G1 X97.88 Y76.545 E27.39273
G1 X97.813 Y76.215 E27.40953
G1 X97.796 Y75.865 E27.42701
G1 X97.833 Y75.554 E27.44263
G1 X97.927 Y75.223 E27.4598
G1 X98.064 Y74.925 E27.47616
G1 X98.251 Y74.649 E27.4928
G1 X98.478 Y74.405 E27.50942
G1 X98.738 Y74.206 E27.52576
G1 X99.034 Y74.045 E27.54257
G1 X99.354 Y73.931 E27.55952
G1 X99.671 Y73.872 E27.5756
G1 X100.021 Y73.864 E27.59307
G1 X100.329 Y73.906 E27.60858
G1 X100.651 Y74.004 E27.62537
G0 F2400 X100.797 Y73.63
G1 F1050 X101.167 Y73.81 E27.6459
G1 X101.485 Y74.034 E27.6653
G1 X101.764 Y74.307 E27.68478
G1 X102.006 Y74.634 E27.70507
G1 X102.186 Y74.979 E27.72449
G1 X102.314 Y75.364 E27.74473
G1 X102.374 Y75.728 E27.76313
G1 X102.351 Y76.368 E27.79508
G1 X102.265 Y76.727 E27.8135
G1 X102.111 Y77.098 E27.83354
G1 X101.906 Y77.429 E27.85297
G1 X101.641 Y77.734 E27.87312
G1 X101.342 Y77.987 E27.89266
G1 X100.991 Y78.196 E27.91304
G1 X100.634 Y78.338 E27.93221
G1 X100.247 Y78.426 E27.95201
G1 X99.842 Y78.451 E27.97226
G1 X99.454 Y78.415 E27.9917
G1 X99.073 Y78.316 E28.01134
G1 X98.704 Y78.153 E28.03146
G1 X98.374 Y77.94 E28.05106
G1 X98.078 Y77.673 E28.07095
G1 X97.826 Y77.359 E28.09103
G1 X97.631 Y77.019 E28.11059
G1 X97.494 Y76.654 E28.13004
G1 X97.414 Y76.262 E28.15
G1 X97.395 Y75.855 E28.17032
G1 X97.44 Y75.473 E28.18951
G1 X97.55 Y75.085 E28.20963
G1 X97.714 Y74.73 E28.22914
G1 X97.938 Y74.399 E28.24908
G1 X98.21 Y74.106 E28.26903
G1 X98.518 Y73.87 E28.28839
G1 X98.87 Y73.678 E28.30839
G1 X99.248 Y73.544 E28.3284
