;FLAVOR:Marlin
;TIME:8338
;Filament used: 5.40848m
;Layer height: 0.16
;MINX:74
;MINY:69.696
;MINZ:0.3
;MAXX:126
;MAXY:130.304
;MAXZ:48.94
;Generated with Cura_SteamEngine 4.1.0
M140 S70
M105
M190 S70
M104 S225
M105
M109 S225
M82 ;absolute extrusion mode
G21 ;metric values
G90 ;absolute positioning
M82 ;set extruder to absolute mode
M107 ;start with the fan off
G28 X0 Y0 ;move X/Y to min endstops
G28 Z0 ;move Z to min endstops
G1 Z15.0 F80 ;move the platform down 15mm
G92 E0 ;zero the extruded length
G1 F200 E6 ;extrude 6 mm of feed stock
G92 E0 ;zero the extruded length again
M117 Printing...
G1 F80
G92 E0
G92 E0
G1 F2100 E-1.75
;LAYER_COUNT:305
;LAYER:0
M107
G0 F2400 X75.929 Y72.861 Z0.3
;TYPE:SKIRT
G1 F2100 E0
G1 F1050 X76.494 Y72.397 E0.03648
G1 X77.368 Y71.765 E0.09028
G1 X77.447 Y71.709 E0.09512
G1 X77.959 Y71.351 E0.12628
G1 X78.66 Y70.847 E0.16936
G1 X79.245 Y70.476 E0.20392
G1 X79.869 Y70.175 E0.23848
G1 X80.523 Y69.948 E0.27302
G1 X81.199 Y69.797 E0.30758
G1 X81.765 Y69.732 E0.336
G1 X82.111 Y69.709 E0.3533
G1 X82.509 Y69.696 E0.37317
G1 X87.128 Y69.696 E0.60361
G1 X87.214 Y69.697 E0.6079
G1 X87.912 Y69.707 E0.64273
G1 X88.5 Y69.744 E0.67212
G1 X91.189 Y70.048 E0.80713
G1 X93.829 Y70.273 E0.93932
G1 X96.453 Y70.422 E1.07044
G1 X99.153 Y70.498 E1.2052
G1 X101.783 Y70.498 E1.33641
G1 X104.453 Y70.422 E1.46967
G1 X107.139 Y70.271 E1.60389
G1 X109.765 Y70.048 E1.73537
G1 X111.183 Y69.896 E1.80652
G1 X112.506 Y69.744 E1.87296
G1 X113.022 Y69.707 E1.89877
G1 X113.342 Y69.698 E1.91474
G1 X113.511 Y69.696 E1.92317
G1 X118.113 Y69.696 E2.15277
G1 X118.198 Y69.697 E2.15701
G1 X118.9 Y69.707 E2.19203
G1 X119.591 Y69.756 E2.22659
G1 X120.272 Y69.885 E2.26117
G1 X120.933 Y70.092 E2.29573
G1 X121.565 Y70.374 E2.33026
G1 X122.162 Y70.726 E2.36483
G1 X122.713 Y71.145 E2.39937
G1 X123.213 Y71.624 E2.43391
G1 X123.595 Y72.08 E2.46359
G1 X124.77 Y73.629 E2.56059
G1 X125.156 Y74.204 E2.59514
G1 X125.473 Y74.82 E2.6297
G1 X125.718 Y75.468 E2.66427
G1 X125.885 Y76.139 E2.69876
G1 X125.987 Y77.07 E2.74549
G1 X125.997 Y77.395 E2.76171
G1 X126 Y77.58 E2.77094
G1 X126 Y122.024 E4.98826
G1 X125.999 Y122.108 E4.99245
G1 X125.989 Y122.825 E5.02823
G1 X125.94 Y123.515 E5.06274
G1 X125.811 Y124.196 E5.09732
G1 X125.605 Y124.857 E5.13186
G1 X125.323 Y125.49 E5.16643
G1 X124.971 Y126.086 E5.20097
G1 X124.552 Y126.638 E5.23554
G1 X123.841 Y127.342 E5.28546
G1 X123.037 Y128.015 E5.33777
G1 X122.974 Y128.067 E5.34184
G1 X121.898 Y128.943 E5.41107
G1 X121.337 Y129.348 E5.44559
G1 X120.732 Y129.687 E5.48019
G1 X120.093 Y129.953 E5.51472
G1 X119.427 Y130.144 E5.54928
G1 X118.744 Y130.256 E5.58381
G1 X118.275 Y130.288 E5.60727
G1 X117.766 Y130.302 E5.63267
G1 X117.601 Y130.304 E5.6409
G1 X114.3 Y130.304 E5.80559
G1 X114.214 Y130.303 E5.80988
G1 X113.517 Y130.293 E5.84466
G1 X112.923 Y130.255 E5.87435
G1 X110.049 Y129.927 E6.01867
G1 X107.389 Y129.7 E6.15186
G1 X104.773 Y129.552 E6.28258
G1 X102.068 Y129.474 E6.41759
G1 X99.439 Y129.474 E6.54875
G1 X96.772 Y129.549 E6.68186
G1 X94.086 Y129.7 E6.81608
G1 X91.482 Y129.921 E6.94646
G1 X88.483 Y130.257 E7.09702
G1 X87.999 Y130.291 E7.12122
G1 X87.671 Y130.301 E7.13759
G1 X87.488 Y130.304 E7.14672
G1 X82.887 Y130.304 E7.37627
G1 X82.801 Y130.303 E7.38056
G1 X82.1 Y130.293 E7.41554
G1 X81.41 Y130.244 E7.45005
G1 X80.729 Y130.114 E7.48464
G1 X80.068 Y129.908 E7.51918
G1 X79.436 Y129.626 E7.55371
G1 X78.779 Y129.233 E7.5919
G1 X78.492 Y129.035 E7.6093
G1 X78.401 Y128.971 E7.61485
G1 X76.67 Y127.729 E7.72114
G1 X76.554 Y127.647 E7.72822
G1 X76.012 Y127.216 E7.76277
G1 X75.523 Y126.726 E7.79731
G1 X75.093 Y126.182 E7.8319
G1 X74.73 Y125.593 E7.86642
G1 X74.436 Y124.966 E7.90097
G1 X74.217 Y124.309 E7.93552
G1 X74.075 Y123.631 E7.97008
G1 X74.011 Y122.91 E8.00619
G1 X74.002 Y122.588 E8.02226
G1 X74 Y122.42 E8.03065
G1 X74 Y77.957 E10.24891
G1 X74.001 Y77.871 E10.2532
G1 X74.011 Y77.173 E10.28803
G1 X74.06 Y76.482 E10.32259
G1 X74.19 Y75.802 E10.35713
G1 X74.396 Y75.141 E10.39167
G1 X74.678 Y74.508 E10.42625
G1 X75.03 Y73.912 E10.46078
G1 X75.449 Y73.361 E10.49531
G1 X75.929 Y72.861 E10.52989
G0 F2400 X76.319 Y73.048
G1 F1050 X76.729 Y72.721 E10.55606
G1 X77.603 Y72.089 E10.60987
G1 X77.676 Y72.037 E10.61434
G1 X78.211 Y71.663 E10.64691
G1 X78.894 Y71.172 E10.68887
G1 X79.46 Y70.815 E10.72226
G1 X80.064 Y70.527 E10.75564
G1 X80.698 Y70.314 E10.78901
G1 X81.353 Y70.178 E10.82238
G1 X81.792 Y70.131 E10.84441
G1 X82.138 Y70.108 E10.86171
G1 X82.509 Y70.096 E10.88023
G1 X87.128 Y70.096 E11.11067
G1 X87.208 Y70.097 E11.11466
G1 X87.906 Y70.107 E11.14949
G1 X88.455 Y70.141 E11.17693
G1 X91.147 Y70.445 E11.31209
G1 X93.806 Y70.672 E11.44523
G1 X96.456 Y70.822 E11.57765
G1 X99.141 Y70.898 E11.71166
G1 X101.795 Y70.898 E11.84407
G1 X104.485 Y70.822 E11.97833
G1 X107.127 Y70.673 E12.11035
G1 X109.838 Y70.442 E12.24609
G1 X111.273 Y70.289 E12.31809
G1 X112.552 Y70.142 E12.38232
G1 X113.034 Y70.107 E12.40643
G1 X113.354 Y70.098 E12.4224
G1 X113.511 Y70.096 E12.43023
G1 X118.113 Y70.096 E12.65983
G1 X118.193 Y70.097 E12.66382
G1 X118.895 Y70.107 E12.69885
G1 X119.562 Y70.156 E12.73221
G1 X120.218 Y70.285 E12.76557
G1 X120.855 Y70.491 E12.79897
G1 X121.462 Y70.771 E12.83232
G1 X122.032 Y71.122 E12.86571
G1 X122.556 Y71.539 E12.89912
G1 X123.026 Y72.014 E12.93246
G1 X123.277 Y72.322 E12.95228
G1 X124.452 Y73.871 E13.04928
G1 X124.823 Y74.427 E13.08263
G1 X125.126 Y75.023 E13.11599
G1 X125.356 Y75.652 E13.1494
G1 X125.509 Y76.303 E13.18276
G1 X125.587 Y77.083 E13.22187
G1 X125.597 Y77.408 E13.23809
G1 X125.6 Y77.58 E13.24668
G1 X125.6 Y122.024 E15.464
G1 X125.599 Y122.102 E15.46789
G1 X125.589 Y122.819 E15.50366
G1 X125.54 Y123.486 E15.53703
G1 X125.412 Y124.143 E15.57042
G1 X125.206 Y124.779 E15.60378
G1 X124.925 Y125.387 E15.63719
G1 X124.575 Y125.957 E15.67056
G1 X124.159 Y126.48 E15.7039
G1 X123.584 Y127.035 E15.74377
G1 X122.78 Y127.708 E15.79608
G1 X122.722 Y127.757 E15.79987
G1 X121.646 Y128.633 E15.86909
G1 X121.102 Y129.023 E15.90249
G1 X120.517 Y129.347 E15.93585
G1 X119.896 Y129.597 E15.96925
G1 X119.251 Y129.773 E16.0026
G1 X118.264 Y129.888 E16.05218
G1 X117.755 Y129.902 E16.07758
G1 X117.601 Y129.904 E16.08527
G1 X114.3 Y129.904 E16.24995
G1 X114.22 Y129.903 E16.25395
G1 X113.523 Y129.893 E16.28872
G1 X112.968 Y129.858 E16.31647
G1 X110.092 Y129.53 E16.46088
G1 X107.412 Y129.301 E16.59507
G1 X104.769 Y129.151 E16.72715
G1 X102.08 Y129.074 E16.86136
G1 X99.427 Y129.074 E16.99371
G1 X96.74 Y129.149 E17.12782
G1 X94.098 Y129.298 E17.25984
G1 X91.406 Y129.527 E17.39463
G1 X88.439 Y129.859 E17.54358
G1 X87.987 Y129.891 E17.56619
G1 X87.659 Y129.901 E17.58256
G1 X87.488 Y129.904 E17.59109
G1 X82.887 Y129.904 E17.82063
G1 X82.807 Y129.903 E17.82463
G1 X82.106 Y129.893 E17.8596
G1 X81.439 Y129.844 E17.89297
G1 X80.782 Y129.715 E17.92637
G1 X80.146 Y129.509 E17.95973
G1 X79.539 Y129.229 E17.99308
G1 X79.006 Y128.903 E18.02425
G1 X78.719 Y128.705 E18.04164
G1 X78.634 Y128.646 E18.0468
G1 X76.903 Y127.404 E18.15309
G1 X76.784 Y127.32 E18.16036
G1 X76.261 Y126.903 E18.19373
G1 X75.792 Y126.426 E18.22711
G1 X75.382 Y125.897 E18.2605
G1 X75.039 Y125.323 E18.29386
G1 X74.767 Y124.712 E18.32722
G1 X74.569 Y124.072 E18.36065
G1 X74.449 Y123.414 E18.39402
G1 X74.411 Y122.898 E18.41983
G1 X74.402 Y122.576 E18.4359
G1 X74.4 Y122.42 E18.44368
G1 X74.4 Y77.957 E20.66195
G1 X74.401 Y77.877 E20.66594
G1 X74.411 Y77.179 E20.70077
G1 X74.46 Y76.512 E20.73414
G1 X74.589 Y75.855 E20.76754
G1 X74.795 Y75.219 E20.80089
G1 X75.076 Y74.611 E20.83431
G1 X75.426 Y74.042 E20.86764
G1 X75.843 Y73.518 E20.90105
G1 X76.319 Y73.048 E20.93442
G0 F2400 X76.236 Y73.682
G1 F1050 X76.963 Y73.045 E20.98265
G1 X77.837 Y72.413 E21.03645
G1 X77.905 Y72.365 E21.04061
G1 X78.434 Y71.995 E21.07281
G1 X79.127 Y71.497 E21.11539
G1 X79.673 Y71.154 E21.14756
G1 X80.257 Y70.881 E21.17972
G1 X80.871 Y70.682 E21.21192
G1 X81.818 Y70.53 E21.25977
G1 X82.164 Y70.507 E21.27707
G1 X82.509 Y70.496 E21.29429
G1 X87.128 Y70.496 E21.52474
G1 X87.202 Y70.497 E21.52843
G1 X87.9 Y70.507 E21.56326
G1 X88.41 Y70.539 E21.58875
G1 X91.104 Y70.844 E21.72401
G1 X93.75 Y71.069 E21.8565
G1 X96.456 Y71.222 E21.99172
G1 X99.13 Y71.298 E22.12518
G1 X101.806 Y71.298 E22.25868
G1 X104.485 Y71.222 E22.39239
G1 X107.182 Y71.07 E22.52716
G1 X109.824 Y70.845 E22.65945
G1 X111.316 Y70.686 E22.73431
G1 X112.597 Y70.539 E22.79863
G1 X113.045 Y70.507 E22.82104
G1 X113.365 Y70.498 E22.83701
G1 X113.511 Y70.496 E22.8443
G1 X118.113 Y70.496 E23.07389
G1 X118.187 Y70.497 E23.07758
G1 X118.889 Y70.507 E23.11261
G1 X119.532 Y70.556 E23.14478
G1 X120.164 Y70.684 E23.17695
G1 X120.775 Y70.889 E23.20911
G1 X121.356 Y71.169 E23.24128
G1 X121.898 Y71.518 E23.27345
G1 X122.392 Y71.932 E23.3056
G1 X122.958 Y72.563 E23.34789
G1 X124.133 Y74.112 E23.44489
G1 X124.49 Y74.649 E23.47706
G1 X124.778 Y75.226 E23.50923
G1 X124.992 Y75.834 E23.54139
G1 X125.129 Y76.464 E23.57356
G1 X125.188 Y77.095 E23.60517
G1 X125.198 Y77.42 E23.6214
G1 X125.2 Y77.58 E23.62938
G1 X125.2 Y122.024 E25.8467
G1 X125.199 Y122.097 E25.85034
G1 X125.189 Y122.814 E25.88612
G1 X125.141 Y123.456 E25.91824
G1 X125.012 Y124.088 E25.95042
G1 X124.807 Y124.699 E25.98257
G1 X124.528 Y125.28 E26.01472
G1 X124.179 Y125.822 E26.04689
G1 X123.765 Y126.317 E26.07908
G1 X123.328 Y126.728 E26.10901
G1 X122.524 Y127.401 E26.16132
G1 X122.469 Y127.447 E26.1649
G1 X121.393 Y128.323 E26.23412
G1 X120.869 Y128.698 E26.26627
G1 X120.302 Y129.005 E26.29843
G1 X119.702 Y129.24 E26.33058
G1 X119.077 Y129.399 E26.36276
G1 X118.253 Y129.488 E26.40411
G1 X117.744 Y129.502 E26.42951
G1 X117.601 Y129.504 E26.43664
G1 X114.3 Y129.504 E26.60133
G1 X114.225 Y129.503 E26.60507
G1 X113.528 Y129.493 E26.63985
G1 X113.014 Y129.46 E26.66555
G1 X110.139 Y129.132 E26.80991
G1 X107.468 Y128.904 E26.94365
G1 X104.769 Y128.751 E27.07852
G1 X102.091 Y128.674 E27.21218
G1 X99.416 Y128.674 E27.34564
G1 X96.74 Y128.749 E27.4792
G1 X94.042 Y128.901 E27.61402
G1 X91.401 Y129.126 E27.74625
G1 X88.394 Y129.462 E27.89721
G1 X87.974 Y129.492 E27.91821
G1 X87.646 Y129.502 E27.93459
G1 X87.488 Y129.504 E27.94247
G1 X82.887 Y129.504 E28.17201
G1 X82.813 Y129.503 E28.17571
G1 X82.112 Y129.493 E28.21068
G1 X81.469 Y129.444 E28.24286
G1 X80.837 Y129.316 E28.27503
G1 X80.226 Y129.111 E28.30718
G1 X79.645 Y128.831 E28.33936
G1 X79.233 Y128.574 E28.36358
G1 X78.946 Y128.376 E28.38098
G1 X78.868 Y128.321 E28.38574
G1 X77.173 Y127.105 E28.48981
G1 X77.014 Y126.993 E28.49952
G1 X76.511 Y126.59 E28.53167
G1 X76.062 Y126.128 E28.56381
G1 X75.674 Y125.613 E28.59598
G1 X75.352 Y125.055 E28.62812
G1 X75.101 Y124.461 E28.6603
G1 X74.926 Y123.84 E28.69248
G1 X74.811 Y122.887 E28.74037
G1 X74.802 Y122.565 E28.75645
G1 X74.8 Y122.42 E28.76368
G1 X74.8 Y77.957 E30.98195
G1 X74.801 Y77.883 E30.98564
G1 X74.811 Y77.185 E31.02047
G1 X74.86 Y76.542 E31.05264
G1 X74.988 Y75.91 E31.08481
G1 X75.194 Y75.299 E31.11698
G1 X75.473 Y74.718 E31.14913
G1 X75.822 Y74.176 E31.1813
G1 X76.236 Y73.682 E31.21345
G0 F2400 X82.379 Y75.896
;TYPE:SUPPORT
G1 F1050 X87.632 Y75.896 E31.47553
G1 X87.626 Y76.35 E31.49818
G1 X82.379 Y76.35 E31.75995
G1 X82.379 Y75.896 E31.7826
G0 F2400 X82.677 Y76.056
G1 F1050 X82.677 Y76.19 E31.78929
G0 F2400 X85.344 Y76.19
G1 F1050 X85.344 Y76.056 E31.79597
G0 F2400 X113.381 Y75.896
G1 F1050 X118.62 Y75.896 E32.05735
G1 X118.62 Y76.35 E32.08
G1 X113.381 Y76.35 E32.34137
G1 X113.381 Y75.896 E32.36402
G0 F2400 X114.681 Y76.056
G1 F1050 X114.681 Y76.19 E32.37071
G0 F2400 X117.348 Y76.19
G1 F1050 X117.348 Y76.056 E32.37739
G1 F2100 E30.62739
G0 F2400 X120.157 Y76.589
G0 X120.661 Y122.907
G0 X118.454 Y123.65
G1 F2100 E32.37739
G1 F1050 X118.024 Y124.104 E32.40859
G1 X113.727 Y124.104 E32.62297
G1 X113.555 Y123.679 E32.64584
G1 X113.511 Y123.65 E32.64847
G1 X118.454 Y123.65 E32.89508
G0 F2400 X117.348 Y123.81
G1 F1050 X117.348 Y123.944 E32.90176
G0 F2400 X114.681 Y123.944
G1 F1050 X114.681 Y123.81 E32.90845
G0 F2400 X87.618 Y123.65
G1 F1050 X87.618 Y124.104 E32.9311
G1 X82.38 Y124.104 E33.19242
G1 X82.38 Y123.65 E33.21507
G1 X87.618 Y123.65 E33.4764
G0 F2400 X85.344 Y123.81
G1 F1050 X85.344 Y123.944 E33.48308
G0 F2400 X82.677 Y123.944
G1 F1050 X82.677 Y123.81 E33.48977
G1 F2100 E31.73977
;MESH:wider_bracket.stl
G0 F2400 X82.677 Y122.13
G0 X81.4 Y121.35
;TYPE:WALL-INNER
G1 F2100 E33.48977
G1 F1050 X81.4 Y78.65 E35.62008
G1 X118.6 Y78.65 E37.476
G1 X118.6 Y121.35 E39.60631
G1 X81.4 Y121.35 E41.46222
G0 F2400 X93.961 Y113.582
G0 X95.557 Y112.366
G1 F1050 X95.6 Y88.172 E42.66927
G1 X95.529 Y87.557 E42.70016
G1 X95.302 Y86.903 E42.73469
G1 X94.931 Y86.311 E42.76955
G1 X94.439 Y85.819 E42.80426
G1 X93.847 Y85.448 E42.83912
G1 X93.192 Y85.221 E42.8737
G1 X92.5 Y85.14 E42.90846
G1 X91.808 Y85.221 E42.94322
G1 X91.153 Y85.448 E42.97781
G1 X90.561 Y85.819 E43.01266
G1 X90.069 Y86.311 E43.04738
G1 X89.698 Y86.903 E43.08223
G1 X89.471 Y87.557 E43.11677
G1 X89.4 Y88.17 E43.14756
G1 X89.4 Y111.83 E44.32796
G1 X89.471 Y112.443 E44.35875
G1 X89.698 Y113.097 E44.39328
G1 X90.069 Y113.689 E44.42814
G1 X90.561 Y114.181 E44.46285
G1 X91.153 Y114.552 E44.49771
G1 X91.814 Y114.782 E44.53262
G1 X92.516 Y114.856 E44.56784
G1 X93.191 Y114.779 E44.60174
G1 X93.847 Y114.552 E44.63637
G1 X94.439 Y114.181 E44.67122
G1 X94.931 Y113.689 E44.70594
G1 X95.302 Y113.099 E44.74071
G1 X95.557 Y112.366 E44.77943
G0 F2400 X106.039 Y101.418
G0 X107.5 Y100.14
G1 F1050 X106.808 Y100.221 E44.81419
G1 X106.153 Y100.448 E44.84877
G1 X105.561 Y100.819 E44.88363
G1 X105.069 Y101.311 E44.91834
G1 X104.698 Y101.903 E44.9532
G1 X104.471 Y102.557 E44.98773
G1 X104.4 Y103.17 E45.01852
G1 X104.4 Y112.03 E45.46055
G1 X104.471 Y112.643 E45.49133
G1 X104.698 Y113.297 E45.52587
G1 X105.069 Y113.889 E45.56073
G1 X105.561 Y114.381 E45.59544
G1 X106.153 Y114.752 E45.6303
G1 X106.814 Y114.982 E45.66521
G1 X107.516 Y115.056 E45.70043
G1 X108.191 Y114.979 E45.73433
G1 X108.847 Y114.752 E45.76896
G1 X109.439 Y114.381 E45.80381
G1 X109.931 Y113.889 E45.83853
G1 X110.302 Y113.297 E45.87338
G1 X110.529 Y112.639 E45.90811
G1 X110.598 Y112.042 E45.93809
G1 X110.6 Y103.17 E46.38072
G1 X110.529 Y102.557 E46.4115
G1 X110.302 Y101.903 E46.44604
G1 X109.931 Y101.311 E46.4809
G1 X109.439 Y100.819 E46.51561
G1 X108.847 Y100.448 E46.55047
G1 X108.192 Y100.221 E46.58505
G1 X107.5 Y100.14 E46.61981
G0 F2400 X107.5 Y100.543
G1 F1050 X106.898 Y100.613 E46.65005
G1 X106.327 Y100.811 E46.6802
G1 X105.812 Y101.134 E46.71053
G1 X105.384 Y101.562 E46.74072
G1 X105.061 Y102.077 E46.77105
G1 X104.863 Y102.647 E46.80116
G1 X104.8 Y103.193 E46.82858
G1 X104.8 Y112.007 E47.26831
G1 X104.863 Y112.553 E47.29573
G1 X105.061 Y113.123 E47.32584
G1 X105.384 Y113.638 E47.35616
G1 X105.812 Y114.066 E47.38636
G1 X106.327 Y114.389 E47.41669
G1 X106.902 Y114.589 E47.44706
G1 X107.514 Y114.654 E47.47777
G1 X108.102 Y114.587 E47.50729
G1 X108.673 Y114.389 E47.53744
G1 X109.188 Y114.066 E47.56777
G1 X109.616 Y113.638 E47.59797
G1 X109.939 Y113.123 E47.6283
G1 X110.137 Y112.55 E47.65855
G1 X110.198 Y112.019 E47.68521
G1 X110.2 Y103.193 E48.12554
G1 X110.137 Y102.647 E48.15296
G1 X109.939 Y102.077 E48.18307
G1 X109.616 Y101.562 E48.2134
G1 X109.188 Y101.134 E48.24359
G1 X108.673 Y100.811 E48.27392
G1 X108.102 Y100.613 E48.30407
G1 X107.5 Y100.543 E48.33431
G0 F2400 X106.039 Y101.418
G0 X95.157 Y112.298
G1 F1050 X95.2 Y88.195 E49.53682
G1 X95.137 Y87.647 E49.56434
G1 X94.939 Y87.077 E49.59444
G1 X94.616 Y86.562 E49.62477
G1 X94.188 Y86.134 E49.65497
G1 X93.673 Y85.811 E49.68529
G1 X93.102 Y85.613 E49.71545
G1 X92.5 Y85.543 E49.74568
G1 X91.898 Y85.613 E49.77592
G1 X91.327 Y85.811 E49.80607
G1 X90.812 Y86.134 E49.8364
G1 X90.384 Y86.562 E49.8666
G1 X90.061 Y87.077 E49.89693
G1 X89.863 Y87.647 E49.92703
G1 X89.8 Y88.193 E49.95445
G1 X89.8 Y111.807 E51.13256
G1 X89.863 Y112.353 E51.15998
G1 X90.061 Y112.923 E51.19008
G1 X90.384 Y113.438 E51.22041
G1 X90.812 Y113.866 E51.25061
G1 X91.327 Y114.189 E51.28094
G1 X91.902 Y114.389 E51.31131
G1 X92.514 Y114.454 E51.34201
G1 X93.102 Y114.387 E51.37154
G1 X93.673 Y114.189 E51.40169
G1 X94.188 Y113.866 E51.43202
G1 X94.616 Y113.438 E51.46222
