;FLAVOR:Marlin
;TIME:2248
;Filament used: 1.06898m
;Layer height: 0.12
;POSTPROCESSED
;Generated with Cura_SteamEngine 3.6.0
M140 S60
M105
M190 S60
M104 S200
M105
M109 S200
M82 ;absolute extrusion mode
G21 ;metric values
G90 ;absolute positioning
M82 ;set extruder to absolute mode
M107 ;start with the fan off
G28 X0 Y0 ;move X/Y to min endstops
G28 Z0 ;move Z to min endstops
G1 Z15.0 F120 ;move the platform down 15mm
G92 E0 ;zero the extruded length
G1 F200 E6 ;extrude 6 mm of feed stock
G92 E0 ;zero the extruded length again
G1 F120
M117 Printing...
G92 E0
G1 F2400 E-2.5
;LAYER_COUNT:17
;LAYER:0
M107
G0 F3600 X83.275 Y70.322 Z0.2
;TYPE:SKIRT
G1 F2400 E0
G1 F1200 X83.92 Y69.631 E0.03144
G1 X84.222 Y69.342 E0.04534
G1 X84.877 Y68.786 E0.07392
G1 X85.223 Y68.527 E0.08829
G1 X86.033 Y67.992 E0.12058
G1 X86.432 Y67.764 E0.13586
G1 X87.356 Y67.311 E0.17009
G1 X87.894 Y67.099 E0.18932
G1 X89.295 Y66.673 E0.23803
G1 X89.824 Y66.554 E0.25606
G1 X90.691 Y66.428 E0.2852
G1 X91.329 Y66.393 E0.30645
G1 X98.795 Y66.641 E0.55491
G1 X104.268 Y66.54 E0.73697
G1 X107.861 Y66.331 E0.85668
G1 X108.276 Y66.331 E0.87048
G1 X109.234 Y66.386 E0.9024
G1 X109.68 Y66.44 E0.91734
G1 X110.63 Y66.615 E0.94947
G1 X111.042 Y66.716 E0.96358
G1 X111.921 Y66.988 E0.99418
G1 X112.325 Y67.14 E1.00854
G1 X113.158 Y67.512 E1.03888
G1 X113.532 Y67.706 E1.0529
G1 X114.313 Y68.171 E1.08313
G1 X114.686 Y68.426 E1.09816
G1 X115.484 Y69.049 E1.13183
G1 X115.891 Y69.42 E1.15014
G1 X116.841 Y70.43 E1.19626
G1 X117.223 Y70.913 E1.21674
G1 X117.657 Y71.57 E1.24293
G1 X117.98 Y72.179 E1.26586
G1 X118.969 Y74.571 E1.35195
G1 X121.255 Y79.515 E1.53312
G1 X124.71 Y85.871 E1.77373
G1 X124.936 Y86.376 E1.79213
G1 X125.361 Y87.562 E1.83404
G1 X125.504 Y88.078 E1.85185
G1 X125.566 Y88.574 E1.86847
G1 X125.633 Y89.769 E1.90828
G1 X125.629 Y90.24 E1.92395
G1 X125.235 Y95.508 E2.09965
G1 X125.134 Y100.953 E2.28078
G1 X125.34 Y106.394 E2.46188
G1 X125.858 Y111.861 E2.64453
G1 X126.222 Y114.506 E2.73333
G1 X127.063 Y119.587 E2.90462
G1 X127.111 Y120.146 E2.92328
G1 X127.12 Y121.28 E2.961
G1 X127.099 Y121.697 E2.97489
G1 X127.014 Y122.481 E3.00112
G1 X126.943 Y122.902 E3.01532
G1 X126.728 Y123.834 E3.04713
G1 X126.592 Y124.286 E3.06283
G1 X126.304 Y125.056 E3.09017
G1 X126.121 Y125.466 E3.10511
G1 X125.727 Y126.218 E3.13334
G1 X125.467 Y126.64 E3.14983
G1 X124.954 Y127.358 E3.17918
G1 X124.645 Y127.734 E3.19537
G1 X124.053 Y128.362 E3.22407
G1 X123.664 Y128.719 E3.24163
G1 X122.8 Y129.401 E3.27824
G1 X122.355 Y129.701 E3.29609
G1 X122.035 Y129.863 E3.30802
G1 X120.198 Y130.682 E3.37492
G1 X119.693 Y130.863 E3.39276
G1 X119.403 Y130.931 E3.40267
G1 X118.354 Y131.13 E3.43818
G1 X118.036 Y131.176 E3.44887
G1 X115.122 Y131.463 E3.54626
G1 X109.703 Y132.235 E3.72831
G1 X104.686 Y133.216 E3.89834
G1 X104.536 Y133.242 E3.9034
G1 X102.924 Y133.487 E3.95763
G1 X102.662 Y133.517 E3.9664
G1 X101.016 Y133.645 E4.02132
G1 X100.752 Y133.656 E4.0301
G1 X99.092 Y133.663 E4.08532
G1 X98.826 Y133.654 E4.09417
G1 X97.194 Y133.54 E4.14858
G1 X96.943 Y133.514 E4.15697
G1 X95.41 Y133.298 E4.20847
G1 X95.262 Y133.274 E4.21345
G1 X87.56 Y131.86 E4.4739
G1 X81.275 Y131.105 E4.68445
G1 X80.613 Y130.962 E4.70697
G1 X79.145 Y130.495 E4.75821
G1 X78.442 Y130.185 E4.78376
G1 X77.461 Y129.621 E4.8214
G1 X77.026 Y129.327 E4.83886
G1 X76.492 Y128.906 E4.86148
G1 X76.078 Y128.524 E4.88022
G1 X75.202 Y127.577 E4.92312
G1 X74.83 Y127.099 E4.94327
G1 X74.342 Y126.351 E4.97297
G1 X74.017 Y125.728 E4.99634
G1 X73.393 Y124.178 E5.05192
G1 X73.18 Y123.413 E5.07833
G1 X72.929 Y121.873 E5.13023
G1 X72.882 Y121.26 E5.15067
G1 X72.893 Y120.084 E5.18979
G1 X72.943 Y119.519 E5.20866
G1 X73.583 Y115.729 E5.3365
G1 X74.322 Y110.266 E5.51985
G1 X74.744 Y104.84 E5.70087
G1 X74.859 Y99.397 E5.88194
G1 X74.665 Y93.913 E6.06445
G1 X74.369 Y90.161 E6.18963
G1 X74.367 Y89.617 E6.20773
G1 X74.448 Y88.503 E6.24488
G1 X74.527 Y87.972 E6.26273
G1 X74.625 Y87.621 E6.27485
G1 X75.003 Y86.492 E6.31445
G1 X75.266 Y85.895 E6.33615
G1 X78.291 Y80.417 E6.54428
G1 X79.48 Y78.013 E6.63349
G1 X82.071 Y72.097 E6.8483
G1 X82.427 Y71.466 E6.87239
G1 X82.965 Y70.703 E6.90344
G1 X83.275 Y70.322 E6.91978
G0 F3600 X83.568 Y70.594
G1 F1200 X84.213 Y69.903 E6.95122
G1 X84.481 Y69.647 E6.96355
G1 X85.136 Y69.091 E6.99212
G1 X85.443 Y68.861 E7.00488
G1 X86.253 Y68.326 E7.03717
G1 X86.608 Y68.123 E7.05077
G1 X87.532 Y67.67 E7.085
G1 X88.01 Y67.481 E7.10209
G1 X89.411 Y67.055 E7.1508
G1 X89.882 Y66.95 E7.16685
G1 X90.749 Y66.824 E7.19599
G1 X91.315 Y66.793 E7.21484
G1 X98.789 Y67.041 E7.46356
G1 X104.274 Y66.94 E7.64603
G1 X107.885 Y66.73 E7.76633
G1 X108.253 Y66.73 E7.77857
G1 X109.211 Y66.785 E7.81049
G1 X109.608 Y66.833 E7.82379
G1 X110.558 Y67.008 E7.85592
G1 X110.924 Y67.098 E7.86845
G1 X111.803 Y67.37 E7.89906
G1 X112.162 Y67.505 E7.91181
G1 X112.995 Y67.877 E7.94215
G1 X113.327 Y68.049 E7.95459
G1 X114.108 Y68.514 E7.98482
G1 X114.44 Y68.742 E7.99822
G1 X115.238 Y69.365 E8.03189
G1 X115.6 Y69.695 E8.04818
G1 X116.55 Y70.705 E8.0943
G1 X116.889 Y71.133 E8.11246
G1 X117.323 Y71.79 E8.13865
G1 X117.61 Y72.332 E8.15905
G1 X118.598 Y74.723 E8.24509
G1 X120.895 Y79.689 E8.42708
G1 X124.359 Y86.062 E8.66833
G1 X124.559 Y86.511 E8.68468
G1 X124.984 Y87.697 E8.72658
G1 X125.117 Y88.184 E8.74337
G1 X125.167 Y88.597 E8.75721
G1 X125.234 Y89.792 E8.79702
G1 X125.23 Y90.21 E8.81092
G1 X124.835 Y95.488 E8.98696
G1 X124.734 Y100.943 E9.16843
G1 X124.942 Y106.428 E9.35099
G1 X125.46 Y111.906 E9.534
G1 X125.83 Y114.59 E9.62412
G1 X126.668 Y119.652 E9.79477
G1 X126.711 Y120.15 E9.81139
G1 X126.72 Y121.284 E9.84911
G1 X126.701 Y121.654 E9.86144
G1 X126.616 Y122.438 E9.88766
G1 X126.553 Y122.812 E9.90028
G1 X126.338 Y123.744 E9.93209
G1 X126.217 Y124.146 E9.94605
G1 X125.929 Y124.916 E9.9734
G1 X125.767 Y125.28 E9.98665
G1 X125.373 Y126.032 E10.01489
G1 X125.142 Y126.407 E10.02953
G1 X124.629 Y127.125 E10.05888
G1 X124.353 Y127.46 E10.07332
G1 X123.761 Y128.088 E10.10203
G1 X123.416 Y128.405 E10.11761
G1 X122.552 Y129.087 E10.15422
G1 X122.131 Y129.368 E10.17106
G1 X121.872 Y129.498 E10.18069
G1 X120.035 Y130.317 E10.24759
G1 X119.328 Y130.538 E10.27223
G1 X118.279 Y130.737 E10.30774
G1 X117.997 Y130.778 E10.31722
G1 X115.073 Y131.066 E10.41494
G1 X109.626 Y131.842 E10.59794
G1 X104.609 Y132.823 E10.76796
G1 X104.476 Y132.847 E10.77246
G1 X102.864 Y133.092 E10.82669
G1 X102.631 Y133.118 E10.83449
G1 X100.985 Y133.246 E10.8894
G1 X100.75 Y133.256 E10.89722
G1 X99.09 Y133.263 E10.95243
G1 X98.854 Y133.255 E10.96029
G1 X97.222 Y133.141 E11.0147
G1 X96.999 Y133.118 E11.02216
G1 X95.466 Y132.902 E11.07365
G1 X95.334 Y132.88 E11.0781
G1 X87.632 Y131.466 E11.33855
G1 X81.322 Y130.708 E11.54993
G1 X80.734 Y130.58 E11.56995
G1 X79.266 Y130.113 E11.62118
G1 X78.641 Y129.838 E11.64389
G1 X77.66 Y129.274 E11.68153
G1 X77.274 Y129.013 E11.69703
G1 X76.74 Y128.592 E11.71964
G1 X76.372 Y128.252 E11.73631
G1 X75.496 Y127.305 E11.77922
G1 X75.165 Y126.88 E11.79713
G1 X74.677 Y126.132 E11.82684
G1 X74.389 Y125.579 E11.84757
G1 X73.765 Y124.029 E11.90315
G1 X73.575 Y123.349 E11.92663
G1 X73.324 Y121.809 E11.97853
G1 X73.282 Y121.264 E11.99671
G1 X73.293 Y120.088 E12.03582
G1 X73.338 Y119.585 E12.05262
G1 X73.979 Y115.788 E12.1807
G1 X74.719 Y110.314 E12.36442
G1 X75.144 Y104.861 E12.54634
G1 X75.259 Y99.391 E12.72831
G1 X75.064 Y93.889 E12.91142
G1 X74.768 Y90.129 E13.03687
G1 X74.766 Y89.646 E13.05293
G1 X74.847 Y88.532 E13.09008
G1 X74.924 Y88.032 E13.10691
G1 X75.005 Y87.748 E13.11673
G1 X75.383 Y86.619 E13.15633
G1 X75.616 Y86.088 E13.17562
G1 X78.656 Y80.583 E13.38478
G1 X79.84 Y78.189 E13.47361
G1 X82.438 Y72.257 E13.689
G1 X82.754 Y71.697 E13.71039
G1 X83.292 Y70.934 E13.74144
G1 X83.568 Y70.594 E13.756
G1 F2400 E11.256
;MESH:panda_keychain_kubra.stl
G0 F3600 X85.525 Y72.185
G0 X86.473 Y73.051
G0 X95.943 Y78.122
G0 X95.807 Y78.603
;TYPE:WALL-OUTER
G1 F2400 E13.756
G1 F1200 X95.219 Y78.867 E13.77744
G1 X94.951 Y79.003 E13.78744
G1 X94.688 Y79.163 E13.79767
G1 X94.467 Y79.325 E13.80679
G1 X94.358 Y79.422 E13.81164
G1 X94.259 Y79.523 E13.81635
G1 X94.169 Y79.633 E13.82107
G1 X94.129 Y79.689 E13.82336
G1 X94.112 Y79.713 E13.82434
G1 X94.11 Y79.717 E13.82449
G1 X94.087 Y79.749 E13.8258
G1 X94.047 Y79.825 E13.82866
G1 X93.998 Y79.916 E13.83209
G1 X93.947 Y80.011 E13.83568
G1 X93.938 Y79.949 E13.83776
G1 X93.929 Y79.881 E13.83872
G1 X93.908 Y79.792 E13.83955
G1 X93.897 Y79.747 E13.83968
G1 X93.892 Y79.732
G1 X93.85 Y79.614 E13.84244
G1 X93.788 Y79.49 E13.8466
G1 X93.786 Y79.486 E13.84675
G1 X93.712 Y79.374 E13.85121
G1 X93.551 Y79.164 E13.86001
G1 X93.364 Y78.99 E13.86851
G1 X93.261 Y78.909 E13.87287
G1 X93.146 Y78.837 E13.87738
G1 X93.019 Y78.783 E13.88197
G1 X92.89 Y78.747 E13.88642
G1 X92.641 Y78.704 E13.89483
G1 X92.458 Y78.715 E13.90093
G1 X92.282 Y78.766 E13.90702
G1 X92.064 Y78.892 E13.9154
G1 X91.907 Y79.022 E13.92218
G1 X91.789 Y79.185 E13.92887
G1 X91.727 Y79.314 E13.93363
G1 X91.649 Y79.525 E13.94111
G1 X91.596 Y79.728 E13.94809
G1 X91.537 Y79.893 E13.95392
G1 X91.499 Y79.969 E13.95674
G1 X91.45 Y80.045 E13.95975
G1 X91.347 Y80.178 E13.96535
G1 X90.121 Y81.131 E14.01699
G1 X90.12 Y81.132 E14.01704
G1 X89.753 Y81.417 E14.03249
G1 X89.799 Y80.954 E14.04086
G1 X89.837 Y80.578 E14.05343
G1 X89.875 Y80.374 E14.06034
G1 X90.011 Y79.965 E14.07467
G1 X90.052 Y79.712 E14.0832
G1 X90.002 Y79.473 E14.09132
G1 X89.963 Y79.382 E14.09461
G1 X89.871 Y79.252 E14.09991
G1 X89.76 Y79.135 E14.10527
G1 X89.553 Y78.992 E14.11364
G1 X89.456 Y78.947 E14.1172
G1 X89.289 Y78.906 E14.12292
G1 X89.11 Y78.889 E14.1289
G1 X88.887 Y78.916 E14.13637
G1 X88.65 Y78.979 E14.14452
G1 X88.45 Y79.073 E14.15187
G1 X88.265 Y79.184 E14.15905
G1 X88.099 Y79.31 E14.16598
G1 X88.013 Y79.388 E14.16984
G1 X87.936 Y79.48 E14.17383
G1 X87.876 Y79.58 E14.17771
G1 X87.829 Y79.693 E14.18178
G1 X87.767 Y79.929 E14.1899
G1 X87.795 Y80.109 E14.19596
G1 X87.831 Y80.192 E14.19897
G1 X87.964 Y80.375 E14.20649
G1 X87.995 Y80.434 E14.20871
G1 X88.009 Y80.494 E14.21076
G1 X87.725 Y86.939 E14.42533
G1 X87.692 Y87.076 E14.43001
G1 X87.546 Y87.387 E14.44144
G1 X87.498 Y87.612 E14.44909
G1 X87.577 Y87.878 E14.45832
G1 X87.637 Y87.98 E14.46226
G1 X87.748 Y88.114 E14.46804
G1 X87.895 Y88.247 E14.47464
G1 X88.123 Y88.313 E14.48253
G1 X88.244 Y88.322 E14.48657
G1 X88.706 Y88.313 E14.50194
G1 X88.895 Y88.29 E14.50827
G1 X89.084 Y88.246 E14.51472
G1 X89.272 Y88.165 E14.52153
G1 X89.43 Y88.062 E14.52781
G1 X89.576 Y87.94 E14.53413
G1 X89.742 Y87.787 E14.54164
G1 X89.815 Y87.613 E14.54792
G1 X89.843 Y87.435 E14.55391
G1 X89.8 Y87.22 E14.5612
G1 X89.665 Y86.917 E14.57224
G1 X89.642 Y86.792 E14.57646
G1 X89.642 Y85.651 E14.61441
G1 X89.642 Y85.65 E14.61445
G1 X89.642 Y84.889 E14.63976
G1 X90.016 Y85.552 E14.65283
G1 X91.106 Y87.487 E14.7267
G1 X91.326 Y88.08 E14.74774
G1 X91.442 Y88.241 E14.75434
G1 X91.555 Y88.347 E14.75949
G1 X91.658 Y88.406 E14.76344
G1 X91.807 Y88.451 E14.76861
G1 X92.008 Y88.477 E14.77536
G1 X92.334 Y88.427 E14.78632
G1 X92.452 Y88.391 E14.79043
G1 X92.648 Y88.3 E14.79762
G1 X92.835 Y88.186 E14.8049
G1 X93.003 Y88.052 E14.81205
G1 X93.086 Y87.969 E14.81595
G1 X93.163 Y87.864 E14.82028
G1 X93.218 Y87.749 E14.82452
G1 X93.249 Y87.627 E14.82871
G1 X93.275 Y87.387 E14.83674
G1 X93.212 Y87.177 E14.84403
G1 X93.132 Y87.046 E14.84914
G1 X92.98 Y86.913 E14.85585
G1 X92.902 Y86.868 E14.85885
G1 X92.776 Y86.762 E14.86432
G1 X90.649 Y83.059 E15.00636
G1 X93.052 Y81.236 E15.10668
G1 X93.341 Y81.054 E15.11804
G1 X93.414 Y81.008 E15.12091
G1 X93.56 Y80.908 E15.12679
G1 X93.692 Y80.817 E15.13213
G1 X93.745 Y80.758 E15.13476
G1 X93.738 Y80.821
G1 X93.713 Y81.042 E15.13816
G1 X93.704 Y81.116 E15.13917
G1 X93.7 Y81.203 E15.14207
G1 X93.69 Y81.414 E15.14909
G1 X93.687 Y81.718 E15.1592
G1 X93.708 Y82.816 E15.19573
G1 X93.739 Y83.375 E15.21435
G1 X93.786 Y83.881 E15.23125
G1 X93.837 Y84.315 E15.24579
G1 X93.786 Y84.522 E15.25288
G1 X93.762 Y84.781 E15.26153
G1 X93.796 Y85.04 E15.27022
G1 X93.827 Y85.144 E15.27383
G1 X93.913 Y85.303 E15.27984
G1 X94.029 Y85.459 E15.2863
G1 X94.18 Y85.572 E15.29258
G1 X94.341 Y85.653 E15.29857
G1 X94.517 Y85.69 E15.30455
G1 X94.689 Y85.704 E15.31029
G1 X94.846 Y85.692 E15.31553
G1 X94.999 Y85.668 E15.32068
G1 X95.152 Y85.62 E15.32601
G1 X95.396 Y85.511 E15.3349
G1 X95.514 Y85.429 E15.33968
G1 X95.605 Y85.321 E15.34438
G1 X95.684 Y85.185 E15.34961
G1 X95.717 Y84.96 E15.35717
G1 X95.666 Y84.678 E15.36671
G1 X95.543 Y84.327 E15.37908
G1 X95.513 Y84.218 E15.38284
G1 X95.497 Y84.101 E15.38676
G1 X95.492 Y83.965 E15.39129
G1 X95.441 Y83.583 E15.40411
G1 X95.406 Y83.214 E15.41644
G1 X95.389 Y82.826 E15.42935
G1 X95.384 Y82.448 E15.44193
G1 X95.39 Y82.058 E15.4549
G1 X95.407 Y81.675 E15.46765
G1 X95.446 Y81.295 E15.48036
G1 X95.535 Y80.721 E15.49968
G1 X95.54 Y80.689 E15.50075
G1 X95.562 Y80.607 E15.50358
G1 X95.611 Y80.499 E15.50752
G1 X95.648 Y80.451 E15.50954
G1 X95.716 Y80.398 E15.51241
G1 X95.741 Y80.423 E15.51245
G1 X95.772 Y80.453 E15.51338
G1 X95.898 Y80.578 E15.51849
G1 X95.916 Y80.605 E15.51957
G1 X95.989 Y80.714 E15.52393
G1 X96.056 Y80.876 E15.52976
G1 X96.099 Y81.06 E15.53605
G1 X96.125 Y81.267 E15.54299
G1 X96.139 Y81.718 E15.55799
G1 X96.178 Y82.336 E15.57859
G1 X96.205 Y82.993 E15.60046
G1 X96.214 Y83.613 E15.62108
G1 X96.213 Y84.257 E15.6425
G1 X96.161 Y84.649 E15.65565
G1 X96.151 Y84.848 E15.66228
G1 X96.189 Y85.07 E15.66977
G1 X96.237 Y85.163 E15.67325
G1 X96.315 Y85.254 E15.67724
G1 X96.454 Y85.365 E15.68316
G1 X96.661 Y85.426 E15.69033
G1 X96.856 Y85.439 E15.69683
G1 X97.052 Y85.426 E15.70337
G1 X97.245 Y85.397 E15.70986
G1 X97.431 Y85.34 E15.71633
G1 X97.618 Y85.264 E15.72304
G1 X97.785 Y85.159 E15.7296
G1 X97.873 Y85.092 E15.73328
G1 X97.983 Y84.971 E15.73872
G1 X98.04 Y84.867 E15.74267
G1 X98.062 Y84.826 E15.74421
G1 X98.134 Y84.626 E15.75128
G1 X98.135 Y84.489 E15.75584
G1 X98.123 Y84.366 E15.75995
G1 X98.055 Y84.166 E15.76698
G1 X98.039 Y84.13 E15.76829
G1 X98.014 Y84.073 E15.77036
G1 X97.939 Y83.837 E15.77859
G1 X97.928 Y82.687 E15.81684
G1 X97.884 Y81.854 E15.84459
G1 X97.845 Y81.453 E15.85799
G1 X97.746 Y80.647 E15.885
G1 X97.645 Y80.266 E15.89811
G1 X97.536 Y79.921 E15.91014
G1 X97.467 Y79.745 E15.91643
G1 X97.383 Y79.572 E15.92283
G1 X97.29 Y79.415 E15.92889
G1 X97.181 Y79.27 E15.93493
G1 X97.057 Y79.142 E15.94086
G1 X96.912 Y79.027 E15.94701
G1 X96.736 Y78.922 E15.95383
G1 X96.569 Y78.843 E15.95997
G1 X96.247 Y78.728 E15.97134
G1 X95.807 Y78.603 E15.98656
G0 F3600 X95.625 Y78.684
G0 X95.421 Y78.228
G0 X92.382 Y78.28
G0 X88.8 Y78.484
G0 X88.249 Y78.682
G0 X87.699 Y79.079
G0 X87.41 Y79.558
G0 X87.32 Y79.904
G0 X87.047 Y87.629
G0 X87.275 Y88.23
G0 X87.676 Y88.64
G0 X88.226 Y88.761
G0 X92.011 Y88.92
G0 X99.814 Y88.194
G0 X100.262 Y87.956
G0 X100.689 Y87.453
G0 X100.826 Y86.895
G0 X100.802 Y86.785
G0 X100.326 Y85.41
G1 F1200 X100.554 Y85.301 E15.99496
G1 X100.554 Y85.219 E15.99769
G1 X100.554 Y85.213 E15.99789
G1 X100.554 Y83.714 E16.04775
G1 X100.536 Y83.662 E16.04958
G1 X100.48 Y83.503 E16.05518
G1 X100.475 Y83.482 E16.0559
G1 X100.351 Y83.035 E16.07133
G1 X100.283 Y82.748 E16.08114
G1 X100.245 Y82.468 E16.09054
G1 X100.226 Y82.204 E16.09934
G1 X100.237 Y81.899 E16.10949
G1 X100.276 Y81.527 E16.12193
G1 X100.339 Y81.214 E16.13255
G1 X100.461 Y80.724 E16.14935
G1 X100.549 Y80.496 E16.15748
G1 X100.55 Y80.493 E16.15758
G1 X100.55 Y80.45 E16.15901
G1 X100.553 Y79.223 E16.19982
G1 X100.554 Y79.171 E16.20155
G1 X100.338 Y79.058 E16.20966
G1 X100.296 Y79.088 E16.21138
G1 X100.154 Y79.188 E16.21715
G1 X100.144 Y79.195 E16.21756
G1 X100.134 Y79.202 E16.21797
G1 X100.13 Y79.174 E16.21834
G1 X100.036 Y79.023 E16.22212
G1 X99.867 Y78.906 E16.22896
G1 X99.778 Y78.86 E16.23229
G1 X99.678 Y78.824 E16.23583
G1 X99.495 Y78.795 E16.24199
G1 X99.076 Y78.792 E16.25592
G1 X98.94 Y78.805 E16.26047
G1 X98.803 Y78.836 E16.26514
G1 X98.672 Y78.892 E16.26988
G1 X98.551 Y78.972 E16.2747
G1 X98.344 Y79.165 E16.28412
G1 X98.279 Y79.329 E16.28998
G1 X98.26 Y79.482 E16.29511
G1 X98.297 Y79.676 E16.30168
G1 X98.418 Y79.951 E16.31167
G1 X98.438 Y80.065 E16.31552
G1 X98.438 Y84.126 E16.45059
