;FLAVOR:Marlin
;TIME:2642
;Filament used: 1.21554m
;Layer height: 0.12
;POSTPROCESSED
;Generated with Cura_SteamEngine 3.6.0
M140 S60
M105
M190 S60
M104 S200
M105
M109 S200
M82 ;absolute extrusion mode
G21 ;metric values
G90 ;absolute positioning
M82 ;set extruder to absolute mode
M107 ;start with the fan off
G28 X0 Y0 ;move X/Y to min endstops
G28 Z0 ;move Z to min endstops
G1 Z15.0 F120 ;move the platform down 15mm
G92 E0 ;zero the extruded length
G1 F200 E6 ;extrude 6 mm of feed stock
G92 E0 ;zero the extruded length again
G1 F120
;Put printing message on LCD screen
M117 Printing...
G92 E0
G1 F2400 E-2.5
;LAYER_COUNT:17
;LAYER:0
M107
G0 F3600 X82.983 Y70.049 Z0.2
;TYPE:SKIRT
G1 F2400 E0
G1 F1200 X83.628 Y69.358 E0.03144
G1 X83.963 Y69.038 E0.04685
G1 X84.618 Y68.482 E0.07542
G1 X85.002 Y68.193 E0.09141
G1 X85.812 Y67.658 E0.1237
G1 X86.256 Y67.404 E0.14071
G1 X87.18 Y66.951 E0.17494
G1 X87.777 Y66.716 E0.19627
G1 X89.178 Y66.29 E0.24498
G1 X89.767 Y66.159 E0.26505
G1 X90.634 Y66.033 E0.29419
G1 X91.342 Y65.993 E0.31777
G1 X98.801 Y66.241 E0.566
G1 X104.263 Y66.139 E0.7477
G1 X107.838 Y65.932 E0.8668
G1 X108.299 Y65.932 E0.88213
G1 X109.257 Y65.987 E0.91405
G1 X109.753 Y66.046 E0.93066
G1 X110.703 Y66.221 E0.96279
G1 X111.16 Y66.334 E0.97845
G1 X112.039 Y66.606 E1.00905
G1 X112.488 Y66.775 E1.02501
G1 X113.321 Y67.147 E1.05535
G1 X113.736 Y67.362 E1.0709
G1 X114.517 Y67.827 E1.10113
G1 X114.933 Y68.111 E1.11788
G1 X115.731 Y68.734 E1.15155
G1 X116.183 Y69.146 E1.1719
G1 X117.133 Y70.156 E1.21801
G1 X117.557 Y70.692 E1.24074
G1 X117.991 Y71.349 E1.26693
G1 X118.35 Y72.026 E1.29242
G1 X119.331 Y74.399 E1.37782
G1 X121.622 Y79.353 E1.55936
G1 X125.061 Y85.68 E1.79888
G1 X125.313 Y86.241 E1.81933
G1 X125.738 Y87.427 E1.86123
G1 X125.89 Y87.971 E1.88002
G1 X125.966 Y88.552 E1.89951
G1 X126.033 Y89.747 E1.93932
G1 X126.028 Y90.269 E1.95668
G1 X125.635 Y95.526 E2.13202
G1 X125.534 Y100.945 E2.31228
G1 X125.74 Y106.375 E2.49302
G1 X126.253 Y111.792 E2.67399
G1 X126.625 Y114.499 E2.76487
G1 X127.457 Y119.522 E2.93422
G1 X127.511 Y120.143 E2.95495
G1 X127.52 Y121.277 E2.99267
G1 X127.497 Y121.74 E3.00809
G1 X127.412 Y122.524 E3.03431
G1 X127.333 Y122.992 E3.0501
G1 X127.118 Y123.924 E3.08191
G1 X126.967 Y124.426 E3.09935
G1 X126.679 Y125.196 E3.12669
G1 X126.475 Y125.651 E3.14328
G1 X126.081 Y126.403 E3.17151
G1 X125.793 Y126.872 E3.18982
G1 X125.28 Y127.59 E3.21917
G1 X124.936 Y128.009 E3.2372
G1 X124.344 Y128.637 E3.2659
G1 X123.911 Y129.033 E3.28542
G1 X123.047 Y129.715 E3.32203
G1 X122.58 Y130.033 E3.34082
G1 X122.198 Y130.228 E3.35509
G1 X120.361 Y131.047 E3.42198
G1 X119.829 Y131.24 E3.44081
G1 X119.478 Y131.324 E3.45281
G1 X118.429 Y131.523 E3.48832
G1 X118.076 Y131.574 E3.50019
G1 X115.171 Y131.86 E3.59727
G1 X109.777 Y132.628 E3.77849
G1 X104.763 Y133.609 E3.94842
G1 X104.596 Y133.638 E3.95405
G1 X102.984 Y133.883 E4.00828
G1 X102.693 Y133.916 E4.01803
G1 X101.047 Y134.044 E4.07294
G1 X100.754 Y134.056 E4.08269
G1 X99.094 Y134.063 E4.1379
G1 X98.798 Y134.053 E4.14775
G1 X97.166 Y133.939 E4.20217
G1 X96.887 Y133.91 E4.2115
G1 X95.354 Y133.694 E4.26299
G1 X95.19 Y133.667 E4.26851
G1 X87.505 Y132.256 E4.52839
G1 X81.227 Y131.502 E4.7387
G1 X80.491 Y131.343 E4.76374
G1 X79.023 Y130.876 E4.81498
G1 X78.498 Y130.667 E4.83377
G1 X78.242 Y130.532 E4.8434
G1 X77.261 Y129.968 E4.88104
G1 X76.779 Y129.641 E4.90041
G1 X76.245 Y129.22 E4.92303
G1 X75.785 Y128.795 E4.94386
G1 X74.909 Y127.848 E4.98676
G1 X74.495 Y127.318 E5.00913
G1 X74.007 Y126.57 E5.03884
G1 X73.646 Y125.878 E5.0648
G1 X73.022 Y124.328 E5.12037
G1 X72.849 Y123.79 E5.13917
G1 X72.785 Y123.477 E5.14979
G1 X72.534 Y121.937 E5.20169
G1 X72.482 Y121.257 E5.22437
G1 X72.493 Y120.081 E5.26349
G1 X72.549 Y119.452 E5.28449
G1 X73.188 Y115.669 E5.4121
G1 X73.923 Y110.233 E5.59454
G1 X74.344 Y104.818 E5.77519
G1 X74.459 Y99.385 E5.95593
G1 X74.267 Y93.958 E6.13655
G1 X73.97 Y90.192 E6.2622
G1 X73.969 Y89.588 E6.28228
G1 X74.05 Y88.474 E6.31943
G1 X74.13 Y87.914 E6.33825
G1 X74.246 Y87.494 E6.35274
G1 X74.624 Y86.365 E6.39234
G1 X74.915 Y85.702 E6.41642
G1 X77.948 Y80.208 E6.62515
G1 X79.114 Y77.854 E6.71252
G1 X81.705 Y71.936 E6.92739
G1 X82.1 Y71.236 E6.95413
G1 X82.638 Y70.473 E6.98518
G1 X82.983 Y70.049 E7.00336
G0 F3600 X83.275 Y70.322
G1 F1200 X83.92 Y69.631 E7.0348
G1 X84.222 Y69.342 E7.0487
G1 X84.877 Y68.786 E7.07728
G1 X85.223 Y68.527 E7.09165
G1 X86.033 Y67.992 E7.12394
G1 X86.432 Y67.764 E7.13922
G1 X87.356 Y67.311 E7.17345
G1 X87.894 Y67.099 E7.19268
G1 X89.295 Y66.673 E7.24139
G1 X89.824 Y66.554 E7.25942
G1 X90.691 Y66.428 E7.28856
G1 X91.329 Y66.393 E7.30981
G1 X98.795 Y66.641 E7.55827
G1 X104.268 Y66.54 E7.74034
G1 X107.861 Y66.331 E7.86004
G1 X108.276 Y66.331 E7.87384
G1 X109.234 Y66.386 E7.90576
G1 X109.68 Y66.44 E7.9207
G1 X110.63 Y66.615 E7.95283
G1 X111.042 Y66.716 E7.96694
G1 X111.921 Y66.988 E7.99754
G1 X112.325 Y67.14 E8.0119
G1 X113.158 Y67.512 E8.04224
G1 X113.532 Y67.706 E8.05626
G1 X114.313 Y68.171 E8.08649
G1 X114.686 Y68.426 E8.10152
G1 X115.484 Y69.049 E8.13519
G1 X115.891 Y69.42 E8.1535
G1 X116.841 Y70.43 E8.19962
G1 X117.223 Y70.913 E8.2201
G1 X117.657 Y71.57 E8.24629
G1 X117.98 Y72.179 E8.26922
G1 X118.969 Y74.571 E8.35531
G1 X121.255 Y79.515 E8.53648
G1 X124.71 Y85.871 E8.77709
G1 X124.936 Y86.376 E8.79549
G1 X125.361 Y87.562 E8.8374
G1 X125.504 Y88.078 E8.85521
G1 X125.566 Y88.574 E8.87183
G1 X125.633 Y89.769 E8.91164
G1 X125.629 Y90.24 E8.92731
G1 X125.235 Y95.508 E9.10301
G1 X125.134 Y100.953 E9.28414
G1 X125.34 Y106.394 E9.46524
G1 X125.858 Y111.861 E9.64789
G1 X126.222 Y114.506 E9.73669
G1 X127.063 Y119.587 E9.90798
G1 X127.111 Y120.146 E9.92664
G1 X127.12 Y121.28 E9.96436
G1 X127.099 Y121.697 E9.97825
G1 X127.014 Y122.481 E10.00448
G1 X126.943 Y122.902 E10.01868
G1 X126.728 Y123.834 E10.05049
G1 X126.592 Y124.286 E10.06619
G1 X126.304 Y125.056 E10.09353
G1 X126.121 Y125.466 E10.10847
G1 X125.727 Y126.218 E10.1367
G1 X125.467 Y126.64 E10.15319
G1 X124.954 Y127.358 E10.18254
G1 X124.645 Y127.734 E10.19873
G1 X124.053 Y128.362 E10.22743
G1 X123.664 Y128.719 E10.24499
G1 X122.8 Y129.401 E10.2816
G1 X122.355 Y129.701 E10.29945
G1 X122.035 Y129.863 E10.31138
G1 X120.198 Y130.682 E10.37828
G1 X119.693 Y130.863 E10.39612
G1 X119.403 Y130.931 E10.40603
G1 X118.354 Y131.13 E10.44154
G1 X118.036 Y131.176 E10.45223
G1 X115.122 Y131.463 E10.54962
G1 X109.703 Y132.235 E10.73167
G1 X104.686 Y133.216 E10.9017
G1 X104.536 Y133.242 E10.90676
G1 X102.924 Y133.487 E10.96099
G1 X102.662 Y133.517 E10.96976
G1 X101.016 Y133.645 E11.02468
G1 X100.752 Y133.656 E11.03346
G1 X99.092 Y133.663 E11.08868
G1 X98.826 Y133.654 E11.09753
G1 X97.194 Y133.54 E11.15194
G1 X96.943 Y133.514 E11.16033
G1 X95.41 Y133.298 E11.21183
G1 X95.262 Y133.274 E11.21681
G1 X87.56 Y131.86 E11.47726
G1 X81.275 Y131.105 E11.68781
G1 X80.613 Y130.962 E11.71033
G1 X79.145 Y130.495 E11.76157
G1 X78.442 Y130.185 E11.78712
G1 X77.461 Y129.621 E11.82476
G1 X77.026 Y129.327 E11.84222
G1 X76.492 Y128.906 E11.86484
G1 X76.078 Y128.524 E11.88358
G1 X75.202 Y127.577 E11.92648
G1 X74.83 Y127.099 E11.94663
G1 X74.342 Y126.351 E11.97633
G1 X74.017 Y125.728 E11.9997
G1 X73.393 Y124.178 E12.05528
G1 X73.18 Y123.413 E12.08169
G1 X72.929 Y121.873 E12.13359
G1 X72.882 Y121.26 E12.15403
G1 X72.893 Y120.084 E12.19315
G1 X72.943 Y119.519 E12.21202
G1 X73.583 Y115.729 E12.33986
G1 X74.322 Y110.266 E12.52321
G1 X74.744 Y104.84 E12.70423
G1 X74.859 Y99.397 E12.8853
G1 X74.665 Y93.913 E13.06781
G1 X74.369 Y90.161 E13.19299
G1 X74.367 Y89.617 E13.21109
G1 X74.448 Y88.503 E13.24824
G1 X74.527 Y87.972 E13.26609
G1 X74.625 Y87.621 E13.27821
G1 X75.003 Y86.492 E13.31781
G1 X75.266 Y85.895 E13.33951
G1 X78.291 Y80.417 E13.54764
G1 X79.48 Y78.013 E13.63685
G1 X82.071 Y72.097 E13.85166
G1 X82.427 Y71.466 E13.87575
G1 X82.965 Y70.703 E13.9068
G1 X83.275 Y70.322 E13.92314
G0 F3600 X83.568 Y70.594
G1 F1200 X84.213 Y69.903 E13.95458
G1 X84.481 Y69.647 E13.96691
G1 X85.136 Y69.091 E13.99548
G1 X85.443 Y68.861 E14.00824
G1 X86.253 Y68.326 E14.04053
G1 X86.608 Y68.123 E14.05413
G1 X87.532 Y67.67 E14.08836
G1 X88.01 Y67.481 E14.10545
G1 X89.411 Y67.055 E14.15416
G1 X89.882 Y66.95 E14.17021
G1 X90.749 Y66.824 E14.19935
G1 X91.315 Y66.793 E14.2182
G1 X98.789 Y67.041 E14.46692
G1 X104.274 Y66.94 E14.64939
G1 X107.885 Y66.73 E14.76969
G1 X108.253 Y66.73 E14.78193
G1 X109.211 Y66.785 E14.81385
G1 X109.608 Y66.833 E14.82715
G1 X110.558 Y67.008 E14.85928
G1 X110.924 Y67.098 E14.87181
G1 X111.803 Y67.37 E14.90242
G1 X112.162 Y67.505 E14.91517
G1 X112.995 Y67.877 E14.94552
G1 X113.327 Y68.049 E14.95795
G1 X114.108 Y68.514 E14.98818
G1 X114.44 Y68.742 E15.00158
G1 X115.238 Y69.365 E15.03525
G1 X115.6 Y69.695 E15.05154
G1 X116.55 Y70.705 E15.09766
G1 X116.889 Y71.133 E15.11582
G1 X117.323 Y71.79 E15.14201
G1 X117.61 Y72.332 E15.16241
G1 X118.598 Y74.723 E15.24845
G1 X120.895 Y79.689 E15.43044
G1 X124.359 Y86.062 E15.67169
G1 X124.559 Y86.511 E15.68804
G1 X124.984 Y87.697 E15.72994
G1 X125.117 Y88.184 E15.74673
G1 X125.167 Y88.597 E15.76057
G1 X125.234 Y89.792 E15.80038
G1 X125.23 Y90.21 E15.81428
G1 X124.835 Y95.488 E15.99032
G1 X124.734 Y100.943 E16.17179
G1 X124.942 Y106.428 E16.35435
G1 X125.46 Y111.906 E16.53736
G1 X125.83 Y114.59 E16.62748
G1 X126.668 Y119.652 E16.79813
G1 X126.711 Y120.15 E16.81476
G1 X126.72 Y121.284 E16.85247
G1 X126.701 Y121.654 E16.8648
G1 X126.616 Y122.438 E16.89102
G1 X126.553 Y122.812 E16.90364
G1 X126.338 Y123.744 E16.93545
G1 X126.217 Y124.146 E16.94941
G1 X125.929 Y124.916 E16.97676
G1 X125.767 Y125.28 E16.99001
G1 X125.373 Y126.032 E17.01825
G1 X125.142 Y126.407 E17.0329
G1 X124.629 Y127.125 E17.06224
G1 X124.353 Y127.46 E17.07668
G1 X123.761 Y128.088 E17.10539
G1 X123.416 Y128.405 E17.12097
G1 X122.552 Y129.087 E17.15758
G1 X122.131 Y129.368 E17.17442
G1 X121.872 Y129.498 E17.18405
G1 X120.035 Y130.317 E17.25095
G1 X119.328 Y130.538 E17.27559
G1 X118.279 Y130.737 E17.3111
G1 X117.997 Y130.778 E17.32058
G1 X115.073 Y131.066 E17.4183
G1 X109.626 Y131.842 E17.6013
G1 X104.609 Y132.823 E17.77132
G1 X104.476 Y132.847 E17.77582
G1 X102.864 Y133.092 E17.83005
G1 X102.631 Y133.118 E17.83785
G1 X100.985 Y133.246 E17.89276
G1 X100.75 Y133.256 E17.90058
G1 X99.09 Y133.263 E17.95579
G1 X98.854 Y133.255 E17.96365
G1 X97.222 Y133.141 E18.01806
G1 X96.999 Y133.118 E18.02552
G1 X95.466 Y132.902 E18.07701
G1 X95.334 Y132.88 E18.08146
G1 X87.632 Y131.466 E18.34191
G1 X81.322 Y130.708 E18.55329
G1 X80.734 Y130.58 E18.57331
G1 X79.266 Y130.113 E18.62454
G1 X78.641 Y129.838 E18.64725
G1 X77.66 Y129.274 E18.68489
G1 X77.274 Y129.013 E18.70039
G1 X76.74 Y128.592 E18.723
G1 X76.372 Y128.252 E18.73967
G1 X75.496 Y127.305 E18.78258
G1 X75.165 Y126.88 E18.80049
G1 X74.677 Y126.132 E18.8302
G1 X74.389 Y125.579 E18.85094
G1 X73.765 Y124.029 E18.90651
G1 X73.575 Y123.349 E18.92999
G1 X73.324 Y121.809 E18.98189
G1 X73.282 Y121.264 E19.00007
G1 X73.293 Y120.088 E19.03919
G1 X73.338 Y119.585 E19.05598
G1 X73.979 Y115.788 E19.18406
G1 X74.719 Y110.314 E19.36778
G1 X75.144 Y104.861 E19.5497
G1 X75.259 Y99.391 E19.73167
G1 X75.064 Y93.889 E19.91478
G1 X74.768 Y90.129 E20.04023
G1 X74.766 Y89.646 E20.05629
G1 X74.847 Y88.532 E20.09344
G1 X74.924 Y88.032 E20.11027
G1 X75.005 Y87.748 E20.12009
G1 X75.383 Y86.619 E20.15969
G1 X75.616 Y86.088 E20.17898
G1 X78.656 Y80.583 E20.38814
G1 X79.84 Y78.189 E20.47697
G1 X82.438 Y72.257 E20.69236
G1 X82.754 Y71.697 E20.71375
G1 X83.292 Y70.934 E20.7448
G1 X83.568 Y70.594 E20.75936
G1 F2400 E18.25936
;MESH:panda_keychain_kubra.stl
G0 F3600 X85.807 Y71.876
G0 X86.755 Y72.742
G0 X101.554 Y77.745
;TYPE:WALL-INNER
G1 F2400 E20.75936
G1 F1200 X101.283 Y77.849 E20.76902
G1 X100.296 Y78.23 E20.80421
G1 X100.097 Y78.125 E20.81169
G1 X99.879 Y78.046 E20.8194
G1 X99.561 Y77.995 E20.83011
G1 X99.041 Y77.992 E20.84741
G1 X98.814 Y78.013 E20.85499
G1 X98.555 Y78.072 E20.86383
G1 X98.291 Y78.185 E20.87338
G1 X98.054 Y78.342 E20.88283
G1 X97.708 Y78.664 E20.89855
G1 X97.595 Y78.548 E20.90394
G1 X97.368 Y78.367 E20.9136
G1 X97.112 Y78.216 E20.92348
G1 X96.875 Y78.103 E20.93221
G1 X96.491 Y77.966 E20.94577
G1 X95.745 Y77.753 E20.97158
G1 X94.874 Y78.145 E21.00335
G1 X94.561 Y78.303 E21.01501
G1 X94.242 Y78.497 E21.02743
G1 X94.112 Y78.593 E21.0328
G1 X93.884 Y78.382 E21.04313
G1 X93.722 Y78.254 E21.05
G1 X93.517 Y78.125 E21.05806
G1 X93.285 Y78.027 E21.06643
G1 X93.066 Y77.965 E21.074
G1 X92.685 Y77.9 E21.08686
G1 X92.321 Y77.921 E21.09898
G1 X91.966 Y78.024 E21.11128
G1 X91.606 Y78.233 E21.12512
G1 X91.319 Y78.47 E21.1375
G1 X91.099 Y78.773 E21.14996
G1 X91.016 Y78.945 E21.15631
G1 X90.989 Y79.002 E21.15841
G1 X90.955 Y79.096 E21.16173
G1 X90.889 Y79.275 E21.16808
G1 X90.885 Y79.285 E21.16844
G1 X90.826 Y79.503 E21.17595
G1 X90.785 Y79.308 E21.17657
G1 X90.768 Y79.231 E21.17668
G1 X90.72 Y79.118 E21.1781
G1 X90.665 Y78.99 E21.18106
G1 X90.629 Y78.938 E21.18316
G1 X90.491 Y78.744 E21.19108
G1 X90.284 Y78.524 E21.20113
G1 X89.951 Y78.296 E21.21455
G1 X89.722 Y78.189 E21.22296
G1 X89.423 Y78.116 E21.23319
G1 X89.1 Y78.085 E21.24399
G1 X88.735 Y78.128 E21.25621
G1 X88.374 Y78.225 E21.26864
G1 X88.074 Y78.367 E21.27968
G1 X87.962 Y78.434 E21.28402
G1 X87.817 Y78.52 E21.28963
G1 X87.713 Y78.599 E21.29397
G1 X87.7 Y78.562
G1 X87.645 Y78.403 E21.29807
G1 X86.247 Y74.353 E21.44057
G1 X86.229 Y74.267 E21.44349
G1 X86.223 Y74.19 E21.44606
G1 X86.241 Y74.042 E21.45102
G1 X86.289 Y73.916 E21.45551
G1 X86.495 Y73.627 E21.46731
G1 X86.765 Y73.295 E21.48154
G1 X87.029 Y73.007 E21.49454
G1 X87.344 Y72.703 E21.5091
G1 X87.663 Y72.431 E21.52304
G1 X87.951 Y72.212 E21.53508
G1 X88.302 Y71.98 E21.54907
G1 X88.665 Y71.768 E21.56305
G1 X89.042 Y71.579 E21.57708
G1 X89.415 Y71.42 E21.59056
G1 X89.806 Y71.28 E21.60438
G1 X90.205 Y71.164 E21.6182
G1 X90.59 Y71.076 E21.63133
G1 X91.007 Y71.008 E21.64539
G1 X91.402 Y70.969 E21.65859
G1 X91.837 Y70.95 E21.67307
G1 X92.236 Y70.96 E21.68634
G1 X92.653 Y70.993 E21.70026
G1 X93.056 Y71.051 E21.7138
G1 X93.468 Y71.136 E21.72779
G1 X93.846 Y71.238 E21.74081
G1 X94.223 Y71.365 E21.75404
G1 X95.197 Y71.83 E21.78994
G1 X95.455 Y71.963 E21.7996
G1 X95.64 Y72.072 E21.80674
G1 X95.874 Y72.226 E21.81605
G1 X96.104 Y72.395 E21.82555
G1 X96.294 Y72.548 E21.83366
G1 X96.514 Y72.741 E21.8434
G1 X96.737 Y72.952 E21.85361
G1 X96.906 Y73.126 E21.86167
G1 X97.111 Y73.357 E21.87195
G1 X97.269 Y73.549 E21.88022
G1 X97.409 Y73.74 E21.88809
G1 X97.557 Y73.964 E21.89702
G1 X97.663 Y74.144 E21.90397
G1 X97.749 Y74.315 E21.91034
G1 X97.805 Y74.451 E21.91523
G1 X97.849 Y74.596 E21.92027
G1 X98.196 Y75.979 E21.96769
G1 X99.677 Y75.941 E22.01697
G1 X100.312 Y75.942 E22.03809
G1 X101.795 Y75.98 E22.08743
G1 X102.151 Y74.562 E22.13605
G1 X102.195 Y74.421 E22.14097
G1 X102.256 Y74.272 E22.14632
G1 X102.343 Y74.1 E22.15273
G1 X102.459 Y73.899 E22.16045
G1 X102.588 Y73.708 E22.16812
G1 X102.724 Y73.524 E22.17573
G1 X102.907 Y73.298 E22.1854
G1 X103.076 Y73.11 E22.19381
G1 X103.26 Y72.92 E22.20261
G1 X103.488 Y72.703 E22.21307
G1 X103.682 Y72.534 E22.22163
G1 X103.927 Y72.337 E22.23209
G1 X104.125 Y72.192 E22.24025
G1 X104.347 Y72.044 E22.24912
G1 X104.551 Y71.925 E22.25698
G1 X104.798 Y71.797 E22.26623
G1 X105.778 Y71.329 E22.30235
G1 X106.155 Y71.202 E22.31558
G1 X106.533 Y71.1 E22.32861
G1 X106.945 Y71.015 E22.3426
G1 X107.348 Y70.957 E22.35614
G1 X107.765 Y70.924 E22.37005
G1 X108.164 Y70.914 E22.38333
G1 X108.598 Y70.933 E22.39778
G1 X108.994 Y70.972 E22.41101
G1 X109.41 Y71.04 E22.42503
G1 X109.795 Y71.128 E22.43817
G1 X110.191 Y71.243 E22.45188
G1 X110.591 Y71.386 E22.46601
G1 X110.959 Y71.543 E22.47932
G1 X111.336 Y71.732 E22.49334
G1 X111.705 Y71.947 E22.50755
G1 X112.034 Y72.166 E22.52069
G1 X112.363 Y72.415 E22.53442
G1 X112.665 Y72.673 E22.54763
G1 X112.965 Y72.964 E22.56153
G1 X113.236 Y73.259 E22.57485
G1 X113.506 Y73.591 E22.58909
G1 X113.714 Y73.885 E22.60106
G1 X113.755 Y73.987 E22.60472
G1 X113.773 Y74.072 E22.60761
G1 X113.775 Y74.203 E22.61197
G1 X113.763 Y74.284 E22.61469
G1 X113.736 Y74.378 E22.61794
G1 X112.371 Y78.331 E22.75704
G1 X112.325 Y78.466 E22.76178
