;FLAVOR:Marlin
;TIME:2709
;Filament used: 1.24977m
;Layer height: 0.12
;POSTPROCESSED
;Generated with Cura_SteamEngine 3.6.0
M140 S60
M105
M190 S60
M104 S200
M105
M109 S200
M82 ;absolute extrusion mode
G21 ;metric values
G90 ;absolute positioning
M82 ;set extruder to absolute mode
M107 ;start with the fan off
G28 X0 Y0 ;move X/Y to min endstops
G28 Z0 ;move Z to min endstops
G1 Z15.0 F120 ;move the platform down 15mm
G92 E0 ;zero the extruded length
G1 F200 E6 ;extrude 6 mm of feed stock
G92 E0 ;zero the extruded length again
G1 F120
;Put printing message on LCD screen
M117 Printing...
G92 E0
G1 F2400 E-2.5
;LAYER_COUNT:17
;LAYER:0
M107
G0 F3600 X82.983 Y70.049 Z0.2
;TYPE:SKIRT
G1 F2400 E0
G1 F1200 X83.628 Y69.358 E0.03144
G1 X83.963 Y69.038 E0.04685
G1 X84.618 Y68.482 E0.07542
G1 X85.002 Y68.193 E0.09141
G1 X85.812 Y67.658 E0.1237
G1 X86.256 Y67.404 E0.14071
G1 X87.18 Y66.951 E0.17494
G1 X87.777 Y66.716 E0.19627
G1 X89.178 Y66.29 E0.24498
G1 X89.767 Y66.159 E0.26505
G1 X90.634 Y66.033 E0.29419
G1 X91.342 Y65.993 E0.31777
G1 X98.801 Y66.241 E0.566
G1 X104.263 Y66.139 E0.7477
G1 X107.838 Y65.932 E0.8668
G1 X108.299 Y65.932 E0.88213
G1 X109.257 Y65.987 E0.91405
G1 X109.753 Y66.046 E0.93066
G1 X110.703 Y66.221 E0.96279
G1 X111.16 Y66.334 E0.97845
G1 X112.039 Y66.606 E1.00905
G1 X112.488 Y66.775 E1.02501
G1 X113.321 Y67.147 E1.05535
G1 X113.736 Y67.362 E1.0709
G1 X114.517 Y67.827 E1.10113
G1 X114.933 Y68.111 E1.11788
G1 X115.731 Y68.734 E1.15155
G1 X116.183 Y69.146 E1.1719
G1 X117.133 Y70.156 E1.21801
G1 X117.557 Y70.692 E1.24074
G1 X117.991 Y71.349 E1.26693
G1 X118.35 Y72.026 E1.29242
G1 X119.331 Y74.399 E1.37782
G1 X121.622 Y79.353 E1.55936
G1 X125.061 Y85.68 E1.79888
G1 X125.313 Y86.241 E1.81933
G1 X125.738 Y87.427 E1.86123
G1 X125.89 Y87.971 E1.88002
G1 X125.966 Y88.552 E1.89951
G1 X126.033 Y89.747 E1.93932
G1 X126.028 Y90.269 E1.95668
G1 X125.635 Y95.526 E2.13202
G1 X125.534 Y100.945 E2.31228
G1 X125.74 Y106.375 E2.49302
G1 X126.253 Y111.792 E2.67399
G1 X126.625 Y114.499 E2.76487
G1 X127.457 Y119.522 E2.93422
G1 X127.511 Y120.143 E2.95495
G1 X127.52 Y121.277 E2.99267
G1 X127.497 Y121.74 E3.00809
G1 X127.412 Y122.524 E3.03431
G1 X127.333 Y122.992 E3.0501
G1 X127.118 Y123.924 E3.08191
G1 X126.967 Y124.426 E3.09935
G1 X126.679 Y125.196 E3.12669
G1 X126.475 Y125.651 E3.14328
G1 X126.081 Y126.403 E3.17151
G1 X125.793 Y126.872 E3.18982
G1 X125.28 Y127.59 E3.21917
G1 X124.936 Y128.009 E3.2372
G1 X124.344 Y128.637 E3.2659
G1 X123.947 Y129.004 E3.28389
G1 X123.249 Y129.568 E3.31373
G1 X122.746 Y129.915 E3.33406
G1 X121.764 Y130.486 E3.37184
G1 X121.19 Y130.761 E3.39301
G1 X120.434 Y131.052 E3.41995
G1 X119.919 Y131.211 E3.43788
G1 X119.032 Y131.421 E3.4682
G1 X118.569 Y131.503 E3.48383
G1 X112.43 Y132.211 E3.68937
G1 X109.802 Y132.623 E3.77785
G1 X104.763 Y133.609 E3.94862
G1 X104.596 Y133.638 E3.95426
G1 X102.984 Y133.883 E4.00849
G1 X102.693 Y133.916 E4.01823
G1 X101.047 Y134.044 E4.07314
G1 X100.754 Y134.056 E4.0829
G1 X99.094 Y134.063 E4.13811
G1 X98.798 Y134.053 E4.14796
G1 X97.166 Y133.939 E4.20237
G1 X96.887 Y133.91 E4.2117
G1 X95.354 Y133.694 E4.26319
G1 X95.19 Y133.667 E4.26872
G1 X87.505 Y132.256 E4.5286
G1 X81.227 Y131.502 E4.73891
G1 X80.491 Y131.343 E4.76395
G1 X79.023 Y130.876 E4.81519
G1 X78.498 Y130.667 E4.83398
G1 X78.242 Y130.532 E4.84361
G1 X77.261 Y129.968 E4.88124
G1 X76.779 Y129.641 E4.90062
G1 X76.245 Y129.22 E4.92323
G1 X75.785 Y128.795 E4.94406
G1 X74.909 Y127.848 E4.98697
G1 X74.495 Y127.318 E5.00934
G1 X74.007 Y126.57 E5.03904
G1 X73.646 Y125.878 E5.065
G1 X73.022 Y124.328 E5.12058
G1 X72.849 Y123.79 E5.13937
G1 X72.785 Y123.477 E5.15
G1 X72.534 Y121.937 E5.2019
G1 X72.482 Y121.257 E5.22458
G1 X72.493 Y120.081 E5.2637
G1 X72.549 Y119.452 E5.2847
G1 X73.188 Y115.669 E5.4123
G1 X73.923 Y110.233 E5.59475
G1 X74.344 Y104.818 E5.7754
G1 X74.459 Y99.385 E5.95614
G1 X74.267 Y93.958 E6.13676
G1 X73.97 Y90.192 E6.2624
G1 X73.969 Y89.588 E6.28249
G1 X74.05 Y88.474 E6.31964
G1 X74.13 Y87.914 E6.33846
G1 X74.246 Y87.494 E6.35295
G1 X74.624 Y86.365 E6.39255
G1 X74.915 Y85.702 E6.41663
G1 X77.948 Y80.208 E6.62536
G1 X79.114 Y77.854 E6.71273
G1 X81.705 Y71.936 E6.9276
G1 X82.1 Y71.236 E6.95434
G1 X82.638 Y70.473 E6.98539
G1 X82.983 Y70.049 E7.00357
G0 F3600 X83.275 Y70.322
G1 F1200 X83.92 Y69.631 E7.03501
G1 X84.222 Y69.342 E7.04891
G1 X84.877 Y68.786 E7.07749
G1 X85.223 Y68.527 E7.09186
G1 X86.033 Y67.992 E7.12415
G1 X86.432 Y67.764 E7.13943
G1 X87.356 Y67.311 E7.17366
G1 X87.894 Y67.099 E7.19289
G1 X89.295 Y66.673 E7.2416
G1 X89.824 Y66.554 E7.25963
G1 X90.691 Y66.428 E7.28877
G1 X91.329 Y66.393 E7.31002
G1 X98.795 Y66.641 E7.55848
G1 X104.268 Y66.54 E7.74054
G1 X107.861 Y66.331 E7.86025
G1 X108.276 Y66.331 E7.87405
G1 X109.234 Y66.386 E7.90597
G1 X109.68 Y66.44 E7.92091
G1 X110.63 Y66.615 E7.95304
G1 X111.042 Y66.716 E7.96715
G1 X111.921 Y66.988 E7.99775
G1 X112.325 Y67.14 E8.01211
G1 X113.158 Y67.512 E8.04245
G1 X113.532 Y67.706 E8.05646
G1 X114.313 Y68.171 E8.0867
G1 X114.686 Y68.426 E8.10172
G1 X115.484 Y69.049 E8.1354
G1 X115.891 Y69.42 E8.15371
G1 X116.841 Y70.43 E8.19983
G1 X117.223 Y70.913 E8.22031
G1 X117.657 Y71.57 E8.2465
G1 X117.98 Y72.179 E8.26943
G1 X118.969 Y74.571 E8.35552
G1 X121.255 Y79.515 E8.53668
G1 X124.71 Y85.871 E8.7773
G1 X124.936 Y86.376 E8.7957
G1 X125.361 Y87.562 E8.8376
G1 X125.504 Y88.078 E8.85541
G1 X125.566 Y88.574 E8.87204
G1 X125.633 Y89.769 E8.91185
G1 X125.629 Y90.24 E8.92751
G1 X125.235 Y95.508 E9.10322
G1 X125.134 Y100.953 E9.28435
G1 X125.34 Y106.394 E9.46545
G1 X125.858 Y111.861 E9.6481
G1 X126.222 Y114.506 E9.7369
G1 X127.063 Y119.587 E9.90819
G1 X127.111 Y120.146 E9.92685
G1 X127.12 Y121.28 E9.96457
G1 X127.099 Y121.697 E9.97846
G1 X127.014 Y122.481 E10.00469
G1 X126.943 Y122.902 E10.01889
G1 X126.728 Y123.834 E10.0507
G1 X126.592 Y124.286 E10.0664
G1 X126.304 Y125.056 E10.09374
G1 X126.121 Y125.466 E10.10867
G1 X125.727 Y126.218 E10.13691
G1 X125.467 Y126.64 E10.1534
G1 X124.954 Y127.358 E10.18275
G1 X124.645 Y127.734 E10.19893
G1 X124.053 Y128.362 E10.22764
G1 X123.696 Y128.693 E10.24383
G1 X122.998 Y129.257 E10.27368
G1 X122.545 Y129.569 E10.29197
G1 X121.563 Y130.14 E10.32976
G1 X121.046 Y130.388 E10.34883
G1 X120.29 Y130.679 E10.37577
G1 X119.826 Y130.822 E10.39192
G1 X118.939 Y131.032 E10.42224
G1 X118.523 Y131.105 E10.43628
G1 X112.396 Y131.812 E10.64142
G1 X109.716 Y132.232 E10.73165
G1 X104.686 Y133.216 E10.90212
G1 X104.536 Y133.242 E10.90718
G1 X102.924 Y133.487 E10.96141
G1 X102.662 Y133.517 E10.97018
G1 X101.016 Y133.645 E11.02509
G1 X100.752 Y133.656 E11.03388
G1 X99.092 Y133.663 E11.08909
G1 X98.826 Y133.654 E11.09795
G1 X97.194 Y133.54 E11.15236
G1 X96.943 Y133.514 E11.16075
G1 X95.41 Y133.298 E11.21224
G1 X95.262 Y133.274 E11.21723
G1 X87.56 Y131.86 E11.47768
G1 X81.275 Y131.105 E11.68822
G1 X80.613 Y130.962 E11.71075
G1 X79.145 Y130.495 E11.76199
G1 X78.442 Y130.185 E11.78754
G1 X77.461 Y129.621 E11.82518
G1 X77.026 Y129.327 E11.84264
G1 X76.492 Y128.906 E11.86526
G1 X76.078 Y128.524 E11.88399
G1 X75.202 Y127.577 E11.9269
G1 X74.83 Y127.099 E11.94704
G1 X74.342 Y126.351 E11.97675
G1 X74.017 Y125.728 E12.00012
G1 X73.393 Y124.178 E12.05569
G1 X73.18 Y123.413 E12.08211
G1 X72.929 Y121.873 E12.134
G1 X72.882 Y121.26 E12.15445
G1 X72.893 Y120.084 E12.19357
G1 X72.943 Y119.519 E12.21243
G1 X73.583 Y115.729 E12.34027
G1 X74.322 Y110.266 E12.52363
G1 X74.744 Y104.84 E12.70464
G1 X74.859 Y99.397 E12.88572
G1 X74.665 Y93.913 E13.06823
G1 X74.369 Y90.161 E13.19341
G1 X74.367 Y89.617 E13.2115
G1 X74.448 Y88.503 E13.24865
G1 X74.527 Y87.972 E13.26651
G1 X74.625 Y87.621 E13.27863
G1 X75.003 Y86.492 E13.31823
G1 X75.266 Y85.895 E13.33993
G1 X78.291 Y80.417 E13.54806
G1 X79.48 Y78.013 E13.63726
G1 X82.071 Y72.097 E13.85207
G1 X82.427 Y71.466 E13.87617
G1 X82.965 Y70.703 E13.90722
G1 X83.275 Y70.322 E13.92356
G0 F3600 X83.568 Y70.594
G1 F1200 X84.213 Y69.903 E13.955
G1 X84.481 Y69.647 E13.96732
G1 X85.136 Y69.091 E13.9959
G1 X85.443 Y68.861 E14.00866
G1 X86.253 Y68.326 E14.04095
G1 X86.608 Y68.123 E14.05455
G1 X87.532 Y67.67 E14.08877
G1 X88.01 Y67.481 E14.10587
G1 X89.411 Y67.055 E14.15457
G1 X89.882 Y66.95 E14.17062
G1 X90.749 Y66.824 E14.19976
G1 X91.315 Y66.793 E14.21862
G1 X98.789 Y67.041 E14.46734
G1 X104.274 Y66.94 E14.6498
G1 X107.885 Y66.73 E14.77011
G1 X108.253 Y66.73 E14.78235
G1 X109.211 Y66.785 E14.81426
G1 X109.608 Y66.833 E14.82756
G1 X110.558 Y67.008 E14.85969
G1 X110.924 Y67.098 E14.87223
G1 X111.803 Y67.37 E14.90283
G1 X112.162 Y67.505 E14.91559
G1 X112.995 Y67.877 E14.94593
G1 X113.327 Y68.049 E14.95837
G1 X114.108 Y68.514 E14.9886
G1 X114.44 Y68.742 E15.002
G1 X115.238 Y69.365 E15.03567
G1 X115.6 Y69.695 E15.05196
G1 X116.55 Y70.705 E15.09808
G1 X116.889 Y71.133 E15.11624
G1 X117.323 Y71.79 E15.14243
G1 X117.61 Y72.332 E15.16282
G1 X118.598 Y74.723 E15.24887
G1 X120.895 Y79.689 E15.43085
G1 X124.359 Y86.062 E15.67211
G1 X124.559 Y86.511 E15.68846
G1 X124.984 Y87.697 E15.73036
G1 X125.117 Y88.184 E15.74715
G1 X125.167 Y88.597 E15.76099
G1 X125.234 Y89.792 E15.8008
G1 X125.23 Y90.21 E15.8147
G1 X124.835 Y95.488 E15.99074
G1 X124.734 Y100.943 E16.1722
G1 X124.942 Y106.428 E16.35477
G1 X125.46 Y111.906 E16.53778
G1 X125.83 Y114.59 E16.62789
G1 X126.668 Y119.652 E16.79855
G1 X126.711 Y120.15 E16.81517
G1 X126.72 Y121.284 E16.85289
G1 X126.701 Y121.654 E16.86521
G1 X126.616 Y122.438 E16.89144
G1 X126.553 Y122.812 E16.90406
G1 X126.338 Y123.744 E16.93587
G1 X126.217 Y124.146 E16.94983
G1 X125.929 Y124.916 E16.97717
G1 X125.767 Y125.28 E16.99043
G1 X125.373 Y126.032 E17.01866
G1 X125.142 Y126.407 E17.03331
G1 X124.629 Y127.125 E17.06266
G1 X124.353 Y127.46 E17.0771
G1 X123.761 Y128.088 E17.1058
G1 X123.444 Y128.382 E17.12018
G1 X122.746 Y128.946 E17.15003
G1 X122.344 Y129.223 E17.16627
G1 X121.362 Y129.794 E17.20405
G1 X120.903 Y130.014 E17.22098
G1 X120.147 Y130.305 E17.24792
G1 X119.734 Y130.433 E17.2623
G1 X118.847 Y130.643 E17.29262
G1 X118.477 Y130.708 E17.30511
G1 X112.314 Y131.419 E17.51146
G1 X109.656 Y131.836 E17.60094
G1 X104.609 Y132.823 E17.77199
G1 X104.476 Y132.847 E17.77648
G1 X102.864 Y133.092 E17.83071
G1 X102.631 Y133.118 E17.83851
G1 X100.985 Y133.246 E17.89342
G1 X100.75 Y133.256 E17.90125
G1 X99.09 Y133.263 E17.95646
G1 X98.854 Y133.255 E17.96431
G1 X97.222 Y133.141 E18.01872
G1 X96.999 Y133.118 E18.02618
G1 X95.466 Y132.902 E18.07767
G1 X95.334 Y132.88 E18.08212
G1 X87.632 Y131.466 E18.34257
G1 X81.322 Y130.708 E18.55395
G1 X80.734 Y130.58 E18.57397
G1 X79.266 Y130.113 E18.62521
G1 X78.641 Y129.838 E18.64792
G1 X77.66 Y129.274 E18.68555
G1 X77.274 Y129.013 E18.70105
G1 X76.74 Y128.592 E18.72367
G1 X76.372 Y128.252 E18.74033
G1 X75.496 Y127.305 E18.78324
G1 X75.165 Y126.88 E18.80116
G1 X74.677 Y126.132 E18.83086
G1 X74.389 Y125.579 E18.8516
G1 X73.765 Y124.029 E18.90717
G1 X73.575 Y123.349 E18.93066
G1 X73.324 Y121.809 E18.98255
G1 X73.282 Y121.264 E19.00073
G1 X73.293 Y120.088 E19.03985
G1 X73.338 Y119.585 E19.05664
G1 X73.979 Y115.788 E19.18472
G1 X74.719 Y110.314 E19.36844
G1 X75.144 Y104.861 E19.55036
G1 X75.259 Y99.391 E19.73233
G1 X75.064 Y93.889 E19.91545
G1 X74.768 Y90.129 E20.04089
G1 X74.766 Y89.646 E20.05696
G1 X74.847 Y88.532 E20.0941
G1 X74.924 Y88.032 E20.11093
G1 X75.005 Y87.748 E20.12075
G1 X75.383 Y86.619 E20.16035
G1 X75.616 Y86.088 E20.17964
G1 X78.656 Y80.583 E20.3888
G1 X79.84 Y78.189 E20.47763
G1 X82.438 Y72.257 E20.69302
G1 X82.754 Y71.697 E20.71441
G1 X83.292 Y70.934 E20.74546
G1 X83.568 Y70.594 E20.76003
G1 F2400 E18.26003
;MESH:Panda_Keychain.stl
G0 F3600 X82.582 Y84.636
G0 X83.568 Y85.891
G0 X85.123 Y97.574
G0 X81.405 Y116.22
;TYPE:WALL-INNER
G1 F2400 E20.76003
G1 F1200 X81.347 Y115.919 E20.77022
G1 X80.97 Y113.977 E20.83602
G1 X80.85 Y113.253 E20.86043
G1 X80.758 Y112.535 E20.8845
G1 X80.694 Y111.825 E20.90821
G1 X80.659 Y111.127 E20.93146
G1 X80.649 Y110.412 E20.95524
G1 X80.667 Y109.659 E20.98029
G1 X80.709 Y108.961 E21.00355
G1 X80.783 Y108.219 E21.02835
G1 X80.878 Y107.535 E21.05132
G1 X81.009 Y106.793 E21.07638
G1 X81.155 Y106.115 E21.09945
G1 X81.333 Y105.415 E21.12347
G1 X81.538 Y104.718 E21.14764
G1 X81.778 Y104.012 E21.17244
G1 X82.035 Y103.335 E21.19652
G1 X82.305 Y102.698 E21.21953
G1 X82.611 Y102.045 E21.24352
G1 X82.953 Y101.383 E21.2683
G1 X83.298 Y100.773 E21.29161
G1 X83.693 Y100.132 E21.31665
G1 X84.086 Y99.545 E21.34015
G1 X84.501 Y98.972 E21.36368
G1 X85.543 Y97.645 E21.4198
G1 X85.685 Y97.464 E21.42745
G1 X85.485 Y97.35 E21.43221
G1 X83.401 Y96.159 E21.51204
G1 X83.139 Y95.998 E21.52227
G1 X82.819 Y95.782 E21.53511
G1 X82.544 Y95.577 E21.54652
G1 X82.26 Y95.348 E21.55866
G1 X81.946 Y95.079 E21.57241
G1 X81.655 Y94.81 E21.58559
G1 X81.348 Y94.51 E21.59986
G1 X81.078 Y94.23 E21.6128
G1 X80.803 Y93.927 E21.62641
G1 X80.532 Y93.607 E21.64036
G1 X80.288 Y93.301 E21.65338
G1 X80.076 Y93.015 E21.66522
G1 X79.874 Y92.721 E21.67708
G1 X79.679 Y92.407 E21.68937
G1 X79.427 Y91.925 E21.70746
G1 X79.31 Y91.637 E21.7178
G1 X79.216 Y91.37 E21.72722
G1 X79.121 Y91.049 E21.73835
G1 X79.055 Y90.772 E21.74782
G1 X79.011 Y90.529 E21.75604
G1 X78.969 Y90.21 E21.76674
G1 X78.951 Y89.959 E21.77511
G1 X78.944 Y89.7 E21.78373
G1 X78.955 Y89.406 E21.79351
G1 X78.975 Y89.189 E21.80076
G1 X79.01 Y88.96 E21.80846
G1 X79.067 Y88.699 E21.81735
G1 X79.126 Y88.499 E21.82429
G1 X79.206 Y88.284 E21.83192
G1 X79.29 Y88.104 E21.83852
G1 X79.389 Y87.927 E21.84527
G1 X79.595 Y87.628 E21.85734
G1 X79.81 Y87.381 E21.86824
G1 X79.949 Y87.248 E21.87463
G1 X80.071 Y87.145 E21.87994
G1 X80.342 Y86.957 E21.89091
G1 X80.516 Y86.857 E21.89759
G1 X80.666 Y86.783 E21.90315
G1 X80.861 Y86.699 E21.91021
G1 X81.038 Y86.632 E21.91651
G1 X81.263 Y86.559 E21.92438
G1 X81.741 Y86.436 E21.94079
G1 X82.267 Y86.339 E21.95858
G1 X82.659 Y86.289 E21.97173
G1 X82.932 Y86.271 E21.98083
G1 X84.189 Y86.271 E22.02263
G1 X84.224 Y84.856 E22.06971
G1 X84.261 Y84.413 E22.0845
G1 X84.322 Y83.999 E22.09842
G1 X84.412 Y83.564 E22.11319
G1 X84.527 Y83.146 E22.12761
G1 X84.66 Y82.753 E22.14141
G1 X84.813 Y82.378 E22.15488
G1 X84.991 Y82.005 E22.16863
G1 X85.222 Y81.59 E22.18442
G1 X85.445 Y81.243 E22.19814
G1 X85.698 Y80.895 E22.21245
G1 X85.952 Y80.585 E22.22578
G1 X86.268 Y80.246 E22.2412
G1 X86.551 Y79.977 E22.25418
G1 X86.896 Y79.685 E22.26922
G1 X87.845 Y78.98 E22.30854
G1 X86.247 Y74.353 E22.47135
G1 X86.229 Y74.267 E22.47427
G1 X86.223 Y74.19 E22.47684
G1 X86.241 Y74.042 E22.4818
G1 X86.289 Y73.916 E22.48628
G1 X86.495 Y73.627 E22.49809
G1 X86.765 Y73.295 E22.51232
G1 X87.029 Y73.007 E22.52532
G1 X87.344 Y72.703 E22.53988
G1 X87.663 Y72.431 E22.55382
G1 X87.951 Y72.212 E22.56585
G1 X88.302 Y71.98 E22.57985
G1 X88.665 Y71.768 E22.59383
G1 X89.042 Y71.579 E22.60786
G1 X89.415 Y71.42 E22.62134
G1 X89.806 Y71.28 E22.63516
G1 X90.205 Y71.164 E22.64898
G1 X90.59 Y71.076 E22.66211
G1 X91.007 Y71.008 E22.67616
G1 X91.402 Y70.969 E22.68937
G1 X91.837 Y70.95 E22.70385
G1 X92.236 Y70.96 E22.71712
G1 X92.653 Y70.993 E22.73103
G1 X93.056 Y71.051 E22.74458
G1 X93.468 Y71.136 E22.75857
G1 X93.846 Y71.238 E22.77159
G1 X94.223 Y71.365 E22.78482
G1 X95.197 Y71.83 E22.82072
G1 X95.455 Y71.963 E22.83037
G1 X95.64 Y72.072 E22.83752
G1 X95.874 Y72.226 E22.84683
G1 X96.104 Y72.395 E22.85633
G1 X96.294 Y72.548 E22.86444
G1 X96.514 Y72.741 E22.87417
G1 X96.737 Y72.952 E22.88438
G1 X96.906 Y73.126 E22.89245
G1 X97.111 Y73.357 E22.90272
G1 X97.269 Y73.549 E22.91099
G1 X97.409 Y73.74 E22.91887
G1 X97.557 Y73.964 E22.9278
G1 X97.663 Y74.144 E22.93475
G1 X97.749 Y74.315 E22.94111
G1 X97.805 Y74.451 E22.94601
G1 X97.849 Y74.596 E22.95105
G1 X98.196 Y75.979 E22.99847
G1 X99.677 Y75.941 E23.04775
G1 X100.312 Y75.942 E23.06887
G1 X101.795 Y75.98 E23.11821
G1 X102.151 Y74.562 E23.16683
G1 X102.195 Y74.421 E23.17175
G1 X102.256 Y74.272 E23.1771
G1 X102.343 Y74.1 E23.18351
G1 X102.459 Y73.899 E23.19123
G1 X102.588 Y73.708 E23.1989
G1 X102.724 Y73.524 E23.20651
G1 X102.907 Y73.298 E23.21618
G1 X103.076 Y73.11 E23.22459
G1 X103.26 Y72.92 E23.23338
G1 X103.488 Y72.703 E23.24385
G1 X103.682 Y72.534 E23.25241
G1 X103.927 Y72.337 E23.26287
G1 X104.125 Y72.192 E23.27103
