;FLAVOR:Marlin
;TIME:949
;Filament used: 0.937938m
;Layer height: 0.2
;Generated with Cura_SteamEngine 3.6.0
M140 S60
M105
M190 S60
M104 S200
M105
M109 S200
M82 ;absolute extrusion mode
G21 ;metric values
G90 ;absolute positioning
M82 ;set extruder to absolute mode
M107 ;start with the fan off
G28 X0 Y0 ;move X/Y to min endstops
G28 Z0 ;move Z to min endstops
G1 Z15.0 F120 ;move the platform down 15mm
G92 E0 ;zero the extruded length
G1 F200 E6 ;extrude 6 mm of feed stock
G92 E0 ;zero the extruded length again
M117 Printing...
G1 F120
G92 E0
G1 F2400 E-2.5
;LAYER_COUNT:246
;LAYER:0
M107
G0 F3600 X93.122 Y90.317 Z0.2
;TYPE:SKIRT
G1 F2400 E0
G1 F1500 X93.574 Y89.894 E0.02059
G1 X94.022 Y89.568 E0.03902
G1 X95.001 Y88.938 E0.07774
G1 X95.543 Y88.637 E0.09836
G1 X95.837 Y88.509 E0.10902
G1 X96.625 Y88.198 E0.1372
G1 X97.409 Y87.964 E0.16441
G1 X98.351 Y87.768 E0.19642
G1 X99.202 Y87.669 E0.22491
G1 X100.031 Y87.647 E0.25249
G1 X100.829 Y87.692 E0.27908
G1 X101.75 Y87.822 E0.31001
G1 X102.48 Y87.984 E0.33488
G1 X103.093 Y88.171 E0.3562
G1 X103.931 Y88.516 E0.38634
G1 X105.067 Y89.115 E0.42906
G1 X105.595 Y89.439 E0.44966
G1 X105.913 Y89.684 E0.46301
G1 X106.603 Y90.263 E0.49297
G1 X107.051 Y90.691 E0.51358
G1 X107.269 Y90.945 E0.52471
G1 X108.041 Y91.912 E0.56587
G1 X108.396 Y92.42 E0.58648
G1 X108.653 Y92.907 E0.60479
G1 X109.154 Y94 E0.64478
G1 X109.376 Y94.578 E0.66538
G1 X109.5 Y95.068 E0.68219
G1 X109.743 Y96.296 E0.72382
G1 X109.823 Y96.91 E0.74442
G1 X109.83 Y97.416 E0.76125
G1 X109.787 Y98.515 E0.79783
G1 X109.723 Y99.131 E0.81843
G1 X109.649 Y99.487 E0.83052
G1 X109.391 Y100.523 E0.86603
G1 X109.118 Y101.315 E0.8939
G1 X108.826 Y101.971 E0.91778
G1 X108.444 Y102.668 E0.94421
G1 X107.92 Y103.46 E0.9758
G1 X107.46 Y104.05 E1.00068
G1 X107.012 Y104.54 E1.02277
G1 X106.398 Y105.104 E1.05049
G1 X105.475 Y105.815 E1.08925
G1 X104.961 Y106.16 E1.10984
G1 X104.586 Y106.357 E1.12392
G1 X103.638 Y106.802 E1.15876
G1 X103.061 Y107.029 E1.17938
G1 X102.534 Y107.165 E1.19748
G1 X101.121 Y107.446 E1.2454
G1 X100.507 Y107.527 E1.266
G1 X99.748 Y107.518 E1.29124
G1 X98.229 Y107.379 E1.34198
G1 X97.617 Y107.283 E1.36258
G1 X97.157 Y107.155 E1.37846
G1 X96.345 Y106.886 E1.40691
G1 X95.584 Y106.559 E1.43446
G1 X94.809 Y106.143 E1.46372
G1 X94.22 Y105.769 E1.48692
G1 X93.709 Y105.39 E1.50808
G1 X93.059 Y104.81 E1.53706
G1 X92.207 Y103.897 E1.57859
G1 X91.814 Y103.418 E1.5992
G1 X91.575 Y103.049 E1.61382
G1 X91.071 Y102.189 E1.64698
G1 X90.756 Y101.546 E1.67079
G1 X90.555 Y101.044 E1.68878
G1 X90.343 Y100.379 E1.71199
G1 X90.119 Y99.445 E1.74394
G1 X89.993 Y98.568 E1.7734
G1 X89.944 Y97.596 E1.80577
G1 X89.966 Y96.838 E1.831
G1 X90.031 Y96.237 E1.8511
G1 X90.179 Y95.464 E1.87728
G1 X90.465 Y94.438 E1.91271
G1 X90.67 Y93.853 E1.93332
G1 X90.867 Y93.444 E1.94842
G1 X91.496 Y92.281 E1.9924
G1 X91.825 Y91.756 E2.01301
G1 X92.22 Y91.277 E2.03366
G1 X93.122 Y90.317 E2.07747
G0 F3600 X93.413 Y90.591
G1 F1500 X93.848 Y90.187 E2.09721
G1 X94.239 Y89.904 E2.11327
G1 X95.218 Y89.274 E2.15199
G1 X95.984 Y88.881 E2.18062
G1 X96.772 Y88.57 E2.2088
G1 X97.491 Y88.355 E2.23376
G1 X98.433 Y88.159 E2.26576
G1 X99.212 Y88.069 E2.29184
G1 X100.041 Y88.047 E2.31943
G1 X100.773 Y88.088 E2.34381
G1 X101.694 Y88.218 E2.37475
G1 X102.363 Y88.366 E2.39754
G1 X102.976 Y88.553 E2.41885
G1 X103.744 Y88.87 E2.44649
G1 X104.88 Y89.469 E2.4892
G1 X105.385 Y89.78 E2.50893
G1 X105.656 Y89.99 E2.52033
G1 X106.346 Y90.569 E2.55029
G1 X106.957 Y91.195 E2.57938
G1 X107.729 Y92.162 E2.62054
G1 X108.066 Y92.649 E2.64024
G1 X108.29 Y93.074 E2.65621
G1 X108.791 Y94.167 E2.6962
G1 X109.001 Y94.721 E2.71591
G1 X109.107 Y95.146 E2.73048
G1 X109.35 Y96.374 E2.77211
G1 X109.426 Y96.962 E2.79183
G1 X109.431 Y97.4 E2.8064
G1 X109.388 Y98.499 E2.84298
G1 X109.325 Y99.089 E2.86272
G1 X109.261 Y99.39 E2.87295
G1 X109.003 Y100.426 E2.90846
G1 X108.753 Y101.152 E2.934
G1 X108.461 Y101.808 E2.95788
G1 X108.111 Y102.447 E2.98212
G1 X107.587 Y103.239 E3.0137
G1 X107.164 Y103.78 E3.03654
G1 X106.716 Y104.27 E3.05863
G1 X106.154 Y104.787 E3.08402
G1 X105.231 Y105.498 E3.12278
G1 X104.738 Y105.827 E3.14249
G1 X104.416 Y105.995 E3.15457
G1 X103.468 Y106.44 E3.1894
G1 X102.915 Y106.655 E3.20913
G1 X102.456 Y106.772 E3.22489
G1 X101.043 Y107.053 E3.27281
G1 X100.455 Y107.13 E3.29253
G1 X99.784 Y107.12 E3.31485
G1 X98.265 Y106.981 E3.36558
G1 X97.68 Y106.887 E3.38529
G1 X97.282 Y106.776 E3.39903
G1 X96.47 Y106.507 E3.42748
G1 X95.773 Y106.207 E3.45272
G1 X94.998 Y105.791 E3.48198
G1 X94.458 Y105.448 E3.50325
G1 X93.947 Y105.069 E3.52441
G1 X93.351 Y104.537 E3.55099
G1 X92.499 Y103.624 E3.59252
G1 X92.125 Y103.164 E3.61224
G1 X91.92 Y102.847 E3.6248
G1 X91.416 Y101.987 E3.65795
G1 X91.127 Y101.398 E3.67977
G1 X90.926 Y100.896 E3.69776
G1 X90.732 Y100.286 E3.71905
G1 X90.508 Y99.352 E3.75099
G1 X90.393 Y98.548 E3.778
G1 X90.344 Y97.576 E3.81037
G1 X90.364 Y96.881 E3.8335
G1 X90.429 Y96.28 E3.85361
G1 X90.565 Y95.572 E3.87758
G1 X90.851 Y94.546 E3.91301
G1 X91.048 Y93.986 E3.93276
G1 X91.219 Y93.634 E3.94577
G1 X91.848 Y92.471 E3.98975
G1 X92.164 Y91.969 E4.00948
G1 X92.511 Y91.551 E4.02755
G1 X93.413 Y90.591 E4.07136
G0 F3600 X93.705 Y90.865
G1 F1500 X94.12 Y90.481 E4.09016
G1 X94.455 Y90.24 E4.10389
G1 X95.434 Y89.61 E4.14261
G1 X96.131 Y89.253 E4.16866
G1 X96.919 Y88.942 E4.19683
G1 X97.572 Y88.747 E4.2195
G1 X98.514 Y88.551 E4.2515
G1 X99.223 Y88.468 E4.27524
G1 X100.052 Y88.446 E4.30283
G1 X100.717 Y88.484 E4.32498
G1 X101.638 Y88.614 E4.35592
G1 X102.246 Y88.749 E4.37663
G1 X102.859 Y88.936 E4.39795
G1 X103.558 Y89.224 E4.42309
G1 X104.694 Y89.823 E4.46581
G1 X105.174 Y90.121 E4.4846
G1 X105.399 Y90.297 E4.4941
G1 X106.089 Y90.876 E4.52406
G1 X106.644 Y91.444 E4.55047
G1 X107.416 Y92.411 E4.59163
G1 X107.737 Y92.877 E4.61045
G1 X107.926 Y93.24 E4.62406
G1 X108.427 Y94.333 E4.66405
G1 X108.626 Y94.863 E4.68288
G1 X108.715 Y95.224 E4.69525
G1 X108.958 Y96.452 E4.73688
G1 X109.028 Y97.012 E4.75565
G1 X109.031 Y97.384 E4.76802
G1 X108.988 Y98.483 E4.80461
G1 X108.872 Y99.294 E4.83185
G1 X108.614 Y100.33 E4.86736
G1 X108.387 Y100.99 E4.89058
G1 X108.095 Y101.646 E4.91446
G1 X107.777 Y102.226 E4.93646
G1 X107.253 Y103.018 E4.96805
G1 X106.869 Y103.51 E4.9888
G1 X106.421 Y104 E5.01089
G1 X105.91 Y104.47 E5.03398
G1 X104.987 Y105.181 E5.07273
G1 X104.516 Y105.493 E5.09152
G1 X104.246 Y105.633 E5.10164
G1 X103.298 Y106.078 E5.13647
G1 X102.77 Y106.281 E5.15528
G1 X102.378 Y106.38 E5.16873
G1 X100.965 Y106.661 E5.21665
G1 X100.404 Y106.732 E5.23545
G1 X99.82 Y106.721 E5.25488
G1 X98.301 Y106.582 E5.30561
G1 X97.744 Y106.491 E5.32439
G1 X97.408 Y106.396 E5.336
G1 X96.596 Y106.127 E5.36445
G1 X95.962 Y105.854 E5.38741
G1 X95.187 Y105.438 E5.41666
G1 X94.696 Y105.127 E5.436
G1 X94.185 Y104.748 E5.45716
G1 X93.644 Y104.264 E5.4813
G1 X92.792 Y103.351 E5.52283
G1 X92.436 Y102.912 E5.54163
G1 X92.265 Y102.644 E5.55221
G1 X91.761 Y101.784 E5.58536
G1 X91.499 Y101.249 E5.60517
G1 X91.298 Y100.747 E5.62316
G1 X91.121 Y100.193 E5.6425
G1 X90.897 Y99.259 E5.67445
G1 X90.792 Y98.527 E5.69904
G1 X90.743 Y97.555 E5.73141
G1 X90.761 Y96.924 E5.75241
G1 X90.826 Y96.323 E5.77252
G1 X90.95 Y95.679 E5.79433
G1 X91.236 Y94.653 E5.82975
G1 X91.426 Y94.12 E5.84857
G1 X91.571 Y93.824 E5.85954
G1 X92.2 Y92.661 E5.90351
G1 X92.503 Y92.184 E5.92231
G1 X92.803 Y91.825 E5.93787
G1 X93.705 Y90.865 E5.98168
G0 F3600 X93.996 Y91.139
G1 F1500 X94.392 Y90.777 E5.99953
G1 X94.672 Y90.577 E6.01097
G1 X95.651 Y89.947 E6.04969
G1 X96.277 Y89.625 E6.07311
G1 X97.065 Y89.314 E6.10128
G1 X97.654 Y89.138 E6.12173
G1 X98.596 Y88.942 E6.15373
G1 X99.233 Y88.868 E6.17506
G1 X100.062 Y88.846 E6.20264
G1 X100.661 Y88.88 E6.2226
G1 X101.582 Y89.01 E6.25353
G1 X102.129 Y89.132 E6.27217
G1 X102.742 Y89.319 E6.29349
G1 X103.371 Y89.578 E6.31612
G1 X104.507 Y90.177 E6.35883
G1 X105.142 Y90.603 E6.38426
G1 X105.832 Y91.182 E6.41422
G1 X106.331 Y91.694 E6.438
G1 X107.103 Y92.661 E6.47916
G1 X107.406 Y93.104 E6.49701
G1 X107.563 Y93.407 E6.50836
G1 X108.064 Y94.5 E6.54835
G1 X108.25 Y95.003 E6.56618
G1 X108.323 Y95.301 E6.57639
G1 X108.566 Y96.529 E6.61802
G1 X108.63 Y97.062 E6.63588
G1 X108.631 Y97.369 E6.64609
G1 X108.588 Y98.468 E6.68267
G1 X108.484 Y99.197 E6.70716
G1 X108.226 Y100.233 E6.74267
G1 X108.022 Y100.827 E6.76356
G1 X107.73 Y101.483 E6.78744
G1 X107.443 Y102.005 E6.80726
G1 X106.919 Y102.797 E6.83884
G1 X106.574 Y103.24 E6.85752
G1 X106.126 Y103.73 E6.8796
G1 X105.666 Y104.153 E6.90039
G1 X104.743 Y104.864 E6.93914
G1 X104.076 Y105.271 E6.96513
G1 X103.128 Y105.716 E6.99996
G1 X102.627 Y105.907 E7.01779
G1 X102.3 Y105.988 E7.029
G1 X100.887 Y106.269 E7.07691
G1 X100.355 Y106.334 E7.09474
G1 X99.857 Y106.323 E7.11131
G1 X98.338 Y106.184 E7.16204
G1 X97.809 Y106.096 E7.17988
G1 X97.534 Y106.016 E7.1894
G1 X96.722 Y105.747 E7.21785
G1 X96.151 Y105.502 E7.23852
G1 X95.376 Y105.086 E7.26777
G1 X94.934 Y104.806 E7.28518
G1 X94.423 Y104.427 E7.30634
G1 X93.936 Y103.991 E7.32808
G1 X93.084 Y103.078 E7.36961
G1 X92.61 Y102.442 E7.39599
G1 X92.106 Y101.582 E7.42915
G1 X91.87 Y101.1 E7.447
G1 X91.669 Y100.598 E7.46498
G1 X91.51 Y100.1 E7.48237
G1 X91.286 Y99.166 E7.51432
G1 X91.192 Y98.507 E7.53646
G1 X91.143 Y97.535 E7.56883
G1 X91.159 Y96.967 E7.58773
G1 X91.224 Y96.366 E7.60783
G1 X91.335 Y95.786 E7.62747
G1 X91.621 Y94.76 E7.6629
G1 X91.803 Y94.256 E7.68072
G1 X91.922 Y94.014 E7.68969
G1 X92.551 Y92.851 E7.73367
G1 X92.841 Y92.4 E7.7515
G1 X93.094 Y92.099 E7.76458
G1 X93.996 Y91.139 E7.80839
G0 F3600 X94.288 Y91.413
G1 F1500 X94.662 Y91.073 E7.8252
G1 X94.888 Y90.913 E7.83441
G1 X95.867 Y90.283 E7.87313
G1 X96.424 Y89.997 E7.89396
G1 X97.212 Y89.686 E7.92213
G1 X97.735 Y89.53 E7.94029
G1 X98.677 Y89.334 E7.97229
G1 X99.244 Y89.268 E7.99128
G1 X100.073 Y89.246 E8.01886
G1 X100.605 Y89.276 E8.03658
G1 X101.526 Y89.406 E8.06752
G1 X102.013 Y89.514 E8.08411
G1 X102.626 Y89.701 E8.10542
G1 X103.185 Y89.931 E8.12553
G1 X104.321 Y90.53 E8.16824
G1 X104.885 Y90.91 E8.19086
G1 X105.575 Y91.489 E8.22082
G1 X106.019 Y91.943 E8.24194
G1 X106.791 Y92.91 E8.2831
G1 X107.074 Y93.329 E8.29991
G1 X107.199 Y93.574 E8.30906
G1 X107.7 Y94.667 E8.34905
G1 X107.93 Y95.379 E8.37394
G1 X108.173 Y96.607 E8.41557
G1 X108.232 Y97.353 E8.44046
G1 X108.189 Y98.452 E8.47704
G1 X108.096 Y99.1 E8.49882
G1 X107.838 Y100.136 E8.53433
G1 X107.656 Y100.664 E8.5529
G1 X107.364 Y101.32 E8.57679
G1 X107.11 Y101.785 E8.59441
G1 X106.586 Y102.577 E8.62599
G1 X106.279 Y102.97 E8.64258
G1 X105.831 Y103.46 E8.66466
G1 X105.422 Y103.836 E8.68314
G1 X104.499 Y104.547 E8.72189
G1 X103.906 Y104.909 E8.745
G1 X102.958 Y105.354 E8.77983
G1 X102.485 Y105.532 E8.79664
G1 X102.222 Y105.596 E8.80564
G1 X100.809 Y105.877 E8.85356
G1 X100.307 Y105.936 E8.87037
G1 X99.893 Y105.925 E8.88415
G1 X98.374 Y105.786 E8.93488
G1 X97.66 Y105.637 E8.95914
G1 X96.848 Y105.368 E8.98759
G1 X96.341 Y105.149 E9.00596
G1 X95.566 Y104.733 E9.03521
G1 X95.173 Y104.484 E9.05069
G1 X94.662 Y104.105 E9.07185
G1 X94.228 Y103.718 E9.09119
G1 X93.376 Y102.805 E9.13272
G1 X92.955 Y102.24 E9.15616
G1 X92.451 Y101.38 E9.18931
G1 X92.241 Y100.951 E9.2052
G1 X92.04 Y100.449 E9.22318
G1 X91.899 Y100.006 E9.23865
G1 X91.675 Y99.072 E9.27059
G1 X91.591 Y98.487 E9.29025
G1 X91.542 Y97.515 E9.32262
G1 X91.557 Y97.01 E9.33942
G1 X91.622 Y96.409 E9.35953
G1 X91.721 Y95.894 E9.37697
G1 X92.007 Y94.868 E9.4124
G1 X92.274 Y94.205 E9.43617
G1 X92.903 Y93.042 E9.48015
G1 X93.178 Y92.617 E9.49698
G1 X93.386 Y92.373 E9.50765
G1 X94.288 Y91.413 E9.55146
G1 F2400 E7.05146
;MESH:ROCKET_BODY.stl
G0 F3600 X96.978 Y92.553
G0 X97.631 Y93.648
G0 X98.815 Y93.257
G0 X98.791 Y93.161
;TYPE:WALL-INNER
G1 F2400 E9.55146
G1 F1500 X98.979 Y93.118 E9.55787
G1 X99.196 Y93.079 E9.56521
G1 X99.369 Y93.056 E9.57101
G1 X99.733 Y93.03 E9.58315
G1 X100.148 Y93.034 E9.59695
G1 X100.335 Y93.047 E9.60319
G1 X100.538 Y93.072 E9.60999
G1 X100.947 Y93.151 E9.62385
G1 X101.295 Y93.249 E9.63587
G1 X101.696 Y93.399 E9.65011
G1 X101.868 Y93.478 E9.6564
G1 X102.252 Y93.686 E9.67093
G1 X102.587 Y93.908 E9.6843
G1 X102.776 Y94.055 E9.69226
G1 X103.082 Y94.329 E9.70592
G1 X103.37 Y94.639 E9.72
G1 X103.607 Y94.944 E9.73284
G1 X103.829 Y95.286 E9.7464
G1 X103.93 Y95.466 E9.75327
G1 X104.024 Y95.654 E9.76026
G1 X104.109 Y95.847 E9.76727
G1 X104.184 Y96.042 E9.77422
G1 X104.258 Y96.265 E9.78204
G1 X104.36 Y96.66 E9.79561
G1 X104.392 Y96.835 E9.80152
G1 X104.439 Y97.214 E9.81423
G1 X104.451 Y97.404 E9.82056
G1 X104.449 Y97.813 E9.83416
G1 X104.436 Y98.012 E9.84079
G1 X104.379 Y98.42 E9.8545
G1 X104.306 Y98.745 E9.86557
G1 X104.173 Y99.171 E9.88042
G1 X104.101 Y99.354 E9.88696
G1 X103.924 Y99.732 E9.90084
G1 X103.707 Y100.096 E9.91494
G1 X103.586 Y100.271 E9.92201
G1 X103.317 Y100.607 E9.93633
G1 X103.065 Y100.87 E9.94844
G1 X102.921 Y101.006 E9.95503
G1 X102.597 Y101.269 E9.96891
G1 X102.255 Y101.498 E9.9826
G1 X102.082 Y101.598 E9.98925
G1 X101.778 Y101.747 E10.00051
G1 X101.404 Y101.9 E10.01395
G1 X101.02 Y102.017 E10.0273
G1 X100.824 Y102.062 E10.03399
G1 X100.633 Y102.097 E10.04044
G1 X100.288 Y102.141 E10.05201
G1 X99.918 Y102.159 E10.06433
G1 X99.585 Y102.146 E10.07542
G1 X99.404 Y102.131 E10.08146
G1 X98.987 Y102.068 E10.09548
G1 X98.618 Y101.978 E10.10812
G1 X98.288 Y101.867 E10.1197
G1 X98.114 Y101.798 E10.12592
G1 X97.734 Y101.617 E10.13992
G1 X97.387 Y101.412 E10.15333
G1 X97.105 Y101.209 E10.16488
G1 X96.779 Y100.936 E10.17903
G1 X96.654 Y100.815 E10.18481
G1 X96.366 Y100.497 E10.19908
G1 X96.251 Y100.352 E10.20524
G1 X96.008 Y99.993 E10.21966
G1 X95.829 Y99.68 E10.23165
G1 X95.752 Y99.524 E10.23744
G1 X95.592 Y99.141 E10.25124
G1 X95.531 Y98.958 E10.25766
G1 X95.447 Y98.641 E10.26856
G1 X95.403 Y98.436 E10.27554
G1 X95.37 Y98.237 E10.28225
G1 X95.33 Y97.845 E10.29535
G1 X95.324 Y97.652 E10.30178
G1 X95.328 Y97.384 E10.31069
G1 X95.34 Y97.2 E10.31682
G1 X95.388 Y96.834 E10.3291
G1 X95.421 Y96.656 E10.33512
G1 X95.535 Y96.221 E10.35008
G1 X95.594 Y96.042 E10.35635
G1 X95.756 Y95.649 E10.37048
G1 X95.951 Y95.283 E10.38428
G1 X96.073 Y95.087 E10.39196
G1 X96.178 Y94.934 E10.39813
G1 X96.314 Y94.754 E10.40563
G1 X96.561 Y94.467 E10.41823
G1 X96.69 Y94.336 E10.42434
G1 X97 Y94.058 E10.43819
G1 X97.307 Y93.828 E10.45095
G1 X97.621 Y93.631 E10.46328
G1 X97.802 Y93.532 E10.47014
G1 X97.996 Y93.438 E10.47731
G1 X98.187 Y93.356 E10.48422
G1 X98.367 Y93.288 E10.49062
G1 X98.571 Y93.222 E10.49775
G1 X98.791 Y93.161 E10.50535
G0 F3600 X98.815 Y93.257
G0 X103.242 Y100.542
G0 X103.623 Y100.865
;TYPE:WALL-OUTER
G1 F1500 X103.346 Y101.155 E10.51869
G1 X103.179 Y101.312 E10.52631
G1 X103.013 Y101.452 E10.53353
G1 X102.83 Y101.594 E10.54124
G1 X102.464 Y101.839 E10.55589
G1 X102.269 Y101.952 E10.56338
G1 X101.942 Y102.113 E10.5755
G1 X101.732 Y102.203 E10.5831
G1 X101.536 Y102.277 E10.59007
G1 X101.119 Y102.405 E10.60458
G1 X100.906 Y102.453 E10.61184
G1 X100.684 Y102.494 E10.61935
G1 X100.333 Y102.539 E10.63112
G1 X100.127 Y102.553 E10.63799
G1 X99.914 Y102.559 E10.64507
G1 X99.557 Y102.546 E10.65696
G1 X99.358 Y102.529 E10.6636
G1 X98.919 Y102.463 E10.67836
G1 X98.504 Y102.361 E10.69258
G1 X98.146 Y102.241 E10.70514
G1 X97.956 Y102.166 E10.71193
G1 X97.545 Y101.97 E10.72708
G1 X97.169 Y101.747 E10.74162
G1 X96.855 Y101.522 E10.75446
G1 X96.691 Y101.39 E10.76147
G1 X96.516 Y101.237 E10.7692
G1 X96.362 Y101.089 E10.7763
G1 X96.062 Y100.757 E10.79118
G1 X95.924 Y100.584 E10.79854
G1 X95.672 Y100.21 E10.81354
G1 X95.482 Y99.879 E10.82624
G1 X95.385 Y99.683 E10.83351
G1 X95.22 Y99.287 E10.84778
G1 X95.148 Y99.071 E10.85535
G1 X95.056 Y98.727 E10.8672
G1 X95.009 Y98.507 E10.87468
G1 X94.975 Y98.303 E10.88156
G1 X94.948 Y98.081 E10.88899
G1 X94.931 Y97.878 E10.89577
G1 X94.924 Y97.665 E10.90286
G1 X94.928 Y97.378 E10.91241
G1 X94.943 Y97.148 E10.92007
G1 X94.991 Y96.782 E10.93235
G1 X95.031 Y96.566 E10.93966
G1 X95.15 Y96.11 E10.95533
G1 X95.221 Y95.898 E10.96277
G1 X95.391 Y95.485 E10.97762
G1 X95.494 Y95.281 E10.98522
G1 X95.611 Y95.072 E10.99319
G1 X95.733 Y94.876 E11.00087
G1 X95.859 Y94.693 E11.00826
G1 X96.004 Y94.501 E11.01626
G1 X96.263 Y94.201 E11.02944
