;FLAVOR:Marlin
;TIME:1366
;Filament used: 1.06731m
;Layer height: 0.2
;Generated with Cura_SteamEngine 3.6.0
M140 S60
M105
M190 S60
M104 S200
M105
M109 S200
M82 ;absolute extrusion mode
G21 ;metric values
G90 ;absolute positioning
M82 ;set extruder to absolute mode
M107 ;start with the fan off
G28 X0 Y0 ;move X/Y to min endstops
G28 Z0 ;move Z to min endstops
G1 Z15.0 F120 ;move the platform down 15mm
G92 E0 ;zero the extruded length
G1 F200 E6 ;extrude 6 mm of feed stock
G92 E0 ;zero the extruded length again
M117 Printing...
G1 F120
G92 E0
G1 F2400 E-2.5
;LAYER_COUNT:246
;LAYER:0
M107
G0 F3600 X90.228 Y88.948 Z0.3
;TYPE:SKIRT
G1 F2400 E0
G1 F1800 X91.028 Y88.13 E0.05708
G1 X91.608 Y87.594 E0.09648
G1 X92.349 Y87.047 E0.14243
G1 X93.3 Y86.428 E0.19904
G1 X93.983 Y86.031 E0.23846
G1 X94.507 Y85.785 E0.26734
G1 X95.143 Y85.515 E0.30181
G1 X95.885 Y85.244 E0.34122
G1 X96.287 Y85.131 E0.36205
G1 X97.165 Y84.91 E0.40722
G1 X97.94 Y84.756 E0.44664
G1 X98.668 Y84.684 E0.48314
G1 X99.776 Y84.627 E0.53849
G1 X100.566 Y84.627 E0.5779
G1 X101.63 Y84.753 E0.63136
G1 X102.97 Y85.007 E0.6994
G1 X103.737 Y85.194 E0.73879
G1 X104.458 Y85.447 E0.77691
G1 X105.099 Y85.708 E0.81144
G1 X105.815 Y86.042 E0.85086
G1 X106.495 Y86.449 E0.89039
G1 X107.661 Y87.229 E0.96038
G1 X108.294 Y87.701 E0.99977
G1 X108.877 Y88.234 E1.03918
G1 X109.253 Y88.644 E1.06694
G1 X110.188 Y89.738 E1.13874
G1 X110.67 Y90.364 E1.17815
G1 X111.181 Y91.211 E1.2275
G1 X111.609 Y92.035 E1.27383
G1 X111.937 Y92.753 E1.31321
G1 X112.137 Y93.318 E1.34311
G1 X112.407 Y94.188 E1.38856
G1 X112.602 Y94.953 E1.42795
G1 X112.697 Y95.536 E1.45742
G1 X112.809 Y96.435 E1.50261
G1 X112.867 Y97.222 E1.54198
G1 X112.835 Y98.127 E1.58716
G1 X112.71 Y99.461 E1.65401
G1 X112.597 Y100.242 E1.69338
G1 X112.405 Y101.008 E1.73278
G1 X112.264 Y101.428 E1.75488
G1 X111.789 Y102.718 E1.82346
G1 X111.479 Y103.444 E1.86285
G1 X110.992 Y104.299 E1.91194
G1 X110.48 Y105.08 E1.95853
G1 X110.014 Y105.718 E1.99794
G1 X109.373 Y106.417 E2.04526
G1 X108.372 Y107.383 E2.11466
G1 X107.777 Y107.902 E2.15405
G1 X106.864 Y108.521 E2.20908
G1 X105.9 Y109.079 E2.26465
G1 X105.197 Y109.439 E2.30406
G1 X104.567 Y109.691 E2.33791
G1 X103.752 Y109.976 E2.38099
G1 X102.994 Y110.198 E2.42039
G1 X102.483 Y110.303 E2.44642
G1 X101.641 Y110.446 E2.48903
G1 X100.857 Y110.539 E2.52841
G1 X100.373 Y110.556 E2.55258
G1 X99.546 Y110.56 E2.59384
G1 X98.757 Y110.524 E2.63324
G1 X98.156 Y110.442 E2.6635
G1 X97.116 Y110.259 E2.71618
G1 X96.346 Y110.083 E2.75559
G1 X95.549 Y109.81 E2.79762
G1 X94.528 Y109.398 E2.85255
G1 X93.812 Y109.066 E2.89192
G1 X93.037 Y108.599 E2.93707
G1 X92.112 Y107.965 E2.99301
G1 X91.484 Y107.486 E3.03242
G1 X90.976 Y107.016 E3.06695
G1 X90.351 Y106.384 E3.11129
G1 X89.825 Y105.795 E3.15069
G1 X89.469 Y105.317 E3.18042
G1 X88.957 Y104.572 E3.22552
G1 X88.543 Y103.899 E3.26494
G1 X88.316 Y103.452 E3.28996
G1 X87.947 Y102.661 E3.3335
G1 X87.65 Y101.929 E3.37291
G1 X87.445 Y101.238 E3.40887
G1 X87.186 Y100.192 E3.46263
G1 X87.035 Y99.417 E3.50202
G1 X86.967 Y98.707 E3.53761
G1 X86.92 Y97.768 E3.58451
G1 X86.92 Y96.978 E3.62393
G1 X86.975 Y96.372 E3.65429
G1 X87.092 Y95.472 E3.69956
G1 X87.233 Y94.696 E3.73891
G1 X87.437 Y93.983 E3.77591
G1 X87.803 Y92.899 E3.83299
G1 X88.093 Y92.164 E3.87241
G1 X88.552 Y91.303 E3.92109
G1 X89.163 Y90.311 E3.97922
G1 X89.61 Y89.661 E4.01857
G1 X90.228 Y88.948 E4.06565
G0 F3600 X90.514 Y89.228
G1 F1800 X91.314 Y88.41 E4.12273
G1 X91.879 Y87.889 E4.16107
G1 X92.567 Y87.382 E4.20371
G1 X93.518 Y86.763 E4.26032
G1 X94.184 Y86.378 E4.2987
G1 X94.663 Y86.153 E4.3251
G1 X95.299 Y85.883 E4.35957
G1 X96.385 Y85.519 E4.41672
G1 X97.263 Y85.298 E4.46189
G1 X98.017 Y85.149 E4.50023
G1 X98.689 Y85.084 E4.53391
G1 X99.797 Y85.027 E4.58927
G1 X100.566 Y85.027 E4.62763
G1 X101.555 Y85.146 E4.67733
G1 X102.895 Y85.4 E4.74537
G1 X103.642 Y85.583 E4.78374
G1 X104.308 Y85.817 E4.81896
G1 X104.949 Y86.078 E4.85349
G1 X105.645 Y86.405 E4.89185
G1 X106.273 Y86.781 E4.92837
G1 X107.439 Y87.561 E4.99836
G1 X108.055 Y88.022 E5.03675
G1 X108.62 Y88.543 E5.07509
G1 X108.949 Y88.904 E5.09946
G1 X109.884 Y89.998 E5.17125
G1 X110.353 Y90.608 E5.20964
G1 X110.826 Y91.395 E5.25545
G1 X111.254 Y92.219 E5.30178
G1 X111.573 Y92.919 E5.34015
G1 X111.754 Y93.437 E5.36753
G1 X112.024 Y94.307 E5.41298
G1 X112.214 Y95.052 E5.45133
G1 X112.3 Y95.585 E5.47827
G1 X112.412 Y96.484 E5.52347
G1 X112.468 Y97.251 E5.56184
G1 X112.437 Y98.089 E5.60367
G1 X112.312 Y99.423 E5.67052
G1 X112.2 Y100.184 E5.70889
G1 X111.888 Y101.29 E5.76622
G1 X111.413 Y102.58 E5.83481
G1 X111.11 Y103.287 E5.87318
G1 X110.658 Y104.08 E5.91872
G1 X110.146 Y104.861 E5.96531
G1 X109.691 Y105.482 E6.00372
G1 X109.096 Y106.129 E6.04757
G1 X108.095 Y107.095 E6.11698
G1 X107.514 Y107.599 E6.15535
G1 X106.663 Y108.174 E6.20659
G1 X105.699 Y108.732 E6.26216
G1 X105.014 Y109.083 E6.30056
G1 X104.435 Y109.313 E6.33164
G1 X103.62 Y109.598 E6.37471
G1 X102.881 Y109.814 E6.41313
G1 X102.416 Y109.909 E6.4368
G1 X101.574 Y110.052 E6.47941
G1 X100.81 Y110.141 E6.51779
G1 X100.371 Y110.156 E6.5397
G1 X99.544 Y110.16 E6.58096
G1 X98.775 Y110.124 E6.61937
G1 X98.226 Y110.048 E6.64702
G1 X97.186 Y109.865 E6.6997
G1 X96.436 Y109.693 E6.73809
G1 X95.699 Y109.439 E6.77698
G1 X94.678 Y109.027 E6.83191
G1 X93.981 Y108.703 E6.87026
G1 X93.263 Y108.269 E6.91212
G1 X92.338 Y107.635 E6.96806
G1 X91.727 Y107.168 E7.00643
G1 X91.26 Y106.734 E7.03824
G1 X90.635 Y106.102 E7.08258
G1 X90.124 Y105.528 E7.12092
G1 X89.798 Y105.09 E7.14816
G1 X89.286 Y104.345 E7.19326
G1 X88.884 Y103.69 E7.2316
G1 X88.679 Y103.282 E7.25438
G1 X88.31 Y102.491 E7.29793
G1 X88.021 Y101.778 E7.33631
G1 X87.833 Y101.142 E7.3694
G1 X87.574 Y100.096 E7.42316
G1 X87.428 Y99.34 E7.46158
G1 X87.366 Y98.687 E7.4943
G1 X87.319 Y97.748 E7.54121
G1 X87.321 Y96.979 E7.57957
G1 X87.372 Y96.424 E7.60738
G1 X87.489 Y95.524 E7.65266
G1 X87.627 Y94.767 E7.69105
G1 X87.816 Y94.111 E7.7251
G1 X88.182 Y93.027 E7.78219
G1 X88.465 Y92.312 E7.82055
G1 X88.892 Y91.513 E7.86575
G1 X89.503 Y90.521 E7.92387
G1 X89.94 Y89.888 E7.96225
G1 X90.514 Y89.228 E8.00589
G0 F3600 X90.799 Y89.508
G1 F1800 X91.599 Y88.69 E8.06297
G1 X92.15 Y88.184 E8.10029
G1 X92.785 Y87.717 E8.13962
G1 X93.736 Y87.098 E8.19623
G1 X94.384 Y86.724 E8.23355
G1 X94.82 Y86.522 E8.25753
G1 X95.456 Y86.252 E8.292
G1 X96.482 Y85.907 E8.346
G1 X97.36 Y85.686 E8.39117
G1 X98.094 Y85.542 E8.42849
G1 X98.709 Y85.483 E8.45931
G1 X99.817 Y85.426 E8.51466
G1 X100.565 Y85.428 E8.55198
G1 X101.481 Y85.539 E8.59802
G1 X102.821 Y85.793 E8.66606
G1 X103.547 Y85.972 E8.70336
G1 X104.157 Y86.188 E8.73565
G1 X104.798 Y86.449 E8.77018
G1 X105.475 Y86.768 E8.80752
G1 X106.05 Y87.114 E8.841
G1 X107.216 Y87.894 E8.91098
G1 X107.815 Y88.342 E8.9483
G1 X108.362 Y88.852 E8.98561
G1 X108.645 Y89.164 E9.00663
G1 X109.58 Y90.258 E9.07843
G1 X110.035 Y90.852 E9.11576
G1 X110.471 Y91.579 E9.15805
G1 X110.899 Y92.403 E9.20437
G1 X111.208 Y93.085 E9.24173
G1 X111.372 Y93.555 E9.26656
G1 X111.642 Y94.425 E9.31201
G1 X111.826 Y95.15 E9.34933
G1 X111.903 Y95.635 E9.37383
G1 X112.015 Y96.534 E9.41902
G1 X112.068 Y97.28 E9.45634
G1 X112.038 Y98.052 E9.49488
G1 X111.913 Y99.386 E9.56172
G1 X111.804 Y100.126 E9.59904
G1 X111.513 Y101.152 E9.65225
G1 X111.038 Y102.442 E9.72083
G1 X110.742 Y103.129 E9.75815
G1 X110.323 Y103.861 E9.80023
G1 X109.811 Y104.642 E9.84682
G1 X109.368 Y105.245 E9.88415
G1 X108.818 Y105.841 E9.92461
G1 X107.817 Y106.807 E9.99401
G1 X107.252 Y107.297 E10.03133
G1 X106.463 Y107.828 E10.07877
G1 X105.499 Y108.386 E10.13434
G1 X104.832 Y108.726 E10.17169
G1 X104.303 Y108.936 E10.20009
G1 X103.488 Y109.221 E10.24317
G1 X102.769 Y109.429 E10.28051
G1 X102.349 Y109.514 E10.30189
G1 X101.507 Y109.657 E10.34449
G1 X100.764 Y109.743 E10.38181
G1 X100.369 Y109.756 E10.40153
G1 X99.542 Y109.76 E10.44279
G1 X98.795 Y109.724 E10.4801
G1 X98.295 Y109.654 E10.50529
G1 X97.255 Y109.471 E10.55797
G1 X96.526 Y109.302 E10.5953
G1 X95.849 Y109.068 E10.63104
G1 X94.828 Y108.656 E10.68597
G1 X94.15 Y108.34 E10.72329
G1 X93.49 Y107.939 E10.76182
G1 X92.565 Y107.305 E10.81777
G1 X91.971 Y106.85 E10.8551
G1 X91.545 Y106.453 E10.88415
G1 X90.92 Y105.821 E10.92849
G1 X90.423 Y105.262 E10.96581
G1 X90.128 Y104.864 E10.99052
G1 X89.616 Y104.119 E11.03562
G1 X89.226 Y103.48 E11.07297
G1 X89.041 Y103.113 E11.09348
G1 X88.672 Y102.322 E11.13702
G1 X88.393 Y101.628 E11.17434
G1 X88.221 Y101.045 E11.20467
G1 X87.962 Y99.999 E11.25843
G1 X87.821 Y99.265 E11.29572
G1 X87.766 Y98.667 E11.32568
G1 X87.719 Y97.728 E11.37258
G1 X87.721 Y96.98 E11.4099
G1 X87.768 Y96.476 E11.43515
G1 X87.885 Y95.576 E11.48043
G1 X88.021 Y94.84 E11.51777
G1 X88.195 Y94.239 E11.54899
G1 X88.561 Y93.155 E11.60607
G1 X88.838 Y92.46 E11.64339
G1 X89.233 Y91.723 E11.68511
G1 X89.844 Y90.731 E11.74324
G1 X90.27 Y90.116 E11.78056
G1 X90.799 Y89.508 E11.82077
G0 F3600 X91.085 Y89.787
G1 F1800 X91.885 Y88.969 E11.87785
G1 X92.421 Y88.479 E11.91408
G1 X93.004 Y88.053 E11.95011
G1 X93.955 Y87.434 E12.00672
G1 X94.584 Y87.071 E12.04295
G1 X94.976 Y86.89 E12.06449
G1 X95.612 Y86.62 E12.09896
G1 X96.58 Y86.295 E12.1499
G1 X97.458 Y86.074 E12.19507
G1 X98.171 Y85.935 E12.23132
G1 X98.73 Y85.883 E12.25933
G1 X99.838 Y85.826 E12.31468
G1 X100.564 Y85.828 E12.3509
G1 X101.406 Y85.932 E12.39322
G1 X102.746 Y86.186 E12.46127
G1 X103.451 Y86.361 E12.49751
G1 X104.006 Y86.558 E12.52689
G1 X104.647 Y86.819 E12.56142
G1 X105.304 Y87.13 E12.59768
G1 X105.828 Y87.446 E12.62821
G1 X106.994 Y88.226 E12.6982
G1 X107.574 Y88.663 E12.73443
G1 X108.341 Y89.424 E12.78833
G1 X109.276 Y90.518 E12.86013
G1 X109.717 Y91.095 E12.89636
G1 X110.116 Y91.764 E12.93523
G1 X110.544 Y92.588 E12.98155
G1 X110.843 Y93.25 E13.01779
G1 X110.99 Y93.674 E13.04018
G1 X111.26 Y94.544 E13.08562
G1 X111.437 Y95.248 E13.12184
G1 X111.506 Y95.684 E13.14386
G1 X111.618 Y96.583 E13.18906
G1 X111.668 Y97.308 E13.22532
G1 X111.64 Y98.015 E13.26062
G1 X111.515 Y99.349 E13.32746
G1 X111.408 Y100.067 E13.36368
G1 X111.137 Y101.014 E13.41282
G1 X110.662 Y102.304 E13.4814
G1 X110.374 Y102.97 E13.51761
G1 X109.989 Y103.642 E13.55624
G1 X109.477 Y104.423 E13.60283
G1 X109.046 Y105.007 E13.63905
G1 X108.54 Y105.553 E13.67618
G1 X107.539 Y106.519 E13.74559
G1 X106.99 Y106.994 E13.78181
G1 X106.262 Y107.482 E13.82553
G1 X105.298 Y108.04 E13.8811
G1 X104.651 Y108.369 E13.91731
G1 X104.171 Y108.558 E13.94305
G1 X103.356 Y108.843 E13.98613
G1 X102.658 Y109.045 E14.02238
G1 X102.282 Y109.12 E14.04151
G1 X101.44 Y109.263 E14.08412
G1 X100.367 Y109.356 E14.13785
G1 X99.54 Y109.36 E14.17911
G1 X98.814 Y109.323 E14.21537
G1 X98.364 Y109.26 E14.23804
G1 X97.324 Y109.077 E14.29073
G1 X96.617 Y108.912 E14.32695
G1 X95.998 Y108.697 E14.35964
G1 X94.977 Y108.285 E14.41457
G1 X94.32 Y107.977 E14.45077
G1 X93.716 Y107.609 E14.48606
G1 X92.791 Y106.975 E14.542
G1 X92.215 Y106.532 E14.57826
G1 X91.829 Y106.172 E14.60459
G1 X91.204 Y105.54 E14.64893
G1 X90.723 Y104.996 E14.68516
G1 X90.458 Y104.637 E14.70742
G1 X89.946 Y103.892 E14.75252
G1 X89.568 Y103.272 E14.78875
G1 X89.404 Y102.944 E14.80705
G1 X89.035 Y102.153 E14.85059
G1 X88.764 Y101.479 E14.88683
G1 X88.609 Y100.949 E14.91438
G1 X88.35 Y99.903 E14.96814
G1 X88.215 Y99.19 E15.00435
G1 X88.165 Y98.647 E15.03155
G1 X88.118 Y97.708 E15.07846
G1 X88.122 Y96.982 E15.11468
G1 X88.165 Y96.527 E15.13748
G1 X88.282 Y95.627 E15.18276
G1 X88.415 Y94.913 E15.21899
G1 X88.574 Y94.367 E15.24737
G1 X88.94 Y93.283 E15.30445
G1 X89.21 Y92.608 E15.34072
G1 X89.573 Y91.933 E15.37895
G1 X90.184 Y90.941 E15.43708
G1 X90.599 Y90.344 E15.47335
G1 X91.085 Y89.787 E15.51023
G0 F3600 X91.371 Y90.067
G1 F1800 X92.171 Y89.249 E15.56731
G1 X92.691 Y88.774 E15.60245
G1 X93.222 Y88.388 E15.6352
G1 X94.173 Y87.769 E15.69181
G1 X94.784 Y87.419 E15.72694
G1 X95.132 Y87.258 E15.74607
G1 X95.768 Y86.988 E15.78055
G1 X96.678 Y86.683 E15.82843
G1 X97.556 Y86.462 E15.8736
G1 X98.247 Y86.329 E15.9087
G1 X98.75 Y86.282 E15.93391
G1 X99.858 Y86.225 E15.98926
G1 X100.562 Y86.229 E16.02438
G1 X101.332 Y86.325 E16.0631
G1 X102.672 Y86.579 E16.13114
G1 X103.355 Y86.75 E16.16627
G1 X103.855 Y86.929 E16.19276
G1 X104.496 Y87.19 E16.22729
G1 X105.132 Y87.492 E16.26242
G1 X105.605 Y87.779 E16.29002
G1 X106.771 Y88.559 E16.36001
G1 X107.333 Y88.983 E16.39513
G1 X108.037 Y89.684 E16.44469
G1 X108.972 Y90.778 E16.51649
G1 X109.398 Y91.338 E16.5516
G1 X109.761 Y91.948 E16.58701
G1 X110.189 Y92.772 E16.63333
G1 X110.478 Y93.414 E16.66846
G1 X110.608 Y93.792 E16.6884
G1 X110.878 Y94.662 E16.73385
G1 X111.049 Y95.345 E16.76898
G1 X111.109 Y95.734 E16.78861
G1 X111.221 Y96.633 E16.83381
G1 X111.269 Y97.335 E16.86891
G1 X111.242 Y97.977 E16.90097
G1 X111.117 Y99.311 E16.96782
G1 X111.012 Y100.007 E17.00293
G1 X110.762 Y100.875 E17.048
G1 X110.287 Y102.165 E17.11658
G1 X110.007 Y102.811 E17.15171
G1 X109.654 Y103.422 E17.18691
G1 X109.142 Y104.203 E17.2335
G1 X108.723 Y104.769 E17.26864
G1 X108.262 Y105.265 E17.30242
G1 X107.261 Y106.231 E17.37182
G1 X106.728 Y106.691 E17.40695
G1 X106.062 Y107.136 E17.44691
G1 X105.098 Y107.694 E17.50248
G1 X104.47 Y108.011 E17.53758
G1 X104.039 Y108.18 E17.56067
G1 X103.224 Y108.465 E17.60375
G1 X102.215 Y108.725 E17.65573
G1 X101.373 Y108.868 E17.69834
G1 X100.365 Y108.956 E17.74882
G1 X99.538 Y108.96 E17.79008
G1 X98.835 Y108.923 E17.8252
G1 X98.434 Y108.866 E17.84541
G1 X97.394 Y108.683 E17.89809
G1 X96.708 Y108.522 E17.93325
G1 X96.148 Y108.327 E17.96283
G1 X95.127 Y107.915 E18.01776
G1 X94.49 Y107.614 E18.05291
G1 X93.942 Y107.279 E18.08495
G1 X93.017 Y106.645 E18.1409
G1 X92.46 Y106.215 E18.17601
G1 X92.114 Y105.891 E18.19965
G1 X91.489 Y105.259 E18.244
G1 X91.023 Y104.731 E18.27913
G1 X90.787 Y104.411 E18.29897
G1 X90.275 Y103.666 E18.34407
G1 X89.766 Y102.775 E18.39526
G1 X89.397 Y101.984 E18.43881
G1 X89.136 Y101.33 E18.47394
G1 X88.998 Y100.853 E18.49871
G1 X88.739 Y99.807 E18.55248
G1 X88.609 Y99.115 E18.5876
G1 X88.565 Y98.627 E18.61205
G1 X88.518 Y97.688 E18.65895
G1 X88.523 Y96.984 E18.69408
G1 X88.562 Y96.579 E18.71438
G1 X88.679 Y95.679 E18.75966
G1 X88.809 Y94.987 E18.79478
G1 X88.953 Y94.495 E18.82036
G1 X89.319 Y93.411 E18.87744
G1 X89.582 Y92.758 E18.91256
G1 X89.914 Y92.143 E18.94743
G1 X90.525 Y91.151 E19.00555
G1 X90.928 Y90.573 E19.04071
G1 X91.371 Y90.067 E19.07426
G0 F3600 X91.657 Y90.347
G1 F1800 X92.457 Y89.529 E19.13134
G1 X92.961 Y89.071 E19.16532
G1 X93.44 Y88.723 E19.19486
G1 X94.391 Y88.104 E19.25147
G1 X95.289 Y87.626 E19.30222
G1 X95.925 Y87.356 E19.33669
G1 X96.775 Y87.07 E19.38144
G1 X97.653 Y86.849 E19.42661
G1 X98.322 Y86.722 E19.46058
G1 X98.771 Y86.682 E19.48307
G1 X99.879 Y86.625 E19.53842
G1 X100.56 Y86.63 E19.57239
G1 X101.257 Y86.718 E19.60744
G1 X102.597 Y86.972 E19.67549
G1 X103.258 Y87.138 E19.70949
G1 X103.704 Y87.299 E19.73315
G1 X104.345 Y87.56 E19.76767
G1 X104.96 Y87.854 E19.80168
G1 X105.383 Y88.111 E19.82638
G1 X106.549 Y88.891 E19.89636
G1 X107.092 Y89.302 E19.93034
G1 X107.733 Y89.944 E19.9756
G1 X108.668 Y91.038 E20.0474
G1 X109.079 Y91.58 E20.08133
G1 X109.406 Y92.133 E20.11339
G1 X109.834 Y92.957 E20.15971
G1 X110.112 Y93.578 E20.19366
G1 X110.226 Y93.911 E20.21122
G1 X110.496 Y94.781 E20.25666
G1 X110.66 Y95.442 E20.29064
G1 X110.713 Y95.783 E20.30786
G1 X110.825 Y96.682 E20.35305
G1 X110.869 Y97.361 E20.387
G1 X110.844 Y97.94 E20.41591
G1 X110.719 Y99.274 E20.48276
G1 X110.615 Y99.947 E20.51673
G1 X110.387 Y100.737 E20.55776
G1 X109.912 Y102.027 E20.62634
G1 X109.639 Y102.651 E20.66032
G1 X109.32 Y103.203 E20.69213
G1 X108.808 Y103.984 E20.73872
G1 X108.402 Y104.53 E20.77266
G1 X107.985 Y104.978 E20.8032
G1 X106.984 Y105.944 E20.8726
G1 X106.467 Y106.387 E20.90657
G1 X105.862 Y106.79 E20.94283
G1 X104.898 Y107.348 E20.9984
G1 X104.289 Y107.654 E21.03241
G1 X103.907 Y107.803 E21.05286
G1 X103.092 Y108.088 E21.09594
G1 X102.148 Y108.331 E21.14457
G1 X101.306 Y108.474 E21.18718
G1 X100.363 Y108.556 E21.2344
G1 X99.536 Y108.56 E21.27566
G1 X98.856 Y108.523 E21.30964
G1 X98.503 Y108.472 E21.32743
G1 X97.463 Y108.289 E21.38011
G1 X96.8 Y108.132 E21.41411
G1 X96.298 Y107.956 E21.44065
