;FLAVOR:Marlin
;TIME:976
;Filament used: 0.966086m
;Layer height: 0.2
;Generated with Cura_SteamEngine 3.6.0
M140 S60
M105
M190 S60
M104 S200
M105
M109 S200
M82 ;absolute extrusion mode
G21 ;metric values
G90 ;absolute positioning
M82 ;set extruder to absolute mode
M107 ;start with the fan off
G28 X0 Y0 ;move X/Y to min endstops
G28 Z0 ;move Z to min endstops
G1 Z15.0 F120 ;move the platform down 15mm
G92 E0 ;zero the extruded length
G1 F200 E6 ;extrude 6 mm of feed stock
G92 E0 ;zero the extruded length again
M117 Printing...
G1 F120
G92 E0
G1 F2400 E-2.5
;LAYER_COUNT:246
;LAYER:0
M107
G0 F3600 X91.334 Y92.89 Z0.2
;TYPE:SKIRT
G1 F2400 E0
G1 F1500 X91.918 Y92.359 E0.02625
G1 X92.375 Y92.012 E0.04534
G1 X92.945 Y91.611 E0.06852
G1 X93.613 Y91.189 E0.0948
G1 X94.106 Y90.935 E0.11324
G1 X95.075 Y90.478 E0.14888
G1 X95.805 Y90.178 E0.17513
G1 X96.476 Y89.975 E0.19844
G1 X97.355 Y89.751 E0.22861
G1 X98.129 Y89.595 E0.25487
G1 X98.914 Y89.518 E0.28111
G1 X100.081 Y89.463 E0.31997
G1 X100.87 Y89.465 E0.34621
G1 X101.796 Y89.571 E0.37721
G1 X102.902 Y89.765 E0.41456
G1 X103.672 Y89.941 E0.44083
G1 X104.492 Y90.223 E0.46967
G1 X105.483 Y90.626 E0.50525
G1 X106.199 Y90.96 E0.53153
G1 X106.93 Y91.4 E0.55991
G1 X107.826 Y92.009 E0.59594
G1 X108.455 Y92.485 E0.62217
G1 X108.973 Y92.961 E0.64557
G1 X109.626 Y93.618 E0.67638
G1 X110.154 Y94.206 E0.70267
G1 X110.692 Y94.957 E0.73339
G1 X111.393 Y96.069 E0.77711
G1 X111.78 Y96.758 E0.8034
G1 X112.172 Y97.694 E0.83715
G1 X112.516 Y98.695 E0.87235
G1 X112.734 Y99.454 E0.89862
G1 X112.856 Y100.096 E0.92035
G1 X112.986 Y100.981 E0.9501
G1 X113.061 Y101.768 E0.9764
G1 X113.046 Y102.717 E1.00797
G1 X112.94 Y104.087 E1.05367
G1 X112.839 Y104.87 E1.07993
G1 X112.709 Y105.459 E1.09999
G1 X112.59 Y105.914 E1.11563
G1 X112.352 Y106.667 E1.1419
G1 X112.177 Y107.096 E1.15731
G1 X111.697 Y108.181 E1.19677
G1 X111.342 Y108.886 E1.22302
G1 X110.81 Y109.697 E1.25528
G1 X110.127 Y110.61 E1.29321
G1 X109.622 Y111.218 E1.31949
G1 X108.969 Y111.85 E1.34972
G1 X108.123 Y112.578 E1.38684
G1 X107.499 Y113.062 E1.41311
G1 X106.721 Y113.54 E1.44348
G1 X105.725 Y114.074 E1.48106
G1 X105.011 Y114.412 E1.50734
G1 X104.29 Y114.668 E1.53279
G1 X103.391 Y114.939 E1.56402
G1 X102.625 Y115.128 E1.59026
G1 X102.043 Y115.219 E1.60985
G1 X101.194 Y115.318 E1.63828
G1 X100.406 Y115.369 E1.66454
G1 X99.882 Y115.359 E1.68197
G1 X98.967 Y115.311 E1.71245
G1 X98.182 Y115.23 E1.7387
G1 X97.441 Y115.078 E1.76386
G1 X96.367 Y114.803 E1.80073
G1 X95.613 Y114.569 E1.82699
G1 X94.587 Y114.105 E1.86444
G1 X93.328 Y113.423 E1.91206
G1 X92.653 Y113.013 E1.93833
G1 X91.836 Y112.373 E1.97285
G1 X91.121 Y111.732 E2.00479
G1 X90.561 Y111.176 E2.03103
G1 X90.175 Y110.718 E2.05096
G1 X89.621 Y110.007 E2.08094
G1 X89.168 Y109.36 E2.10721
G1 X88.866 Y108.835 E2.12735
G1 X88.424 Y107.992 E2.15901
G1 X88.093 Y107.275 E2.18527
G1 X87.879 Y106.672 E2.20656
G1 X87.601 Y105.772 E2.23789
G1 X87.407 Y105.007 E2.26413
G1 X87.313 Y104.425 E2.28374
G1 X87.208 Y103.574 E2.31226
G1 X87.151 Y102.787 E2.33851
G1 X87.168 Y102.069 E2.36239
G1 X87.249 Y100.924 E2.40057
G1 X87.345 Y100.14 E2.42684
G1 X87.504 Y99.425 E2.4512
G1 X87.733 Y98.584 E2.48019
G1 X88.128 Y97.472 E2.51944
G1 X88.417 Y96.82 E2.54316
G1 X88.773 Y96.115 E2.56943
G1 X89.042 Y95.679 E2.58647
G1 X89.571 Y94.879 E2.61837
G1 X90.039 Y94.243 E2.64463
G1 X90.548 Y93.68 E2.66988
G1 X91.334 Y92.89 E2.70694
G0 F3600 X91.617 Y93.172
G1 F1500 X92.187 Y92.655 E2.73254
G1 X92.605 Y92.339 E2.74997
G1 X93.175 Y91.938 E2.77315
G1 X93.826 Y91.528 E2.79874
G1 X94.276 Y91.297 E2.81556
G1 X95.245 Y90.84 E2.85119
G1 X95.957 Y90.549 E2.87678
G1 X96.575 Y90.362 E2.89825
G1 X97.454 Y90.138 E2.92842
G1 X98.208 Y89.987 E2.954
G1 X98.933 Y89.917 E2.97822
G1 X100.1 Y89.862 E3.01708
G1 X100.869 Y89.866 E3.04266
G1 X101.726 Y89.965 E3.07135
G1 X102.832 Y90.159 E3.1087
G1 X103.582 Y90.331 E3.13429
G1 X104.342 Y90.593 E3.16103
G1 X105.333 Y90.996 E3.19661
G1 X106.029 Y91.323 E3.22219
G1 X106.705 Y91.731 E3.24845
G1 X107.601 Y92.34 E3.28448
G1 X108.214 Y92.805 E3.31007
G1 X108.69 Y93.243 E3.33159
G1 X109.343 Y93.9 E3.3624
G1 X109.856 Y94.473 E3.38798
G1 X110.354 Y95.171 E3.4165
G1 X111.055 Y96.283 E3.46022
G1 X111.431 Y96.954 E3.4858
G1 X111.793 Y97.824 E3.51714
G1 X112.137 Y98.825 E3.55234
G1 X112.349 Y99.564 E3.57792
G1 X112.46 Y100.155 E3.59792
G1 X112.59 Y101.04 E3.62767
G1 X112.663 Y101.805 E3.65323
G1 X112.647 Y102.686 E3.68253
G1 X112.541 Y104.056 E3.72824
G1 X112.442 Y104.819 E3.75383
G1 X112.322 Y105.357 E3.77216
G1 X112.203 Y105.812 E3.7878
G1 X111.97 Y106.545 E3.81338
G1 X111.811 Y106.934 E3.82736
G1 X111.331 Y108.019 E3.86682
G1 X110.984 Y108.705 E3.89239
G1 X110.489 Y109.458 E3.92236
G1 X109.806 Y110.371 E3.96029
G1 X109.314 Y110.962 E3.98586
G1 X108.708 Y111.547 E4.01388
G1 X107.862 Y112.275 E4.051
G1 X107.253 Y112.746 E4.07661
G1 X106.532 Y113.188 E4.10473
G1 X105.536 Y113.722 E4.14232
G1 X104.84 Y114.05 E4.16791
G1 X104.175 Y114.285 E4.19137
G1 X103.276 Y114.556 E4.2226
G1 X102.529 Y114.74 E4.24819
G1 X101.997 Y114.821 E4.26609
G1 X101.148 Y114.92 E4.29452
G1 X100.381 Y114.969 E4.32008
G1 X99.903 Y114.96 E4.33598
G1 X98.988 Y114.912 E4.36646
G1 X98.223 Y114.832 E4.39204
G1 X97.54 Y114.691 E4.41523
G1 X96.466 Y114.416 E4.45211
G1 X95.732 Y114.186 E4.47769
G1 X94.777 Y113.754 E4.51255
G1 X93.518 Y113.072 E4.56018
G1 X92.862 Y112.671 E4.58575
G1 X92.103 Y112.075 E4.61785
G1 X91.388 Y111.434 E4.64978
G1 X90.843 Y110.891 E4.67537
G1 X90.491 Y110.472 E4.69357
G1 X89.937 Y109.761 E4.72355
G1 X89.496 Y109.131 E4.74913
G1 X89.22 Y108.649 E4.7676
G1 X88.778 Y107.806 E4.79926
G1 X88.457 Y107.107 E4.82485
G1 X88.262 Y106.554 E4.84435
G1 X87.984 Y105.654 E4.87568
G1 X87.795 Y104.908 E4.90127
G1 X87.71 Y104.376 E4.91919
G1 X87.605 Y103.525 E4.94771
G1 X87.55 Y102.758 E4.97329
G1 X87.567 Y102.097 E4.99528
G1 X87.648 Y100.952 E5.03346
G1 X87.743 Y100.188 E5.05907
G1 X87.89 Y99.53 E5.08149
G1 X88.119 Y98.689 E5.11048
G1 X88.494 Y97.634 E5.14772
G1 X88.783 Y96.982 E5.17144
G1 X89.131 Y96.296 E5.19702
G1 X89.375 Y95.899 E5.21252
G1 X89.904 Y95.099 E5.24442
G1 X90.361 Y94.481 E5.26999
G1 X90.831 Y93.962 E5.29328
G1 X91.617 Y93.172 E5.33034
G0 F3600 X91.901 Y93.454
G1 F1500 X92.456 Y92.952 E5.35523
G1 X92.835 Y92.666 E5.37102
G1 X93.405 Y92.265 E5.3942
G1 X94.039 Y91.868 E5.41908
G1 X94.447 Y91.659 E5.43433
G1 X95.416 Y91.202 E5.46996
G1 X96.109 Y90.919 E5.49486
G1 X96.673 Y90.75 E5.51444
G1 X97.552 Y90.526 E5.54461
G1 X98.286 Y90.38 E5.5695
G1 X98.951 Y90.317 E5.59172
G1 X100.118 Y90.262 E5.63058
G1 X100.867 Y90.267 E5.65549
G1 X101.657 Y90.359 E5.68194
G1 X102.763 Y90.553 E5.71929
G1 X103.492 Y90.722 E5.74418
G1 X104.191 Y90.964 E5.76878
G1 X105.182 Y91.367 E5.80437
G1 X105.859 Y91.685 E5.82924
G1 X106.48 Y92.062 E5.85341
G1 X107.376 Y92.671 E5.88944
G1 X107.971 Y93.124 E5.91431
G1 X108.406 Y93.525 E5.93399
G1 X109.059 Y94.182 E5.9648
G1 X109.557 Y94.74 E5.98967
G1 X110.016 Y95.384 E6.01598
G1 X110.717 Y96.496 E6.0597
G1 X111.081 Y97.149 E6.08456
G1 X111.415 Y97.954 E6.11355
G1 X111.759 Y98.955 E6.14876
G1 X111.964 Y99.674 E6.17362
G1 X112.065 Y100.213 E6.19186
G1 X112.195 Y101.098 E6.22161
G1 X112.264 Y101.843 E6.2465
G1 X112.248 Y102.655 E6.27351
G1 X112.142 Y104.025 E6.31921
G1 X112.045 Y104.767 E6.3441
G1 X111.935 Y105.256 E6.36077
G1 X111.816 Y105.711 E6.37642
G1 X111.589 Y106.424 E6.4013
G1 X111.446 Y106.772 E6.41382
G1 X110.966 Y107.857 E6.45328
G1 X110.627 Y108.524 E6.47816
G1 X110.169 Y109.218 E6.50582
G1 X109.486 Y110.131 E6.54374
G1 X109.007 Y110.705 E6.56861
G1 X108.447 Y111.244 E6.59446
G1 X107.601 Y111.972 E6.63158
G1 X107.009 Y112.429 E6.65646
G1 X106.343 Y112.835 E6.6824
G1 X105.347 Y113.369 E6.71999
G1 X104.669 Y113.687 E6.74489
G1 X104.059 Y113.902 E6.76641
G1 X103.16 Y114.173 E6.79764
G1 X102.434 Y114.35 E6.82249
G1 X101.951 Y114.424 E6.83874
G1 X101.102 Y114.523 E6.86717
G1 X100.355 Y114.57 E6.89207
G1 X99.924 Y114.56 E6.9064
G1 X99.009 Y114.512 E6.93688
G1 X98.265 Y114.433 E6.96176
G1 X97.64 Y114.303 E6.983
G1 X96.566 Y114.028 E7.01987
G1 X95.852 Y113.804 E7.04476
G1 X94.968 Y113.402 E7.07706
G1 X93.709 Y112.72 E7.12468
G1 X93.071 Y112.329 E7.14957
G1 X92.37 Y111.777 E7.17925
G1 X91.655 Y111.136 E7.21118
G1 X91.126 Y110.608 E7.23604
G1 X90.806 Y110.226 E7.25262
G1 X90.252 Y109.515 E7.2826
G1 X89.825 Y108.902 E7.30744
G1 X89.574 Y108.464 E7.32423
G1 X89.132 Y107.621 E7.35589
G1 X88.821 Y106.94 E7.38079
G1 X88.644 Y106.436 E7.39856
G1 X88.366 Y105.536 E7.42989
G1 X88.184 Y104.81 E7.45478
G1 X88.107 Y104.327 E7.47105
G1 X88.002 Y103.476 E7.49957
G1 X87.95 Y102.73 E7.52444
G1 X87.966 Y102.125 E7.54457
G1 X88.047 Y100.98 E7.58275
G1 X88.14 Y100.238 E7.60762
G1 X88.276 Y99.635 E7.62818
G1 X88.505 Y98.794 E7.65717
G1 X88.859 Y97.796 E7.69239
G1 X89.148 Y97.144 E7.71611
G1 X89.488 Y96.478 E7.74098
G1 X89.709 Y96.12 E7.75498
G1 X90.238 Y95.32 E7.78688
G1 X90.683 Y94.719 E7.81175
G1 X91.115 Y94.244 E7.8331
G1 X91.901 Y93.454 E7.87017
G0 F3600 X92.184 Y93.736
G1 F1500 X92.724 Y93.25 E7.89433
G1 X93.065 Y92.993 E7.90853
G1 X93.635 Y92.592 E7.93171
G1 X94.252 Y92.207 E7.9559
G1 X94.618 Y92.021 E7.96956
G1 X95.587 Y91.564 E8.00519
G1 X96.26 Y91.29 E8.02936
G1 X96.772 Y91.137 E8.04713
G1 X97.651 Y90.913 E8.0773
G1 X98.364 Y90.773 E8.10147
G1 X98.97 Y90.716 E8.12171
G1 X100.137 Y90.661 E8.16057
G1 X100.864 Y90.667 E8.18475
G1 X101.588 Y90.753 E8.209
G1 X102.694 Y90.947 E8.24635
G1 X103.402 Y91.112 E8.27053
G1 X104.04 Y91.334 E8.293
G1 X105.031 Y91.737 E8.32858
G1 X105.688 Y92.047 E8.35274
G1 X106.255 Y92.392 E8.37482
G1 X107.151 Y93.001 E8.41085
G1 X107.728 Y93.442 E8.435
G1 X108.122 Y93.807 E8.45287
G1 X108.775 Y94.464 E8.48368
G1 X109.258 Y95.007 E8.50785
G1 X109.677 Y95.597 E8.53192
G1 X110.378 Y96.709 E8.57564
G1 X110.731 Y97.344 E8.5998
G1 X111.037 Y98.084 E8.62644
G1 X111.381 Y99.085 E8.66164
G1 X111.579 Y99.784 E8.6858
G1 X111.669 Y100.271 E8.70228
G1 X111.799 Y101.156 E8.73203
G1 X111.865 Y101.879 E8.75617
G1 X111.849 Y102.624 E8.78096
G1 X111.743 Y103.994 E8.82666
G1 X111.648 Y104.714 E8.85082
G1 X111.548 Y105.155 E8.86586
G1 X111.429 Y105.61 E8.8815
G1 X111.08 Y106.61 E8.91673
G1 X110.6 Y107.695 E8.95619
G1 X110.27 Y108.342 E8.98034
G1 X109.849 Y108.979 E9.00574
G1 X109.166 Y109.892 E9.04366
G1 X108.699 Y110.448 E9.06781
G1 X108.186 Y110.941 E9.09148
G1 X107.34 Y111.669 E9.1286
G1 X106.764 Y112.112 E9.15277
G1 X106.154 Y112.483 E9.17651
G1 X105.158 Y113.017 E9.2141
G1 X104.5 Y113.324 E9.23825
G1 X103.944 Y113.519 E9.25785
G1 X103.045 Y113.79 E9.28908
G1 X102.339 Y113.961 E9.31324
G1 X101.904 Y114.027 E9.32787
G1 X101.055 Y114.126 E9.3563
G1 X100.33 Y114.17 E9.38046
G1 X99.945 Y114.161 E9.39327
G1 X99.03 Y114.113 E9.42374
G1 X98.308 Y114.035 E9.4479
G1 X97.739 Y113.916 E9.46723
G1 X96.665 Y113.641 E9.50411
G1 X95.972 Y113.422 E9.52828
G1 X95.158 Y113.05 E9.55805
G1 X93.899 Y112.368 E9.60567
G1 X93.281 Y111.988 E9.6298
G1 X92.637 Y111.479 E9.6571
G1 X91.922 Y110.838 E9.68904
G1 X91.409 Y110.324 E9.71319
G1 X91.122 Y109.981 E9.72807
G1 X90.568 Y109.27 E9.75805
G1 X90.154 Y108.673 E9.78221
G1 X89.929 Y108.278 E9.79733
G1 X89.487 Y107.435 E9.82899
G1 X89.185 Y106.774 E9.85316
G1 X89.026 Y106.318 E9.86922
G1 X88.748 Y105.418 E9.90055
G1 X88.572 Y104.713 E9.92472
G1 X88.504 Y104.278 E9.93936
G1 X88.399 Y103.427 E9.96788
G1 X88.35 Y102.703 E9.99202
G1 X88.365 Y102.153 E10.01032
G1 X88.446 Y101.008 E10.0485
G1 X88.538 Y100.288 E10.07264
G1 X88.662 Y99.74 E10.09133
G1 X88.891 Y98.899 E10.12032
G1 X89.225 Y97.958 E10.15353
G1 X89.514 Y97.306 E10.17725
G1 X89.845 Y96.66 E10.20139
G1 X90.043 Y96.341 E10.21388
G1 X90.572 Y95.541 E10.24578
G1 X91.005 Y94.958 E10.26993
G1 X91.398 Y94.526 E10.28935
G1 X92.184 Y93.736 E10.32642
G0 F3600 X92.468 Y94.018
G1 F1500 X92.992 Y93.548 E10.34983
G1 X93.296 Y93.32 E10.36247
G1 X93.866 Y92.919 E10.38565
G1 X94.463 Y92.547 E10.40905
G1 X94.788 Y92.382 E10.42117
G1 X95.757 Y91.925 E10.4568
G1 X96.41 Y91.662 E10.48022
G1 X96.871 Y91.525 E10.49621
G1 X97.75 Y91.301 E10.52638
G1 X98.441 Y91.166 E10.5498
G1 X98.989 Y91.116 E10.5681
G1 X100.156 Y91.061 E10.60696
G1 X100.86 Y91.068 E10.63038
G1 X101.519 Y91.147 E10.65245
G1 X102.625 Y91.341 E10.6898
G1 X103.311 Y91.502 E10.71323
G1 X103.89 Y91.705 E10.73364
G1 X104.881 Y92.108 E10.76922
G1 X105.517 Y92.41 E10.79264
G1 X106.03 Y92.723 E10.81263
G1 X106.926 Y93.332 E10.84866
G1 X107.485 Y93.76 E10.87208
G1 X107.838 Y94.089 E10.88813
G1 X108.491 Y94.746 E10.91894
G1 X108.959 Y95.273 E10.94238
G1 X109.339 Y95.811 E10.96429
G1 X110.04 Y96.923 E11.00801
G1 X110.381 Y97.539 E11.03142
G1 X110.658 Y98.214 E11.05569
G1 X111.002 Y99.215 E11.0909
G1 X111.193 Y99.893 E11.11432
G1 X111.273 Y100.329 E11.12907
G1 X111.403 Y101.214 E11.15882
G1 X111.466 Y101.915 E11.18223
G1 X111.451 Y102.593 E11.20478
G1 X111.345 Y103.963 E11.25049
G1 X111.25 Y104.661 E11.27392
G1 X111.161 Y105.054 E11.28732
G1 X111.042 Y105.509 E11.30296
G1 X110.714 Y106.448 E11.33604
G1 X110.234 Y107.533 E11.3755
G1 X109.913 Y108.16 E11.39893
G1 X109.529 Y108.739 E11.42204
G1 X108.846 Y109.652 E11.45996
G1 X108.393 Y110.191 E11.48338
G1 X107.925 Y110.638 E11.50491
G1 X107.079 Y111.366 E11.54203
G1 X106.52 Y111.794 E11.56544
G1 X105.965 Y112.13 E11.58702
G1 X104.969 Y112.664 E11.62461
G1 X104.33 Y112.961 E11.64805
G1 X103.828 Y113.136 E11.66573
G1 X102.929 Y113.407 E11.69696
G1 X102.245 Y113.572 E11.72036
G1 X101.858 Y113.629 E11.73337
G1 X101.009 Y113.728 E11.7618
G1 X99.966 Y113.761 E11.79651
G1 X99.051 Y113.713 E11.82698
G1 X98.351 Y113.637 E11.8504
G1 X97.838 Y113.528 E11.86785
G1 X96.764 Y113.253 E11.90472
G1 X96.093 Y113.04 E11.92814
G1 X95.349 Y112.699 E11.95536
G1 X94.09 Y112.017 E12.00298
G1 X93.491 Y111.647 E12.0264
G1 X92.904 Y111.181 E12.05133
G1 X92.189 Y110.54 E12.08326
G1 X91.693 Y110.042 E12.10664
G1 X91.437 Y109.735 E12.11994
G1 X90.883 Y109.024 E12.14992
G1 X90.483 Y108.445 E12.17332
G1 X90.283 Y108.092 E12.18682
G1 X89.841 Y107.249 E12.21847
G1 X89.55 Y106.608 E12.24189
G1 X89.408 Y106.2 E12.25626
G1 X89.13 Y105.3 E12.28759
G1 X88.961 Y104.616 E12.31102
G1 X88.901 Y104.229 E12.32405
G1 X88.796 Y103.378 E12.35256
G1 X88.749 Y102.676 E12.37597
G1 X88.764 Y102.181 E12.39244
G1 X88.845 Y101.036 E12.43062
G1 X88.935 Y100.338 E12.45402
G1 X89.048 Y99.845 E12.47085
G1 X89.277 Y99.004 E12.49984
G1 X89.591 Y98.121 E12.53101
G1 X89.88 Y97.469 E12.55473
G1 X90.376 Y96.561 E12.58914
G1 X90.905 Y95.761 E12.62104
G1 X91.326 Y95.197 E12.64445
G1 X91.682 Y94.808 E12.66198
G1 X92.468 Y94.018 E12.69905
G0 F3600 X92.751 Y94.3
G1 F1500 X93.526 Y93.647 E12.73276
G1 X94.096 Y93.246 E12.75594
G1 X94.959 Y92.744 E12.78914
G1 X95.928 Y92.287 E12.82478
G1 X96.56 Y92.033 E12.84743
G1 X96.97 Y91.913 E12.86164
G1 X97.849 Y91.689 E12.89181
G1 X98.517 Y91.56 E12.91444
G1 X99.008 Y91.515 E12.93084
G1 X100.175 Y91.46 E12.96969
G1 X100.856 Y91.468 E12.99235
G1 X101.45 Y91.541 E13.01225
G1 X102.556 Y91.735 E13.0496
G1 X103.219 Y91.892 E13.07226
G1 X103.739 Y92.075 E13.0906
G1 X104.73 Y92.478 E13.12618
G1 X105.344 Y92.771 E13.14881
G1 X105.805 Y93.054 E13.1668
G1 X106.701 Y93.663 E13.20283
G1 X107.241 Y94.078 E13.22548
G1 X107.555 Y94.371 E13.23977
G1 X108.208 Y95.028 E13.27058
G1 X108.659 Y95.539 E13.29324
G1 X109 Y96.024 E13.31296
G1 X109.701 Y97.136 E13.35668
G1 X110.03 Y97.732 E13.37933
G1 X110.28 Y98.344 E13.40131
G1 X110.624 Y99.345 E13.43652
G1 X110.807 Y100.001 E13.45917
G1 X110.877 Y100.387 E13.47222
G1 X111.007 Y101.272 E13.50197
G1 X111.067 Y101.95 E13.52461
G1 X111.052 Y102.562 E13.54497
G1 X110.946 Y103.932 E13.59067
G1 X110.853 Y104.607 E13.61333
G1 X110.774 Y104.953 E13.62514
G1 X110.655 Y105.408 E13.64078
G1 X110.348 Y106.287 E13.67175
G1 X109.868 Y107.372 E13.71121
G1 X109.557 Y107.977 E13.73384
G1 X109.208 Y108.499 E13.75472
G1 X108.525 Y109.412 E13.79264
G1 X108.086 Y109.933 E13.8153
G1 X107.664 Y110.334 E13.83467
G1 X106.818 Y111.062 E13.87179
G1 X106.277 Y111.475 E13.89442
G1 X105.776 Y111.778 E13.9139
G1 X104.78 Y112.312 E13.95149
G1 X104.162 Y112.598 E13.97414
G1 X103.713 Y112.753 E13.98993
G1 X102.814 Y113.024 E14.02116
G1 X102.152 Y113.182 E14.0438
