;FLAVOR:Marlin
;TIME:177
;Filament used: 0.107822m
;Layer height: 0.2
;Generated with Cura_SteamEngine 3.6.0
M140 S60
M105
M190 S60
M104 S200
M105
M109 S200
M82 ;absolute extrusion mode
G21 ;metric values
G90 ;absolute positioning
M82 ;set extruder to absolute mode
M107 ;start with the fan off
G28 X0 Y0 ;move X/Y to min endstops
G28 Z0 ;move Z to min endstops
G1 Z15.0 F120 ;move the platform down 15mm
G92 E0 ;zero the extruded length
G1 F200 E6 ;extrude 6 mm of feed stock
G92 E0 ;zero the extruded length again
M117 Printing...
G1 F120
G92 E0
G1 F2400 E-2.5
;LAYER_COUNT:49
;LAYER:0
M107
G0 F3600 X93.132 Y92.902 Z0.2
;TYPE:SKIRT
G1 F2400 E0
G1 F1500 X93.583 Y92.478 E0.02059
G1 X93.831 Y92.286 E0.03102
G1 X94.6 Y91.731 E0.06256
G1 X95.265 Y91.329 E0.08841
G1 X95.964 Y90.98 E0.11439
G1 X96.743 Y90.672 E0.14225
G1 X97.616 Y90.413 E0.17254
G1 X98.442 Y90.245 E0.20058
G1 X99.353 Y90.142 E0.23107
G1 X100.11 Y90.117 E0.25626
G1 X100.793 Y90.148 E0.279
G1 X101.558 Y90.245 E0.30465
G1 X102.476 Y90.437 E0.33584
G1 X103.282 Y90.681 E0.36385
G1 X104.116 Y91.016 E0.39375
G1 X104.889 Y91.411 E0.42262
G1 X105.61 Y91.866 E0.45097
G1 X106.179 Y92.287 E0.47452
G1 X106.717 Y92.75 E0.49812
G1 X107.327 Y93.38 E0.52729
G1 X108.012 Y94.232 E0.56365
G1 X108.463 Y94.903 E0.59054
G1 X108.807 Y95.52 E0.61404
G1 X109.144 Y96.267 E0.64129
G1 X109.468 Y97.19 E0.67383
G1 X109.689 Y98.089 E0.70462
G1 X109.84 Y99.127 E0.73951
G1 X109.887 Y100.001 E0.76862
G1 X109.859 Y100.734 E0.79302
G1 X109.795 Y101.35 E0.81362
G1 X109.716 Y101.725 E0.82636
G1 X109.377 Y103.069 E0.87246
G1 X109.187 Y103.658 E0.89305
G1 X109.062 Y103.948 E0.90355
G1 X108.781 Y104.542 E0.92541
G1 X108.432 Y105.157 E0.94893
G1 X108.004 Y105.797 E0.97453
G1 X107.627 Y106.289 E0.99515
G1 X107.372 Y106.559 E1.0075
G1 X106.421 Y107.49 E1.05177
G1 X105.951 Y107.894 E1.07238
G1 X105.48 Y108.207 E1.09119
G1 X104.428 Y108.82 E1.13168
G1 X103.873 Y109.097 E1.15232
G1 X103.315 Y109.292 E1.17198
G1 X102.015 Y109.659 E1.2169
G1 X101.409 Y109.789 E1.23752
G1 X101.017 Y109.83 E1.25063
G1 X100.266 Y109.878 E1.27566
G1 X99.647 Y109.878 E1.29624
G1 X99.321 Y109.845 E1.30714
G1 X98.071 Y109.677 E1.34909
G1 X97.463 Y109.555 E1.36972
G1 X97.035 Y109.418 E1.38466
G1 X96.084 Y109.064 E1.41841
G1 X95.35 Y108.718 E1.4454
G1 X94.721 Y108.353 E1.46959
G1 X94.206 Y108.008 E1.49021
G1 X93.948 Y107.795 E1.50134
G1 X92.998 Y106.954 E1.54354
G1 X92.562 Y106.514 E1.56414
G1 X92.146 Y105.961 E1.58715
G1 X91.328 Y104.692 E1.63737
G1 X91.026 Y104.15 E1.65801
G1 X90.757 Y103.446 E1.68307
G1 X90.366 Y102.117 E1.72915
G1 X90.23 Y101.513 E1.74974
G1 X90.176 Y100.975 E1.76772
G1 X90.128 Y99.894 E1.80371
G1 X90.14 Y99.275 E1.82431
G1 X90.203 Y98.81 E1.83991
G1 X90.426 Y97.602 E1.88077
G1 X90.577 Y97.001 E1.90138
G1 X90.766 Y96.509 E1.91891
G1 X91.248 Y95.434 E1.9581
G1 X91.654 Y94.706 E1.98582
G1 X91.99 Y94.21 E2.00575
G1 X92.456 Y93.626 E2.0306
G1 X93.132 Y92.902 E2.06354
G0 F3600 X93.424 Y93.175
G1 F1500 X94.065 Y92.61 E2.09196
G1 X94.834 Y92.055 E2.1235
G1 X95.444 Y91.686 E2.14721
G1 X96.143 Y91.337 E2.1732
G1 X96.857 Y91.056 E2.19872
G1 X97.73 Y90.797 E2.22901
G1 X98.487 Y90.643 E2.2547
G1 X99.398 Y90.54 E2.28519
G1 X100.092 Y90.517 E2.30829
G1 X100.775 Y90.548 E2.33103
G1 X101.476 Y90.636 E2.35453
G1 X102.394 Y90.828 E2.38572
G1 X103.133 Y91.052 E2.41141
G1 X103.967 Y91.387 E2.4413
G1 X104.675 Y91.749 E2.46775
G1 X105.396 Y92.204 E2.4961
G1 X105.918 Y92.59 E2.5177
G1 X106.456 Y93.053 E2.5413
G1 X107.015 Y93.631 E2.56805
G1 X107.7 Y94.483 E2.60441
G1 X108.114 Y95.097 E2.62904
G1 X108.458 Y95.714 E2.65253
G1 X108.767 Y96.4 E2.67756
G1 X109.091 Y97.323 E2.71009
G1 X109.293 Y98.147 E2.73831
G1 X109.444 Y99.185 E2.7732
G1 X109.487 Y99.986 E2.79988
G1 X109.459 Y100.719 E2.82428
G1 X109.396 Y101.309 E2.84401
G1 X109.328 Y101.627 E2.85483
G1 X108.989 Y102.971 E2.90093
G1 X108.7 Y103.777 E2.92941
G1 X108.419 Y104.371 E2.95126
G1 X108.1 Y104.935 E2.97281
G1 X107.672 Y105.575 E2.99842
G1 X107.309 Y106.045 E3.01817
G1 X107.092 Y106.273 E3.02864
G1 X106.141 Y107.204 E3.07291
G1 X105.69 Y107.589 E3.09263
G1 X105.278 Y107.862 E3.10907
G1 X104.226 Y108.475 E3.14957
G1 X103.695 Y108.738 E3.16927
G1 X103.206 Y108.907 E3.18648
G1 X101.906 Y109.274 E3.23141
G1 X101.326 Y109.397 E3.25113
G1 X100.992 Y109.431 E3.2623
G1 X100.241 Y109.479 E3.28733
G1 X99.374 Y109.449 E3.31618
G1 X98.124 Y109.281 E3.35813
G1 X97.543 Y109.162 E3.37785
G1 X97.175 Y109.044 E3.39071
G1 X96.224 Y108.69 E3.42446
G1 X95.551 Y108.372 E3.44922
G1 X94.922 Y108.007 E3.4734
G1 X94.213 Y107.496 E3.50247
G1 X93.263 Y106.655 E3.54467
G1 X92.847 Y106.232 E3.5644
G1 X92.482 Y105.744 E3.58467
G1 X91.664 Y104.475 E3.63489
G1 X91.377 Y103.956 E3.65461
G1 X91.141 Y103.333 E3.67677
G1 X90.75 Y102.004 E3.72285
G1 X90.621 Y101.425 E3.74258
G1 X90.575 Y100.957 E3.75822
G1 X90.527 Y99.876 E3.79421
G1 X90.541 Y99.283 E3.81394
G1 X90.596 Y98.882 E3.8274
G1 X90.819 Y97.674 E3.86826
G1 X90.966 Y97.1 E3.88796
G1 X91.131 Y96.673 E3.90319
G1 X91.613 Y95.598 E3.94237
G1 X91.985 Y94.93 E3.9678
G1 X92.321 Y94.434 E3.98773
G1 X92.748 Y93.899 E4.0105
G1 X93.424 Y93.175 E4.04344
G0 F3600 X93.716 Y93.448
G1 F1500 X94.299 Y92.935 E4.06927
G1 X95.068 Y92.38 E4.10081
G1 X95.622 Y92.044 E4.12236
G1 X96.321 Y91.695 E4.14835
G1 X96.97 Y91.439 E4.17155
G1 X97.843 Y91.18 E4.20184
G1 X98.532 Y91.04 E4.22522
G1 X99.443 Y90.937 E4.25572
G1 X100.073 Y90.916 E4.27668
G1 X100.756 Y90.947 E4.29942
G1 X101.394 Y91.028 E4.32081
G1 X102.312 Y91.22 E4.35201
G1 X102.984 Y91.423 E4.37536
G1 X103.818 Y91.758 E4.40525
G1 X104.462 Y92.087 E4.4293
G1 X105.183 Y92.542 E4.45766
G1 X105.657 Y92.893 E4.47727
G1 X106.195 Y93.356 E4.50088
G1 X106.703 Y93.882 E4.5252
G1 X107.388 Y94.734 E4.56157
G1 X107.765 Y95.292 E4.58396
G1 X108.109 Y95.909 E4.60746
G1 X108.389 Y96.532 E4.63018
G1 X108.713 Y97.455 E4.66271
G1 X108.897 Y98.204 E4.68836
G1 X109.048 Y99.242 E4.72325
G1 X109.087 Y99.971 E4.74753
G1 X109.059 Y100.704 E4.77193
G1 X108.941 Y101.529 E4.79965
G1 X108.602 Y102.873 E4.84575
G1 X108.339 Y103.606 E4.87165
G1 X108.058 Y104.2 E4.89351
G1 X107.767 Y104.713 E4.91312
G1 X107.339 Y105.353 E4.93873
G1 X106.812 Y105.987 E4.96615
G1 X105.861 Y106.918 E5.01042
G1 X105.43 Y107.284 E5.02922
G1 X105.077 Y107.516 E5.04327
G1 X104.025 Y108.129 E5.08377
G1 X103.518 Y108.378 E5.10256
G1 X103.098 Y108.523 E5.11733
G1 X101.798 Y108.89 E5.16226
G1 X100.966 Y109.032 E5.19034
G1 X100.215 Y109.08 E5.21536
G1 X99.427 Y109.052 E5.24159
G1 X98.177 Y108.884 E5.28354
G1 X97.624 Y108.77 E5.30232
G1 X97.315 Y108.669 E5.31313
G1 X96.364 Y108.315 E5.34688
G1 X95.751 Y108.026 E5.36942
G1 X95.122 Y107.661 E5.39361
G1 X94.479 Y107.196 E5.42
G1 X93.529 Y106.355 E5.4622
G1 X93.133 Y105.951 E5.48102
G1 X92.818 Y105.527 E5.49859
G1 X92 Y104.258 E5.5488
G1 X91.728 Y103.763 E5.56759
G1 X91.525 Y103.22 E5.58687
G1 X91.134 Y101.891 E5.63295
G1 X91.013 Y101.339 E5.65174
G1 X90.975 Y100.939 E5.66511
G1 X90.927 Y99.858 E5.70109
G1 X90.942 Y99.293 E5.71989
G1 X90.989 Y98.955 E5.73124
G1 X91.212 Y97.747 E5.7721
G1 X91.354 Y97.2 E5.7909
G1 X91.496 Y96.836 E5.80389
G1 X91.978 Y95.761 E5.84308
G1 X92.316 Y95.155 E5.86616
G1 X92.652 Y94.659 E5.88608
G1 X93.04 Y94.172 E5.90679
G1 X93.716 Y93.448 E5.93974
G0 F3600 X94.009 Y93.721
G1 F1500 X94.533 Y93.259 E5.96297
G1 X95.302 Y92.704 E5.99451
G1 X95.801 Y92.402 E6.01391
G1 X96.5 Y92.053 E6.0399
G1 X97.084 Y91.823 E6.06077
G1 X97.957 Y91.564 E6.09106
G1 X98.577 Y91.438 E6.1121
G1 X99.488 Y91.335 E6.1426
G1 X100.055 Y91.316 E6.16147
G1 X100.738 Y91.347 E6.18421
G1 X101.312 Y91.419 E6.20345
G1 X102.23 Y91.611 E6.23464
G1 X102.835 Y91.794 E6.25566
G1 X103.669 Y92.129 E6.28556
G1 X104.248 Y92.426 E6.3072
G1 X104.969 Y92.881 E6.33556
G1 X105.396 Y93.196 E6.35321
G1 X105.934 Y93.659 E6.37681
G1 X106.392 Y94.132 E6.39871
G1 X107.077 Y94.984 E6.43507
G1 X107.415 Y95.487 E6.45523
G1 X107.759 Y96.104 E6.47872
G1 X108.012 Y96.665 E6.49919
G1 X108.336 Y97.588 E6.53173
G1 X108.502 Y98.262 E6.55482
G1 X108.653 Y99.3 E6.5897
G1 X108.687 Y99.955 E6.61152
G1 X108.659 Y100.688 E6.63592
G1 X108.553 Y101.431 E6.66088
G1 X108.214 Y102.775 E6.70698
G1 X107.977 Y103.434 E6.73027
G1 X107.696 Y104.028 E6.75213
G1 X107.435 Y104.49 E6.76978
G1 X107.007 Y105.13 E6.79538
G1 X106.532 Y105.701 E6.82009
G1 X105.581 Y106.632 E6.86435
G1 X105.171 Y106.978 E6.8822
G1 X104.875 Y107.17 E6.89393
G1 X103.823 Y107.783 E6.93443
G1 X103.341 Y108.018 E6.95226
G1 X102.989 Y108.138 E6.96463
G1 X101.689 Y108.505 E7.00956
G1 X100.941 Y108.633 E7.0348
G1 X100.19 Y108.681 E7.05983
G1 X99.48 Y108.656 E7.08346
G1 X98.23 Y108.488 E7.12541
G1 X97.454 Y108.294 E7.15201
G1 X96.503 Y107.94 E7.18576
G1 X95.952 Y107.68 E7.20603
G1 X95.323 Y107.315 E7.23021
G1 X94.744 Y106.897 E7.25397
G1 X93.794 Y106.056 E7.29617
G1 X93.42 Y105.671 E7.31402
G1 X93.154 Y105.31 E7.32893
G1 X92.336 Y104.041 E7.37915
G1 X92.08 Y103.57 E7.39698
G1 X91.908 Y103.107 E7.41341
G1 X91.517 Y101.778 E7.45948
G1 X91.405 Y101.254 E7.4773
G1 X91.375 Y100.922 E7.48839
G1 X91.327 Y99.841 E7.52438
G1 X91.343 Y99.305 E7.54222
G1 X91.383 Y99.027 E7.55156
G1 X91.606 Y97.819 E7.59242
G1 X91.742 Y97.301 E7.61023
G1 X91.861 Y97 E7.62099
G1 X92.343 Y95.925 E7.66018
G1 X92.647 Y95.379 E7.68096
G1 X92.983 Y94.883 E7.70089
G1 X93.333 Y94.445 E7.71954
G1 X94.009 Y93.721 E7.75248
G0 F3600 X94.301 Y93.994
G1 F1500 X94.767 Y93.583 E7.77315
G1 X95.536 Y93.028 E7.80469
G1 X95.98 Y92.76 E7.82194
G1 X96.679 Y92.411 E7.84792
G1 X97.198 Y92.206 E7.86648
G1 X98.071 Y91.947 E7.89677
G1 X98.621 Y91.835 E7.91544
G1 X99.532 Y91.732 E7.94593
G1 X100.037 Y91.715 E7.96274
G1 X100.72 Y91.746 E7.98548
G1 X101.23 Y91.811 E8.00258
G1 X102.148 Y92.003 E8.03377
G1 X102.686 Y92.166 E8.05247
G1 X103.52 Y92.501 E8.08236
G1 X104.035 Y92.764 E8.1016
G1 X104.756 Y93.219 E8.12995
G1 X105.135 Y93.5 E8.14564
G1 X105.673 Y93.963 E8.16925
G1 X106.08 Y94.383 E8.1887
G1 X106.765 Y95.235 E8.22507
G1 X107.066 Y95.682 E8.24299
G1 X107.41 Y96.299 E8.26648
G1 X107.634 Y96.797 E8.28465
G1 X107.958 Y97.72 E8.31718
G1 X108.106 Y98.319 E8.3377
G1 X108.257 Y99.357 E8.37259
G1 X108.288 Y99.94 E8.39201
G1 X108.26 Y100.673 E8.41641
G1 X108.165 Y101.334 E8.43862
G1 X107.826 Y102.678 E8.48472
G1 X107.616 Y103.263 E8.50539
G1 X107.335 Y103.857 E8.52725
G1 X107.102 Y104.268 E8.54296
G1 X106.674 Y104.908 E8.56857
G1 X106.253 Y105.416 E8.59051
G1 X105.302 Y106.347 E8.63478
G1 X104.913 Y106.671 E8.65162
G1 X104.674 Y106.825 E8.66107
G1 X103.622 Y107.438 E8.70157
G1 X103.167 Y107.657 E8.71836
G1 X102.88 Y107.753 E8.72843
G1 X101.58 Y108.12 E8.77336
G1 X100.915 Y108.233 E8.79579
G1 X100.164 Y108.281 E8.82082
G1 X99.534 Y108.259 E8.84179
G1 X98.284 Y108.091 E8.88374
G1 X97.594 Y107.919 E8.90739
G1 X96.643 Y107.565 E8.94114
G1 X96.153 Y107.334 E8.95916
G1 X95.524 Y106.969 E8.98335
G1 X95.009 Y106.597 E9.00448
G1 X94.059 Y105.756 E9.04668
G1 X93.708 Y105.392 E9.06349
G1 X93.49 Y105.094 E9.07577
G1 X92.672 Y103.825 E9.12599
G1 X92.433 Y103.379 E9.14282
G1 X92.292 Y102.994 E9.15646
G1 X91.901 Y101.665 E9.20253
G1 X91.797 Y101.17 E9.21936
G1 X91.774 Y100.904 E9.22824
G1 X91.726 Y99.823 E9.26423
G1 X91.776 Y99.1 E9.28833
G1 X91.999 Y97.892 E9.32919
G1 X92.13 Y97.404 E9.34599
G1 X92.226 Y97.164 E9.35459
G1 X92.708 Y96.089 E9.39378
G1 X92.979 Y95.603 E9.41228
G1 X93.315 Y95.107 E9.43221
G1 X93.625 Y94.718 E9.44875
G1 X94.301 Y93.994 E9.4817
G1 F2400 E6.9817
;MESH:NOSE.stl
G0 F3600 X97.81 Y94.668
G0 X98.34 Y95.838
G0 X100.321 Y95.612
G0 X100.327 Y95.513
;TYPE:WALL-INNER
G1 F2400 E9.4817
G1 F1500 X100.669 Y95.549 E9.49314
G1 X101.011 Y95.613 E9.50471
G1 X101.169 Y95.652 E9.51012
G1 X101.414 Y95.727 E9.51864
G1 X101.761 Y95.857 E9.53097
G1 X102.075 Y96.003 E9.54249
G1 X102.411 Y96.198 E9.55541
G1 X102.62 Y96.338 E9.56377
G1 X102.764 Y96.446 E9.56976
G1 X103.043 Y96.682 E9.58191
G1 X103.328 Y96.969 E9.59537
G1 X103.574 Y97.262 E9.60809
G1 X103.813 Y97.607 E9.62205
G1 X103.997 Y97.93 E9.63441
G1 X104.125 Y98.197 E9.64426
G1 X104.268 Y98.563 E9.65733
G1 X104.38 Y98.958 E9.67099
G1 X104.441 Y99.258 E9.68117
G1 X104.486 Y99.616 E9.69317
G1 X104.497 Y99.789 E9.69894
G1 X104.498 Y100.136 E9.71048
G1 X104.471 Y100.513 E9.72305
G1 X104.43 Y100.788 E9.7323
G1 X104.351 Y101.153 E9.74472
G1 X104.237 Y101.522 E9.75756
G1 X104.098 Y101.864 E9.76984
G1 X104.009 Y102.049 E9.77667
G1 X103.815 Y102.39 E9.78972
G1 X103.708 Y102.553 E9.7962
G1 X103.523 Y102.801 E9.80649
G1 X103.268 Y103.095 E9.81944
G1 X103.123 Y103.241 E9.82628
G1 X102.81 Y103.515 E9.84012
G1 X102.672 Y103.621 E9.84591
G1 X102.334 Y103.847 E9.85943
G1 X101.986 Y104.037 E9.87262
G1 X101.624 Y104.196 E9.88577
G1 X101.449 Y104.259 E9.89195
G1 X101.177 Y104.343 E9.90142
G1 X100.992 Y104.389 E9.90776
G1 X100.621 Y104.458 E9.92031
G1 X100.452 Y104.477 E9.92597
G1 X100.078 Y104.497 E9.93843
G1 X99.906 Y104.497 E9.94415
G1 X99.649 Y104.483 E9.95271
G1 X99.274 Y104.438 E9.96527
G1 X98.908 Y104.362 E9.9777
G1 X98.529 Y104.251 E9.99084
G1 X98.19 Y104.118 E10.00295
G1 X97.817 Y103.934 E10.01678
G1 X97.584 Y103.794 E10.02582
G1 X97.245 Y103.554 E10.03964
G1 X97.05 Y103.395 E10.04801
G1 X96.763 Y103.123 E10.06116
G1 X96.63 Y102.978 E10.0677
G1 X96.434 Y102.742 E10.07791
G1 X96.326 Y102.595 E10.08397
G1 X96.13 Y102.291 E10.096
G1 X95.985 Y102.027 E10.10602
G1 X95.909 Y101.867 E10.11191
G1 X95.793 Y101.59 E10.1219
G1 X95.73 Y101.409 E10.12828
G1 X95.624 Y101.038 E10.14111
G1 X95.557 Y100.685 E10.15306
G1 X95.514 Y100.289 E10.16631
G1 X95.505 Y100.138 E10.17134
G1 X95.507 Y99.835 E10.18142
G1 X95.541 Y99.415 E10.19543
G1 X95.597 Y99.086 E10.20653
G1 X95.674 Y98.769 E10.21738
G1 X95.795 Y98.402 E10.23023
G1 X95.899 Y98.152 E10.23924
G1 X96.052 Y97.842 E10.25074
G1 X96.239 Y97.532 E10.26278
G1 X96.341 Y97.383 E10.26879
G1 X96.561 Y97.102 E10.28066
G1 X96.764 Y96.877 E10.29073
G1 X97.019 Y96.631 E10.30252
G1 X97.313 Y96.393 E10.3151
G1 X97.613 Y96.186 E10.32722
G1 X97.991 Y95.974 E10.34164
G1 X98.333 Y95.82 E10.35411
G1 X98.676 Y95.699 E10.36621
G1 X99.003 Y95.612 E10.37746
G1 X99.241 Y95.565 E10.38553
G1 X99.594 Y95.519 E10.39737
G1 X99.917 Y95.501 E10.40813
G1 X100.327 Y95.513 E10.42178
G0 F3600 X100.356 Y95.113
;TYPE:WALL-OUTER
G1 F1500 X100.719 Y95.152 E10.43392
G1 X101.1 Y95.223 E10.44681
G1 X101.28 Y95.268 E10.45298
G1 X101.544 Y95.348 E10.46215
G1 X101.907 Y95.484 E10.47505
G1 X102.267 Y95.652 E10.48826
G1 X102.612 Y95.852 E10.50152
G1 X102.86 Y96.018 E10.51145
G1 X103.015 Y96.134 E10.51789
G1 X103.316 Y96.389 E10.53101
G1 X103.622 Y96.697 E10.54545
G1 X103.757 Y96.851 E10.55226
G1 X103.899 Y97.028 E10.55981
G1 X104.148 Y97.387 E10.57434
G1 X104.252 Y97.56 E10.58105
G1 X104.358 Y97.757 E10.5885
G1 X104.492 Y98.036 E10.59879
G1 X104.645 Y98.429 E10.61282
G1 X104.723 Y98.688 E10.62181
G1 X104.772 Y98.878 E10.62834
G1 X104.833 Y99.178 E10.63852
G1 X104.863 Y99.376 E10.64518
G1 X104.884 Y99.574 E10.6518
G1 X104.897 Y99.779 E10.65864
G1 X104.898 Y100.156 E10.67118
G1 X104.869 Y100.561 E10.68468
G1 X104.825 Y100.857 E10.69463
G1 X104.739 Y101.251 E10.70805
G1 X104.615 Y101.654 E10.72207
G1 X104.459 Y102.037 E10.73583
G1 X104.369 Y102.225 E10.74276
G1 X104.15 Y102.609 E10.75746
G1 X104.038 Y102.78 E10.76426
G1 X103.839 Y103.046 E10.77531
G1 X103.7 Y103.214 E10.78256
G1 X103.552 Y103.377 E10.78988
G1 X103.396 Y103.534 E10.79725
G1 X103.074 Y103.816 E10.81148
G1 X102.894 Y103.954 E10.81903
G1 X102.547 Y104.186 E10.83291
G1 X102.16 Y104.397 E10.84757
G1 X101.773 Y104.567 E10.86163
G1 X101.577 Y104.638 E10.86856
G1 X101.282 Y104.729 E10.87883
G1 X101.083 Y104.779 E10.88565
G1 X100.679 Y104.853 E10.89931
G1 X100.484 Y104.875 E10.90584
G1 X100.082 Y104.897 E10.91923
G1 X99.902 Y104.897 E10.92522
G1 X99.61 Y104.881 E10.93495
G1 X99.205 Y104.832 E10.94851
G1 X98.811 Y104.751 E10.96189
G1 X98.406 Y104.632 E10.97593
G1 X98.021 Y104.481 E10.98969
G1 X97.633 Y104.289 E11.00409
G1 X97.357 Y104.124 E11.01478
G1 X97.005 Y103.875 E11.02912
G1 X96.79 Y103.7 E11.03834
G1 X96.476 Y103.402 E11.05274
G1 X96.328 Y103.241 E11.06001
G1 X96.116 Y102.985 E11.07107
G1 X95.997 Y102.822 E11.07778
G1 X95.789 Y102.5 E11.09053
G1 X95.63 Y102.211 E11.1015
