;FLAVOR:Marlin
;TIME:239
;Filament used: 0.158811m
;Layer height: 0.2
;Generated with Cura_SteamEngine 3.6.0
M140 S60
M105
M190 S60
M104 S200
M105
M109 S200
M82 ;absolute extrusion mode
G21 ;metric values
G90 ;absolute positioning
M82 ;set extruder to absolute mode
M107 ;start with the fan off
G28 X0 Y0 ;move X/Y to min endstops
G28 Z0 ;move Z to min endstops
G1 Z15.0 F120 ;move the platform down 15mm
G92 E0 ;zero the extruded length
G1 F200 E6 ;extrude 6 mm of feed stock
G92 E0 ;zero the extruded length again
M117 Printing...
G1 F120
G92 E0
G1 F2400 E-2.5
;LAYER_COUNT:49
;LAYER:0
M107
G0 F3600 X91.148 Y90.632 Z0.3
;TYPE:SKIRT
G1 F2400 E0
G1 F1800 X91.595 Y90.242 E0.0296
G1 X92.206 Y89.748 E0.0688
G1 X93.164 Y89.086 E0.12689
G1 X93.834 Y88.693 E0.16564
G1 X94.534 Y88.328 E0.20503
G1 X95.17 Y88.071 E0.23925
G1 X96.229 Y87.695 E0.29532
G1 X96.986 Y87.468 E0.33475
G1 X97.853 Y87.308 E0.37873
G1 X98.905 Y87.174 E0.43164
G1 X99.693 Y87.114 E0.47107
G1 X100.802 Y87.164 E0.52645
G1 X102.196 Y87.328 E0.59648
G1 X102.975 Y87.46 E0.6359
G1 X103.798 Y87.691 E0.67854
G1 X104.506 Y87.932 E0.71586
G1 X105.578 Y88.389 E0.77399
G1 X106.262 Y88.743 E0.81242
G1 X106.944 Y89.141 E0.85181
G1 X107.279 Y89.372 E0.87212
G1 X107.914 Y89.836 E0.91135
G1 X108.527 Y90.334 E0.95076
G1 X108.967 Y90.762 E0.98138
G1 X109.689 Y91.522 E1.03368
G1 X110.203 Y92.121 E1.07306
G1 X110.766 Y92.954 E1.12322
G1 X111.418 Y94.068 E1.18761
G1 X111.782 Y94.769 E1.22702
G1 X112.18 Y95.844 E1.28421
G1 X112.524 Y97.035 E1.34606
G1 X112.704 Y97.803 E1.38541
G1 X112.805 Y98.574 E1.42421
G1 X112.867 Y99.345 E1.4628
G1 X112.89 Y100.134 E1.50218
G1 X112.846 Y100.817 E1.53632
G1 X112.719 Y101.98 E1.59469
G1 X112.594 Y102.759 E1.63405
G1 X112.299 Y103.788 E1.68746
G1 X111.874 Y104.962 E1.74975
G1 X111.568 Y105.69 E1.78914
G1 X110.982 Y106.705 E1.84762
G1 X110.248 Y107.78 E1.91256
G1 X109.77 Y108.409 E1.95197
G1 X109.231 Y108.986 E1.99136
G1 X108.919 Y109.273 E2.01251
G1 X107.927 Y110.134 E2.07805
G1 X107.305 Y110.62 E2.11743
G1 X106.413 Y111.163 E2.16953
G1 X105.467 Y111.655 E2.22272
G1 X104.749 Y111.983 E2.26211
G1 X103.979 Y112.244 E2.30267
G1 X102.99 Y112.522 E2.35392
G1 X102.22 Y112.697 E2.39332
G1 X101.632 Y112.777 E2.42292
G1 X100.859 Y112.852 E2.46167
G1 X99.678 Y112.876 E2.5206
G1 X98.913 Y112.834 E2.55883
G1 X98.128 Y112.751 E2.59821
G1 X97.715 Y112.675 E2.61916
G1 X96.927 Y112.507 E2.65936
G1 X96.164 Y112.303 E2.69876
G1 X95.581 Y112.09 E2.72973
G1 X94.608 Y111.689 E2.78223
G1 X93.894 Y111.351 E2.82164
G1 X93.021 Y110.806 E2.87299
G1 X91.97 Y110.049 E2.93761
G1 X91.354 Y109.556 E2.97697
G1 X90.727 Y108.933 E3.02107
G1 X90.143 Y108.283 E3.06466
G1 X89.646 Y107.67 E3.10403
G1 X89.261 Y107.09 E3.13876
G1 X88.698 Y106.154 E3.19326
G1 X88.326 Y105.458 E3.23263
G1 X88.055 Y104.81 E3.26767
G1 X87.769 Y104.027 E3.30926
G1 X87.536 Y103.273 E3.34863
G1 X87.387 Y102.536 E3.38614
G1 X87.207 Y101.365 E3.44525
G1 X87.126 Y100.579 E3.48467
G1 X87.126 Y99.79 E3.52404
G1 X87.159 Y99.362 E3.54545
G1 X87.307 Y97.958 E3.61589
G1 X87.429 Y97.178 E3.65527
G1 X87.645 Y96.369 E3.69705
G1 X87.875 Y95.66 E3.73424
G1 X88.156 Y94.922 E3.77363
G1 X88.466 Y94.296 E3.80849
G1 X89.026 Y93.282 E3.86628
G1 X89.442 Y92.611 E3.90566
G1 X89.957 Y91.948 E3.94755
G1 X90.602 Y91.203 E3.99671
G1 X91.148 Y90.632 E4.03613
G0 F3600 X91.437 Y90.91
G1 F1800 X91.846 Y90.554 E4.06318
G1 X92.457 Y90.06 E4.10238
G1 X93.366 Y89.431 E4.15753
G1 X94.036 Y89.038 E4.19628
G1 X94.719 Y88.684 E4.23466
G1 X95.304 Y88.448 E4.26613
G1 X96.363 Y88.072 E4.3222
G1 X97.1 Y87.852 E4.36057
G1 X97.904 Y87.704 E4.40135
G1 X98.956 Y87.57 E4.45426
G1 X99.723 Y87.513 E4.49263
G1 X100.756 Y87.562 E4.54423
G1 X102.15 Y87.726 E4.61425
G1 X102.908 Y87.855 E4.65261
G1 X103.67 Y88.07 E4.69212
G1 X104.378 Y88.311 E4.72943
G1 X105.394 Y88.744 E4.78453
G1 X106.078 Y89.098 E4.82295
G1 X107.043 Y89.695 E4.87956
G1 X107.678 Y90.159 E4.9188
G1 X108.274 Y90.645 E4.95717
G1 X108.677 Y91.037 E4.98522
G1 X109.399 Y91.797 E5.03752
G1 X109.899 Y92.382 E5.07591
G1 X110.421 Y93.156 E5.12249
G1 X111.073 Y94.27 E5.18688
G1 X111.426 Y94.953 E5.22524
G1 X111.795 Y95.955 E5.27851
G1 X112.139 Y97.146 E5.34036
G1 X112.314 Y97.895 E5.37873
G1 X112.406 Y98.606 E5.4145
G1 X112.468 Y99.377 E5.45309
G1 X112.49 Y100.146 E5.49147
G1 X112.448 Y100.773 E5.52282
G1 X112.321 Y101.936 E5.58119
G1 X112.198 Y102.696 E5.6196
G1 X111.923 Y103.652 E5.66923
G1 X111.498 Y104.826 E5.73152
G1 X111.199 Y105.535 E5.76991
G1 X110.651 Y106.48 E5.82441
G1 X109.917 Y107.555 E5.88935
G1 X109.451 Y108.167 E5.92773
G1 X108.657 Y108.971 E5.9841
G1 X107.665 Y109.832 E6.04963
G1 X107.058 Y110.305 E6.08803
G1 X106.228 Y110.808 E6.13645
G1 X105.282 Y111.3 E6.18964
G1 X104.583 Y111.619 E6.22798
G1 X103.87 Y111.859 E6.26551
G1 X102.881 Y112.137 E6.31676
G1 X102.131 Y112.306 E6.35512
G1 X101.594 Y112.378 E6.38215
G1 X100.821 Y112.453 E6.4209
G1 X99.7 Y112.477 E6.47684
G1 X98.935 Y112.435 E6.51506
G1 X97.798 Y112.283 E6.57229
G1 X97.01 Y112.115 E6.61249
G1 X96.267 Y111.916 E6.65086
G1 X95.733 Y111.72 E6.67924
G1 X94.76 Y111.319 E6.73174
G1 X94.065 Y110.989 E6.77013
G1 X93.255 Y110.482 E6.8178
G1 X92.204 Y109.725 E6.88242
G1 X91.604 Y109.243 E6.92082
G1 X91.024 Y108.666 E6.96164
G1 X90.44 Y108.016 E7.00523
G1 X89.957 Y107.418 E7.04358
G1 X89.604 Y106.884 E7.07552
G1 X89.041 Y105.948 E7.13001
G1 X88.679 Y105.269 E7.1684
G1 X88.431 Y104.673 E7.20061
G1 X88.145 Y103.89 E7.24219
G1 X87.919 Y103.155 E7.28056
G1 X87.782 Y102.475 E7.31517
G1 X87.602 Y101.304 E7.37427
G1 X87.525 Y100.539 E7.41263
G1 X87.557 Y99.404 E7.46928
G1 X87.705 Y98 E7.53971
G1 X87.825 Y97.241 E7.57805
G1 X88.025 Y96.493 E7.61668
G1 X88.255 Y95.784 E7.65387
G1 X88.53 Y95.065 E7.69227
G1 X88.816 Y94.49 E7.72431
G1 X89.376 Y93.476 E7.7821
G1 X89.783 Y92.822 E7.82053
G1 X90.259 Y92.209 E7.85925
G1 X90.904 Y91.464 E7.90842
G1 X91.437 Y90.91 E7.94677
G0 F3600 X91.726 Y91.188
G1 F1800 X92.098 Y90.865 E7.97135
G1 X92.709 Y90.371 E8.01055
G1 X93.568 Y89.776 E8.06268
G1 X94.238 Y89.383 E8.10143
G1 X94.903 Y89.04 E8.13876
G1 X95.438 Y88.824 E8.16755
G1 X96.497 Y88.448 E8.22361
G1 X97.214 Y88.236 E8.26091
G1 X97.955 Y88.101 E8.29849
G1 X99.007 Y87.967 E8.3514
G1 X99.753 Y87.912 E8.38872
G1 X100.709 Y87.959 E8.43647
G1 X102.103 Y88.123 E8.5065
G1 X102.84 Y88.25 E8.54381
G1 X103.541 Y88.448 E8.58015
G1 X104.249 Y88.689 E8.61746
G1 X105.21 Y89.099 E8.66959
G1 X105.894 Y89.453 E8.70801
G1 X106.807 Y90.018 E8.76158
G1 X107.442 Y90.482 E8.80082
G1 X108.021 Y90.955 E8.83812
G1 X108.387 Y91.313 E8.86366
G1 X109.109 Y92.073 E8.91596
G1 X109.595 Y92.642 E8.95329
G1 X110.075 Y93.358 E8.9963
G1 X110.727 Y94.472 E9.06069
G1 X111.07 Y95.137 E9.09802
G1 X111.411 Y96.066 E9.1474
G1 X111.755 Y97.257 E9.20924
G1 X111.924 Y97.985 E9.24653
G1 X112.007 Y98.638 E9.27937
G1 X112.069 Y99.409 E9.31796
G1 X112.09 Y100.157 E9.35529
G1 X112.051 Y100.73 E9.38395
G1 X111.924 Y101.893 E9.44231
G1 X111.803 Y102.631 E9.47962
G1 X111.547 Y103.516 E9.52559
G1 X111.122 Y104.69 E9.58788
G1 X110.83 Y105.379 E9.62521
G1 X110.321 Y106.254 E9.67571
G1 X109.587 Y107.329 E9.74065
G1 X109.133 Y107.924 E9.77799
G1 X108.394 Y108.668 E9.83031
G1 X107.402 Y109.529 E9.89584
G1 X106.812 Y109.989 E9.93317
G1 X106.044 Y110.453 E9.97793
G1 X105.098 Y110.945 E10.03113
G1 X104.417 Y111.255 E10.06846
G1 X103.762 Y111.474 E10.10292
G1 X102.773 Y111.752 E10.15417
G1 X102.043 Y111.915 E10.19149
G1 X101.555 Y111.98 E10.21605
G1 X100.782 Y112.055 E10.2548
G1 X99.722 Y112.077 E10.30769
G1 X98.957 Y112.035 E10.34591
G1 X97.881 Y111.892 E10.40007
G1 X97.093 Y111.724 E10.44026
G1 X96.371 Y111.529 E10.47758
G1 X95.886 Y111.35 E10.50337
G1 X94.913 Y110.949 E10.55587
G1 X94.237 Y110.627 E10.59323
G1 X93.489 Y110.157 E10.6373
G1 X92.438 Y109.4 E10.70192
G1 X91.855 Y108.931 E10.73925
G1 X91.322 Y108.398 E10.77686
G1 X90.738 Y107.748 E10.82045
G1 X90.268 Y107.166 E10.85777
G1 X89.947 Y106.678 E10.88692
G1 X89.384 Y105.742 E10.94141
G1 X89.033 Y105.081 E10.97875
G1 X88.807 Y104.536 E11.00818
G1 X88.521 Y103.753 E11.04977
G1 X88.302 Y103.037 E11.08713
G1 X88.177 Y102.415 E11.11878
G1 X87.997 Y101.244 E11.17789
G1 X87.923 Y100.499 E11.21524
G1 X87.955 Y99.446 E11.2678
G1 X88.103 Y98.042 E11.33823
G1 X88.221 Y97.303 E11.37557
G1 X88.406 Y96.616 E11.41106
G1 X88.636 Y95.907 E11.44825
G1 X88.904 Y95.209 E11.48555
G1 X89.166 Y94.683 E11.51487
G1 X89.726 Y93.669 E11.57266
G1 X90.122 Y93.034 E11.60999
G1 X90.562 Y92.471 E11.64564
G1 X91.207 Y91.726 E11.69481
G1 X91.726 Y91.188 E11.7321
G0 F3600 X92.014 Y91.466
G1 F1800 X92.349 Y91.176 E11.75421
G1 X92.96 Y90.682 E11.79341
G1 X93.771 Y90.121 E11.8426
G1 X94.441 Y89.728 E11.88136
G1 X95.087 Y89.396 E11.91759
G1 X95.572 Y89.201 E11.94367
G1 X96.631 Y88.825 E11.99974
G1 X97.328 Y88.62 E12.03598
G1 X98.005 Y88.498 E12.0703
G1 X99.057 Y88.364 E12.12321
G1 X99.782 Y88.312 E12.15947
G1 X100.662 Y88.356 E12.20343
G1 X102.056 Y88.52 E12.27346
G1 X102.772 Y88.645 E12.30972
G1 X103.412 Y88.827 E12.34292
G1 X104.12 Y89.068 E12.38023
G1 X105.027 Y89.454 E12.42941
G1 X105.711 Y89.808 E12.46783
G1 X106.571 Y90.341 E12.51831
G1 X107.206 Y90.805 E12.55755
G1 X107.768 Y91.265 E12.59378
G1 X108.097 Y91.588 E12.61678
G1 X108.819 Y92.348 E12.66908
G1 X109.29 Y92.902 E12.70536
G1 X109.73 Y93.56 E12.74485
G1 X110.382 Y94.674 E12.80925
G1 X110.714 Y95.32 E12.84548
G1 X111.027 Y96.177 E12.891
G1 X111.371 Y97.368 E12.95285
G1 X111.534 Y98.075 E12.98905
G1 X111.609 Y98.67 E13.01896
G1 X111.671 Y99.441 E13.05755
G1 X111.689 Y100.167 E13.09379
G1 X111.653 Y100.686 E13.11974
G1 X111.526 Y101.849 E13.17811
G1 X111.408 Y102.566 E13.21436
G1 X111.171 Y103.38 E13.25666
G1 X110.746 Y104.554 E13.31895
G1 X110.461 Y105.222 E13.35518
G1 X109.991 Y106.029 E13.40177
G1 X109.257 Y107.104 E13.46671
G1 X108.815 Y107.68 E13.50294
G1 X108.132 Y108.366 E13.55123
G1 X107.14 Y109.227 E13.61677
G1 X106.566 Y109.673 E13.65303
G1 X105.859 Y110.098 E13.69419
G1 X104.913 Y110.59 E13.74738
G1 X104.251 Y110.89 E13.78364
G1 X103.654 Y111.089 E13.81504
G1 X102.665 Y111.367 E13.86629
G1 X101.956 Y111.525 E13.90253
G1 X101.516 Y111.582 E13.92467
G1 X100.743 Y111.657 E13.96341
G1 X99.744 Y111.678 E14.01327
G1 X98.979 Y111.636 E14.05149
G1 X97.965 Y111.501 E14.10252
G1 X97.177 Y111.333 E14.14272
G1 X96.476 Y111.143 E14.17896
G1 X96.038 Y110.98 E14.20227
G1 X95.065 Y110.579 E14.25478
G1 X94.41 Y110.266 E14.29099
G1 X93.723 Y109.832 E14.33153
G1 X92.672 Y109.075 E14.39615
G1 X92.107 Y108.619 E14.43238
G1 X91.62 Y108.131 E14.46677
G1 X91.036 Y107.481 E14.51037
G1 X90.581 Y106.915 E14.5466
G1 X90.289 Y106.472 E14.57307
G1 X89.726 Y105.536 E14.62756
G1 X89.387 Y104.894 E14.66378
G1 X89.183 Y104.398 E14.69054
G1 X88.897 Y103.615 E14.73213
G1 X88.685 Y102.92 E14.76838
G1 X88.573 Y102.354 E14.79717
G1 X88.393 Y101.183 E14.85627
G1 X88.322 Y100.46 E14.89252
G1 X88.352 Y99.488 E14.94103
G1 X88.5 Y98.084 E15.01147
G1 X88.616 Y97.367 E15.0477
G1 X88.786 Y96.739 E15.08016
G1 X89.016 Y96.03 E15.11735
G1 X89.278 Y95.353 E15.15357
G1 X89.517 Y94.876 E15.18018
G1 X90.077 Y93.862 E15.23797
G1 X90.462 Y93.247 E15.27417
G1 X90.864 Y92.733 E15.30673
G1 X91.509 Y91.988 E15.35589
G1 X92.014 Y91.466 E15.39213
G0 F3600 X92.302 Y91.745
G1 F1800 X92.601 Y91.487 E15.41183
G1 X93.212 Y90.993 E15.45103
G1 X93.973 Y90.466 E15.49721
G1 X94.643 Y90.073 E15.53596
G1 X95.27 Y89.752 E15.57111
G1 X95.706 Y89.578 E15.59453
G1 X96.765 Y89.202 E15.65059
G1 X97.44 Y89.005 E15.68567
G1 X98.056 Y88.895 E15.71689
G1 X99.108 Y88.761 E15.7698
G1 X99.81 Y88.712 E15.80491
G1 X100.615 Y88.753 E15.84512
G1 X102.009 Y88.917 E15.91515
G1 X102.703 Y89.039 E15.9503
G1 X103.283 Y89.206 E15.98041
G1 X103.991 Y89.447 E16.01773
G1 X104.843 Y89.81 E16.06393
G1 X105.527 Y90.164 E16.10235
G1 X106.335 Y90.664 E16.14976
G1 X106.97 Y91.128 E16.189
G1 X107.514 Y91.575 E16.22412
G1 X107.807 Y91.864 E16.24466
G1 X108.529 Y92.624 E16.29695
G1 X108.984 Y93.161 E16.33207
G1 X109.385 Y93.762 E16.36811
G1 X110.037 Y94.876 E16.43251
G1 X110.357 Y95.503 E16.46763
G1 X110.643 Y96.288 E16.50931
G1 X110.987 Y97.479 E16.57116
G1 X111.143 Y98.165 E16.60626
G1 X111.21 Y98.702 E16.63326
G1 X111.272 Y99.473 E16.67185
G1 X111.289 Y100.177 E16.70698
G1 X111.255 Y100.643 E16.73029
G1 X111.128 Y101.806 E16.78866
G1 X111.012 Y102.5 E16.82376
G1 X110.795 Y103.243 E16.86238
G1 X110.37 Y104.417 E16.92467
G1 X110.093 Y105.065 E16.95983
G1 X109.66 Y105.803 E17.00252
G1 X108.926 Y106.878 E17.06746
G1 X108.497 Y107.436 E17.10257
G1 X107.87 Y108.064 E17.14685
G1 X106.878 Y108.925 E17.21238
G1 X106.321 Y109.356 E17.24752
G1 X105.675 Y109.744 E17.28511
G1 X104.729 Y110.236 E17.33831
G1 X104.087 Y110.524 E17.37342
G1 X103.546 Y110.704 E17.40186
G1 X102.557 Y110.982 E17.45311
G1 X101.869 Y111.133 E17.48826
G1 X101.478 Y111.184 E17.50793
G1 X100.705 Y111.259 E17.54667
G1 X99.766 Y111.279 E17.59353
G1 X99.001 Y111.237 E17.63176
G1 X98.048 Y111.11 E17.67972
G1 X97.26 Y110.942 E17.71992
G1 X96.581 Y110.756 E17.75504
G1 X96.191 Y110.61 E17.77582
G1 X95.218 Y110.209 E17.82832
G1 X94.583 Y109.905 E17.86344
G1 X93.956 Y109.508 E17.90047
G1 X92.905 Y108.751 E17.96509
G1 X92.358 Y108.308 E18.00021
G1 X91.917 Y107.864 E18.03143
G1 X91.333 Y107.214 E18.07502
G1 X90.893 Y106.664 E18.11016
G1 X90.632 Y106.266 E18.13391
G1 X90.069 Y105.33 E18.1884
G1 X89.741 Y104.707 E18.22353
G1 X89.558 Y104.261 E18.24758
G1 X89.272 Y103.478 E18.28917
G1 X89.069 Y102.804 E18.32428
G1 X88.968 Y102.293 E18.35027
G1 X88.788 Y101.122 E18.40938
G1 X88.721 Y100.421 E18.44451
G1 X88.75 Y99.53 E18.48899
G1 X88.898 Y98.126 E18.55942
G1 X89.012 Y97.431 E18.59456
G1 X89.167 Y96.863 E18.62393
G1 X89.397 Y96.154 E18.66112
G1 X89.651 Y95.498 E18.69621
G1 X89.867 Y95.07 E18.72013
G1 X90.427 Y94.056 E18.77792
G1 X90.801 Y93.46 E18.81303
G1 X91.167 Y92.995 E18.84255
G1 X91.812 Y92.25 E18.89171
G1 X92.302 Y91.745 E18.92682
G0 F3600 X92.589 Y92.024
G1 F1800 X92.852 Y91.798 E18.94412
G1 X93.463 Y91.304 E18.98332
G1 X94.175 Y90.811 E19.02652
G1 X94.845 Y90.418 E19.06528
G1 X95.452 Y90.109 E19.09926
G1 X95.839 Y89.955 E19.12004
G1 X96.898 Y89.579 E19.1761
G1 X97.552 Y89.39 E19.21007
G1 X98.106 Y89.291 E19.23814
G1 X99.158 Y89.157 E19.29105
G1 X99.837 Y89.111 E19.32501
G1 X100.569 Y89.151 E19.36158
G1 X101.963 Y89.315 E19.43161
G1 X102.633 Y89.434 E19.46556
G1 X103.154 Y89.584 E19.4926
G1 X103.862 Y89.825 E19.52992
G1 X104.659 Y90.165 E19.57315
G1 X105.343 Y90.519 E19.61157
G1 X106.099 Y90.987 E19.65593
G1 X106.734 Y91.451 E19.69517
G1 X107.259 Y91.884 E19.72912
G1 X107.517 Y92.139 E19.74722
G1 X108.239 Y92.899 E19.79951
G1 X108.678 Y93.42 E19.8335
G1 X109.04 Y93.964 E19.8661
G1 X109.692 Y95.078 E19.9305
G1 X110.001 Y95.685 E19.96448
G1 X110.258 Y96.399 E20.00234
G1 X110.602 Y97.59 E20.06419
G1 X110.752 Y98.254 E20.09815
G1 X110.811 Y98.734 E20.12228
G1 X110.873 Y99.505 E20.16087
G1 X110.888 Y100.186 E20.19485
G1 X110.858 Y100.6 E20.21556
G1 X110.731 Y101.763 E20.27393
G1 X110.617 Y102.434 E20.30788
G1 X110.419 Y103.107 E20.34288
G1 X109.994 Y104.281 E20.40517
G1 X109.725 Y104.907 E20.43917
G1 X109.33 Y105.578 E20.47801
G1 X108.596 Y106.653 E20.54295
G1 X108.18 Y107.191 E20.57688
G1 X107.608 Y107.762 E20.61721
G1 X106.616 Y108.623 E20.68274
G1 X106.076 Y109.039 E20.71675
G1 X105.49 Y109.389 E20.7508
G1 X104.544 Y109.881 E20.804
G1 X103.923 Y110.159 E20.83794
G1 X103.438 Y110.319 E20.86342
G1 X102.449 Y110.597 E20.91468
G1 X101.783 Y110.742 E20.94868
G1 X101.439 Y110.786 E20.96598
G1 X100.666 Y110.861 E21.00473
G1 X99.788 Y110.879 E21.04854
G1 X99.023 Y110.837 E21.08676
G1 X98.132 Y110.719 E21.13161
G1 X97.344 Y110.551 E21.1718
G1 X96.687 Y110.37 E21.2058
G1 X96.343 Y110.24 E21.22415
G1 X95.37 Y109.839 E21.27665
G1 X94.757 Y109.544 E21.31059
G1 X94.19 Y109.183 E21.34413
G1 X93.139 Y108.426 E21.40875
G1 X92.611 Y107.997 E21.44269
G1 X92.215 Y107.596 E21.4708
G1 X91.631 Y106.946 E21.5144
G1 X91.206 Y106.414 E21.54837
G1 X90.975 Y106.06 E21.56946
G1 X90.412 Y105.124 E21.62395
G1 X90.096 Y104.52 E21.65796
G1 X89.934 Y104.124 E21.67931
G1 X89.648 Y103.341 E21.7209
G1 X89.452 Y102.689 E21.75486
G1 X89.363 Y102.232 E21.77809
G1 X89.183 Y101.061 E21.8372
