;FLAVOR:Marlin
;TIME:536
;Filament used: 0.375127m
;Layer height: 0.16
;Generated with Cura_SteamEngine 3.6.0
M140 S65
M105
M190 S65
M104 S200
M105
M109 S200
M82 ;absolute extrusion mode
G21 ;metric values
G90 ;absolute positioning
M82 ;set extruder to absolute mode
M107 ;start with the fan off
G28 X0 Y0 ;move X/Y to min endstops
G28 Z0 ;move Z to min endstops
G1 Z15.0 F80 ;move the platform down 15mm
G92 E0 ;zero the extruded length
G1 F200 E6 ;extrude 6 mm of feed stock
G92 E0 ;zero the extruded length again
G1 F80
;Put printing message on LCD screen
M117 Printing...
G92 E0
G1 F2400 E-3.5
;LAYER_COUNT:164
;LAYER:0
M107
G0 F2400 X88.3 Y87.864 Z0.3
;TYPE:SKIRT
G1 F2400 E0
G1 F1200 X89.969 Y86.246 E0.11597
G1 X90.493 Y85.794 E0.1505
G1 X91.066 Y85.404 E0.18508
G1 X91.431 Y85.203 E0.20587
G1 X97.286 Y82.234 E0.53338
G1 X97.921 Y81.957 E0.56795
G1 X98.584 Y81.755 E0.60252
G1 X99.265 Y81.63 E0.63707
G1 X99.956 Y81.585 E0.67161
G1 X100.648 Y81.62 E0.70618
G1 X101.331 Y81.734 E0.74073
G1 X101.996 Y81.927 E0.77527
G1 X102.709 Y82.231 E0.81394
G1 X108.549 Y85.186 E1.14048
G1 X109.148 Y85.534 E1.17504
G1 X109.703 Y85.949 E1.20961
G1 X109.998 Y86.215 E1.22943
G1 X111.68 Y87.832 E1.34583
G1 X112.151 Y88.34 E1.3804
G1 X112.736 Y89.188 E1.43179
G1 X113.654 Y90.8 E1.52434
G1 X113.961 Y91.42 E1.55886
G1 X114.273 Y92.362 E1.60837
G1 X114.826 Y94.655 E1.72604
G1 X114.949 Y95.337 E1.76062
G1 X114.992 Y95.968 E1.79217
G1 X115.108 Y103.356 E2.16081
G1 X115.313 Y106.461 E2.31605
G1 X115.319 Y107.153 E2.35058
G1 X115.245 Y107.842 E2.38515
G1 X115.092 Y108.517 E2.41968
G1 X114.862 Y109.171 E2.45427
G1 X114.559 Y109.793 E2.48879
G1 X114.185 Y110.377 E2.52338
G1 X113.747 Y110.913 E2.55792
G1 X112.99 Y111.608 E2.60919
G1 X108.158 Y115.334 E2.9136
G1 X107.586 Y115.725 E2.94817
G1 X106.973 Y116.047 E2.98272
G1 X106.327 Y116.296 E3.01726
G1 X105.656 Y116.469 E3.05183
G1 X104.97 Y116.564 E3.08638
G1 X104.342 Y116.581 E3.11772
G1 X100.635 Y116.487 E3.30273
G1 X95.629 Y116.575 E3.55251
G1 X94.937 Y116.547 E3.58707
G1 X94.253 Y116.44 E3.62161
G1 X93.586 Y116.254 E3.65615
G1 X92.944 Y115.993 E3.69073
G1 X92.337 Y115.66 E3.72527
G1 X91.868 Y115.333 E3.75379
G1 X87.028 Y111.613 E4.05834
G1 X86.504 Y111.16 E4.0929
G1 X86.036 Y110.65 E4.12743
G1 X85.629 Y110.089 E4.16201
G1 X85.291 Y109.485 E4.19654
G1 X85.024 Y108.846 E4.2311
G1 X84.832 Y108.181 E4.26563
G1 X84.718 Y107.497 E4.30022
G1 X84.692 Y106.553 E4.34734
G1 X85.021 Y100.054 E4.67199
G1 X85.047 Y95.862 E4.88113
G1 X85.091 Y95.171 E4.91568
G1 X85.217 Y94.484 E4.95052
G1 X85.729 Y92.376 E5.05875
G1 X85.931 Y91.713 E5.09333
G1 X86.337 Y90.836 E5.14154
G1 X87.254 Y89.216 E5.23441
G1 X87.63 Y88.634 E5.26898
G1 X88.3 Y87.864 E5.3199
G0 F2400 X88.578 Y88.151
G1 F1200 X90.247 Y86.533 E5.43588
G1 X90.754 Y86.097 E5.46924
G1 X91.31 Y85.725 E5.50261
G1 X91.612 Y85.559 E5.51981
G1 X97.467 Y82.59 E5.84732
G1 X98.081 Y82.324 E5.88071
G1 X98.722 Y82.133 E5.91408
G1 X99.381 Y82.019 E5.94744
G1 X100.05 Y81.985 E5.98086
G1 X100.717 Y82.031 E6.01422
G1 X101.374 Y82.156 E6.04758
G1 X102.012 Y82.359 E6.08098
G1 X102.528 Y82.588 E6.10915
G1 X108.368 Y85.543 E6.43568
G1 X108.946 Y85.88 E6.46906
G1 X109.721 Y86.503 E6.51867
G1 X111.403 Y88.12 E6.63508
G1 X111.857 Y88.612 E6.66848
G1 X112.388 Y89.386 E6.7153
G1 X113.306 Y90.998 E6.80785
G1 X113.602 Y91.598 E6.84123
G1 X113.884 Y92.456 E6.88629
G1 X114.437 Y94.749 E7.00397
G1 X114.555 Y95.408 E7.03737
G1 X114.592 Y95.974 E7.06567
G1 X114.708 Y103.368 E7.4346
G1 X114.914 Y106.487 E7.59055
G1 X114.918 Y107.156 E7.62392
G1 X114.842 Y107.821 E7.65732
G1 X114.688 Y108.472 E7.69069
G1 X114.457 Y109.1 E7.72408
G1 X114.153 Y109.696 E7.75746
G1 X113.78 Y110.251 E7.79082
G1 X113.344 Y110.758 E7.82418
G1 X112.746 Y111.292 E7.86418
G1 X107.914 Y115.018 E8.16859
G1 X107.36 Y115.394 E8.202
G1 X106.766 Y115.701 E8.23536
G1 X106.14 Y115.936 E8.26872
G1 X105.489 Y116.094 E8.30214
G1 X104.825 Y116.173 E8.3355
G1 X104.352 Y116.181 E8.3591
G1 X100.638 Y116.087 E8.54445
G1 X95.622 Y116.175 E8.79474
G1 X94.954 Y116.147 E8.82809
G1 X94.293 Y116.039 E8.86151
G1 X93.651 Y115.853 E8.89486
G1 X93.035 Y115.592 E8.92823
G1 X92.454 Y115.26 E8.96162
G1 X92.111 Y115.016 E8.98262
G1 X87.271 Y111.296 E9.28717
G1 X86.766 Y110.857 E9.32055
G1 X86.317 Y110.362 E9.35389
G1 X85.93 Y109.816 E9.38728
G1 X85.611 Y109.228 E9.42066
G1 X85.364 Y108.606 E9.45405
G1 X85.194 Y107.959 E9.48742
G1 X85.101 Y107.296 E9.52082
G1 X85.091 Y106.573 E9.5569
G1 X85.421 Y100.054 E9.88255
G1 X85.447 Y95.865 E10.09154
G1 X85.491 Y95.197 E10.12494
G1 X85.605 Y94.578 E10.15634
G1 X86.117 Y92.47 E10.26457
G1 X86.314 Y91.831 E10.29793
G1 X86.686 Y91.033 E10.34185
G1 X87.603 Y89.413 E10.43473
G1 X87.966 Y88.852 E10.46806
G1 X88.578 Y88.151 E10.51449
G0 F2400 X88.857 Y88.438
G1 F1200 X90.526 Y86.82 E10.63046
G1 X91.015 Y86.401 E10.66259
G1 X91.793 Y85.916 E10.70833
G1 X97.648 Y82.947 E11.03584
G1 X98.24 Y82.692 E11.068
G1 X98.859 Y82.512 E11.10016
G1 X99.496 Y82.41 E11.13235
G1 X100.14 Y82.387 E11.1645
G1 X100.782 Y82.444 E11.19665
G1 X101.412 Y82.58 E11.22881
G1 X102.021 Y82.794 E11.26101
G1 X102.348 Y82.945 E11.27898
G1 X108.188 Y85.9 E11.60551
G1 X108.744 Y86.226 E11.63767
G1 X109.444 Y86.791 E11.68255
G1 X111.126 Y88.408 E11.79895
G1 X111.562 Y88.883 E11.83112
G1 X112.041 Y89.584 E11.87348
G1 X112.959 Y91.196 E11.96603
G1 X113.242 Y91.775 E11.99818
G1 X113.495 Y92.55 E12.03885
G1 X114.048 Y94.843 E12.15653
G1 X114.16 Y95.478 E12.1887
G1 X114.192 Y95.981 E12.21385
G1 X114.308 Y103.382 E12.58313
G1 X114.515 Y106.514 E12.73973
G1 X114.517 Y107.158 E12.77186
G1 X114.44 Y107.798 E12.80402
G1 X114.284 Y108.424 E12.8362
G1 X114.052 Y109.025 E12.86834
G1 X113.748 Y109.594 E12.90053
G1 X113.375 Y110.12 E12.9327
G1 X112.94 Y110.596 E12.96487
G1 X112.501 Y110.975 E12.9938
G1 X107.669 Y114.701 E13.29822
G1 X107.135 Y115.062 E13.33038
G1 X106.561 Y115.355 E13.36253
G1 X105.955 Y115.574 E13.39468
G1 X105.326 Y115.716 E13.42685
G1 X104.363 Y115.781 E13.475
G1 X100.641 Y115.687 E13.66075
G1 X95.615 Y115.775 E13.91154
G1 X94.971 Y115.747 E13.9437
G1 X94.336 Y115.638 E13.97584
G1 X93.718 Y115.452 E14.00804
G1 X93.129 Y115.192 E14.04016
G1 X92.355 Y114.699 E14.08595
G1 X87.515 Y110.979 E14.3905
G1 X87.029 Y110.555 E14.42267
G1 X86.6 Y110.074 E14.45483
G1 X86.233 Y109.544 E14.48699
G1 X85.934 Y108.973 E14.51915
G1 X85.709 Y108.369 E14.5513
G1 X85.56 Y107.742 E14.58346
G1 X85.49 Y107.101 E14.61563
G1 X85.491 Y106.593 E14.64097
G1 X85.821 Y100.076 E14.96652
G1 X85.847 Y95.867 E15.17651
G1 X85.891 Y95.224 E15.20867
G1 X85.994 Y94.673 E15.23663
G1 X86.506 Y92.565 E15.34486
G1 X86.697 Y91.949 E15.37704
G1 X87.034 Y91.23 E15.41665
G1 X87.951 Y89.61 E15.50952
G1 X88.302 Y89.07 E15.54165
G1 X88.857 Y88.438 E15.58362
G1 F2400 E12.08362
;MESH:licornestl.stl
G0 F2400 X91.017 Y93.375
G0 X92.134 Y94.007
G0 X97.703 Y108.66
;TYPE:WALL-INNER
G1 F2400 E15.58362
G1 F1200 X95.671 Y109.45 E15.69239
G1 X94.744 Y108.732 E15.75088
G1 X92.997 Y107.427 E15.85968
G1 X91.938 Y106.587 E15.92711
G1 X92.167 Y106.148 E15.95181
G1 X92.813 Y104.353 E16.04699
G1 X93.117 Y102.354 E16.14787
G1 X92.953 Y100.18 E16.25664
G1 X92.242 Y97.885 E16.3765
G1 X92.018 Y96.119 E16.46532
G1 X92.492 Y94.148 E16.56645
G1 X93.269 Y92.778 E16.64503
G1 X94.712 Y91.38 E16.74527
G1 X97.083 Y90.253 E16.87624
G1 X98.943 Y89.384 E16.97866
G1 X100.002 Y88.742 E17.04045
G1 X101.061 Y89.378 E17.10208
G1 X102.918 Y90.248 E17.20439
G1 X105.291 Y91.375 E17.33545
G1 X106.736 Y92.773 E17.43576
G1 X107.513 Y94.143 E17.51433
G1 X107.988 Y96.118 E17.61568
G1 X107.763 Y97.885 E17.70455
G1 X107.052 Y100.181 E17.82446
G1 X106.887 Y102.355 E17.93323
G1 X107.19 Y104.354 E18.0341
G1 X107.836 Y106.15 E18.12933
G1 X108.067 Y106.59 E18.15412
G1 X107.017 Y107.423 E18.22099
G1 X105.258 Y108.736 E18.3305
G1 X104.331 Y109.456 E18.38905
G1 X102.301 Y108.668 E18.49769
G1 X100.002 Y108.527 E18.61261
G1 X97.703 Y108.66 E18.7275
G0 F2400 X97.789 Y109.056
G1 F1200 X95.605 Y109.905 E18.8444
G1 X94.502 Y109.05 E18.91403
G1 X92.748 Y107.74 E19.02325
G1 X91.43 Y106.695 E19.10716
G1 X91.8 Y105.987 E19.14702
G1 X92.423 Y104.254 E19.23889
G1 X92.715 Y102.339 E19.33554
G1 X92.558 Y100.255 E19.4398
G1 X91.849 Y97.97 E19.55916
G1 X91.612 Y96.097 E19.65335
G1 X92.116 Y94 E19.76095
G1 X92.949 Y92.532 E19.84516
G1 X94.482 Y91.047 E19.95164
G1 X96.911 Y89.892 E20.08583
G1 X98.754 Y89.031 E20.18731
G1 X100.001 Y88.274 E20.26009
G1 X101.249 Y89.025 E20.33276
G1 X103.09 Y89.887 E20.43418
G1 X105.521 Y91.042 E20.56845
G1 X107.056 Y92.527 E20.67501
G1 X107.889 Y93.995 E20.75922
G1 X108.394 Y96.096 E20.86702
G1 X108.156 Y97.968 E20.96117
G1 X107.447 Y100.256 E21.08067
G1 X107.289 Y102.34 E21.18494
G1 X107.58 Y104.255 E21.28158
G1 X108.203 Y105.989 E21.3735
G1 X108.575 Y106.698 E21.41345
G1 X107.256 Y107.744 E21.49743
G1 X105.5 Y109.054 E21.60673
G1 X104.397 Y109.911 E21.67642
G1 X102.214 Y109.063 E21.79326
G1 X100.001 Y108.928 E21.90387
G1 X97.789 Y109.056 E22.01441
G0 F2400 X97.875 Y109.452
;TYPE:WALL-OUTER
G1 F1200 X95.539 Y110.36 E22.13945
G1 X94.26 Y109.368 E22.2202
G1 X92.509 Y108.06 E22.32924
G1 X90.922 Y106.802 E22.43028
G1 X91.433 Y105.826 E22.48524
G1 X92.033 Y104.155 E22.57382
G1 X92.313 Y102.324 E22.66623
G1 X92.163 Y100.33 E22.76599
G1 X91.456 Y98.055 E22.88484
G1 X91.206 Y96.075 E22.98441
G1 X91.74 Y93.852 E23.09847
G1 X92.629 Y92.286 E23.18831
G1 X94.252 Y90.714 E23.30104
G1 X96.739 Y89.531 E23.43844
G1 X98.565 Y88.678 E23.53899
G1 X100.001 Y87.807 E23.62278
G1 X101.437 Y88.672 E23.70641
G1 X103.262 Y89.526 E23.80694
G1 X105.751 Y90.709 E23.94443
G1 X107.376 Y92.281 E24.05723
G1 X108.265 Y93.848 E24.14711
G1 X108.8 Y96.073 E24.26128
G1 X108.549 Y98.053 E24.36085
G1 X107.842 Y100.331 E24.47985
G1 X107.691 Y102.325 E24.57961
G1 X107.97 Y104.156 E24.67202
G1 X108.57 Y105.828 E24.76064
G1 X109.083 Y106.806 E24.81574
G1 X107.495 Y108.065 E24.91684
G1 X105.742 Y109.372 E25.02593
G1 X104.464 Y110.366 E25.10671
G1 X102.127 Y109.458 E25.23179
G1 X100 Y109.329 E25.33811
G1 X97.875 Y109.452 E25.4443
G0 F2400 X97.689 Y109.524
G0 X97.509 Y109.057
G0 X97.619 Y108.274
;TYPE:SKIN
G1 F1200 X95.735 Y109.007 E25.54516
G1 X94.98 Y108.422 E25.59281
G1 X93.231 Y107.115 E25.70174
G1 X92.433 Y106.481 E25.75259
G1 X92.525 Y106.304 E25.76254
G1 X93.193 Y104.449 E25.8609
G1 X93.509 Y102.369 E25.96586
G1 X93.339 Y100.106 E26.07908
G1 X92.624 Y97.801 E26.19949
G1 X92.414 Y96.142 E26.28291
G1 X92.858 Y94.294 E26.37774
G1 X93.581 Y93.018 E26.4509
G1 X94.934 Y91.707 E26.5449
G1 X97.251 Y90.606 E26.67288
G1 X99.127 Y89.729 E26.77619
G1 X100.003 Y89.197 E26.82733
G1 X100.877 Y89.723 E26.87822
G1 X102.751 Y90.601 E26.98147
G1 X105.066 Y91.7 E27.10931
G1 X106.425 Y93.016 E27.20369
G1 X107.147 Y94.289 E27.27671
G1 X107.592 Y96.141 E27.37174
G1 X107.381 Y97.801 E27.45522
G1 X106.666 Y100.107 E27.57567
G1 X106.495 Y102.37 E27.68889
G1 X106.81 Y104.45 E27.79385
G1 X107.478 Y106.308 E27.89235
G1 X107.571 Y106.485 E27.90233
G1 X106.783 Y107.111 E27.95254
G1 X105.022 Y108.426 E28.06219
G1 X104.265 Y109.013 E28.10998
G1 X102.385 Y108.282 E28.21061
G1 X100.002 Y108.137 E28.32972
G1 X97.619 Y108.274 E28.4488
G0 F2400 X92.718 Y106.295
G1 F1200 X93.556 Y107.133 E28.50793
G1 X93.626 Y107.203
G0 F2400 X92.867 Y105.878
G1 F1200 X95.783 Y108.794 E28.71367
G0 F2400 X96.191 Y108.636
G1 F1200 X93.017 Y105.462 E28.93761
G0 F2400 X93.167 Y105.047
G1 F1200 X96.597 Y108.477 E29.17962
G0 F2400 X97.005 Y108.318
G1 F1200 X93.317 Y104.631 E29.43979
G0 F2400 X93.417 Y104.165
G1 F1200 X97.412 Y108.16 E29.72166
G0 F2400 X97.894 Y108.077
G1 F1200 X93.491 Y103.673 E30.03235
G0 F2400 X93.566 Y103.183
G1 F1200 X98.429 Y108.046 E30.37546
G0 F2400 X98.964 Y108.015
G1 F1200 X93.641 Y102.692 E30.75103
G0 F2400 X93.673 Y102.159
G1 F1200 X99.499 Y107.985 E31.16208
G0 F2400 X100.039 Y107.958
G1 F1200 X93.628 Y101.547 E31.61441
G0 F2400 X93.582 Y100.935
G1 F1200 X100.641 Y107.995 E32.1125
G0 F2400 X101.243 Y108.031
G1 F1200 X93.536 Y100.324 E32.65627
G0 F2400 X93.367 Y99.59
G1 F1200 X101.846 Y108.068 E33.25447
G0 F2400 X102.461 Y108.118
G1 F1200 X93.113 Y98.77 E33.91403
G1 X93.043 Y98.7
G0 F2400 X92.858 Y97.949
G1 F1200 X103.388 Y108.479 E34.65697
G1 X103.458 Y108.549
G0 F2400 X104.261 Y108.786
G1 F1200 X92.737 Y97.262 E35.47005
G0 F2400 X92.655 Y96.614
G1 F1200 X104.58 Y108.54 E36.31146
G0 F2400 X104.898 Y108.292
G1 F1200 X92.627 Y96.021 E37.17725
G0 F2400 X92.737 Y95.565
G1 F1200 X105.222 Y108.05 E38.05813
G0 F2400 X105.546 Y107.809
G1 F1200 X92.846 Y95.109 E38.95419
G0 F2400 X92.956 Y94.653
G1 F1200 X105.87 Y107.567 E39.86534
G0 F2400 X106.194 Y107.325
G1 F1200 X93.099 Y94.231 E40.78923
G0 F2400 X93.304 Y93.87
G1 F1200 X106.517 Y107.082 E41.72144
G0 F2400 X106.836 Y106.836
G1 F1200 X93.509 Y93.509 E42.66173
G0 F2400 X93.713 Y93.147
G1 F1200 X107.152 Y106.587 E43.60996
G0 F2400 X107.2 Y106.068
G1 F1200 X93.997 Y92.865 E44.5415
G0 F2400 X94.284 Y92.587
G1 F1200 X106.882 Y105.185 E45.43036
G1 X106.952 Y105.255
G0 F2400 X106.611 Y104.349
G1 F1200 X94.571 Y92.309 E46.27985
G0 F2400 X94.859 Y92.03
G1 F1200 X106.511 Y103.683 E47.10199
G0 F2400 X106.41 Y103.016
G1 F1200 X95.182 Y91.788 E47.89419
G0 F2400 X95.566 Y91.606
G1 F1200 X106.315 Y102.355 E48.65259
G0 F2400 X106.355 Y101.829
G1 F1200 X95.949 Y91.423 E49.38679
G0 F2400 X96.333 Y91.242
G1 F1200 X106.394 Y101.303 E50.09665
G0 F2400 X106.434 Y100.777
G1 F1200 X96.716 Y91.059 E50.7823
G0 F2400 X97.099 Y90.877
G1 F1200 X106.474 Y100.251 E51.44373
G0 F2400 X106.575 Y99.787
G1 F1200 X97.484 Y90.696 E52.08515
G0 F2400 X97.869 Y90.516
G1 F1200 X106.709 Y99.355 E52.70882
G0 F2400 X106.843 Y98.924
G1 F1200 X98.255 Y90.335 E53.31479
G0 F2400 X98.64 Y90.155
G1 F1200 X106.977 Y98.492 E53.90301
G0 F2400 X107.111 Y98.06
G1 F1200 X99.026 Y89.975 E54.47345
G0 F2400 X99.394 Y89.777
G1 F1200 X107.223 Y97.606 E55.02582
G0 F2400 X107.287 Y97.104
G1 F1200 X99.746 Y89.564 E55.55785
G0 F2400 X100.387 Y89.639
G1 F1200 X107.35 Y96.602 E56.04912
G0 F2400 X107.39 Y96.076
G1 F1200 X101.554 Y90.24 E56.46089
G1 X101.484 Y90.17
G0 F2400 X102.618 Y90.739
G1 F1200 X107.212 Y95.332 E56.78498
G0 F2400 X107.034 Y94.588
G1 F1200 X103.693 Y91.248 E57.02067
G1 X103.623 Y91.178
G0 F2400 X104.769 Y91.758
G1 F1200 X106.466 Y93.455 E57.1404
G1 X106.536 Y93.525
;MESH:NONMESH
G0 F2400 X97.724 Y108.552
;TIME_ELAPSED:67.992120
;LAYER:1
M140 S65
M106 S255
;MESH:licornestl.stl
G0 F3600 X97.724 Y108.552 Z0.46
;TYPE:WALL-INNER
G1 F2220 X95.717 Y109.333 E57.19771
G1 X94.804 Y108.625 E57.22845
G1 X93.064 Y107.325 E57.28624
G1 X92.032 Y106.508 E57.32127
G1 X92.256 Y106.08 E57.33412
G1 X92.897 Y104.301 E57.38443
G1 X93.197 Y102.321 E57.43772
G1 X93.035 Y100.167 E57.4952
G1 X92.331 Y97.895 E57.55848
G1 X92.11 Y96.151 E57.60526
G1 X92.579 Y94.201 E57.65863
G1 X93.346 Y92.849 E57.69999
G1 X94.772 Y91.467 E57.75282
G1 X97.118 Y90.352 E57.82194
G1 X98.96 Y89.492 E57.87603
G1 X100.003 Y88.859 E57.90849
G1 X101.045 Y89.486 E57.94085
G1 X102.884 Y90.347 E57.99488
G1 X105.231 Y91.462 E58.06402
G1 X106.659 Y92.844 E58.1169
G1 X107.427 Y94.198 E58.15831
G1 X107.896 Y96.148 E58.21168
G1 X107.674 Y97.895 E58.25854
G1 X106.97 Y100.168 E58.32185
G1 X106.806 Y102.322 E58.37933
G1 X107.107 Y104.303 E58.43265
G1 X107.747 Y106.082 E58.48295
G1 X107.972 Y106.511 E58.49584
G1 X106.94 Y107.33 E58.5309
G1 X105.198 Y108.63 E58.58874
G1 X104.285 Y109.339 E58.61949
G1 X102.28 Y108.558 E58.67675
G1 X100.002 Y108.421 E58.73747
G1 X97.724 Y108.552 E58.79818
G0 F3600 X97.81 Y108.948
G1 F2220 X95.651 Y109.788 E58.85982
G1 X94.562 Y108.943 E58.8965
G1 X92.825 Y107.646 E58.95418
G1 X91.524 Y106.615 E58.99835
G1 X91.889 Y105.919 E59.01926
G1 X92.507 Y104.202 E59.06782
G1 X92.795 Y102.306 E59.11885
G1 X92.64 Y100.242 E59.17392
G1 X91.938 Y97.98 E59.23694
G1 X91.704 Y96.129 E59.28658
G1 X92.203 Y94.053 E59.34339
G1 X93.026 Y92.603 E59.38776
G1 X94.542 Y91.134 E59.44393
G1 X96.946 Y89.991 E59.51475
G1 X98.771 Y89.139 E59.56835
G1 X100.002 Y88.392 E59.60666
G1 X101.233 Y89.133 E59.64489
G1 X103.056 Y89.986 E59.69844
G1 X105.461 Y91.129 E59.7693
G1 X106.979 Y92.598 E59.8255
G1 X107.803 Y94.051 E59.86995
G1 X108.302 Y96.126 E59.92673
