;FLAVOR:Marlin
;TIME:2459
;Filament used: 1.04838m
;Layer height: 0.12
;MINX:76.435
;MINY:86.062
;MINZ:0.2
;MAXX:123.565
;MAXY:113.94
;MAXZ:12.8
;Generated with Cura_SteamEngine 4.4.1
M140 S60
M105
M190 S60
M104 S200
M105
M109 S200
M82 ;absolute extrusion mode
; START CODE
G21 ;metric values
G90 ;absolute positioning
M82 ;set extruder to absolute mode
M107 ;start with the fan off
G28 X0 Y0 ;move X/Y to min endstops
G28 Z0 ;move Z to min endstops
G1 Z15.0 F120 ;move the platform down 15mm
G92 E0 ;zero the extruded length
G1 F200 E6 ;extrude 6 mm of feed stock
G92 E0 ;zero the extruded length again
G1 F120
;Put printing message on LCD screen
M117 Printing...
G92 E0
G92 E0
G1 F2400 E-2.5
;LAYER_COUNT:106
;LAYER:0
M107
G0 F3600 X80.1 Y88.972 Z0.2
;TYPE:SKIRT
G1 F2400 E0
G1 F900 X80.355 Y88.749 E0.01127
G1 X80.92 Y88.301 E0.03525
G1 X81.011 Y88.232 E0.03905
G1 X81.275 Y88.036 E0.04998
G1 X81.515 Y87.872 E0.05965
G1 X81.781 Y87.706 E0.07008
G1 X81.93 Y87.618 E0.07584
G1 X82.479 Y87.311 E0.09676
G1 X82.744 Y87.177 E0.10663
G1 X83.058 Y87.034 E0.11811
G1 X83.207 Y86.97 E0.1235
G1 X83.804 Y86.73 E0.1449
G1 X84.09 Y86.629 E0.15499
G1 X84.458 Y86.516 E0.1678
G1 X84.621 Y86.47 E0.17343
G1 X85.054 Y86.359 E0.1883
G1 X85.285 Y86.308 E0.19616
G1 X85.808 Y86.21 E0.21386
G1 X86.032 Y86.175 E0.2214
G1 X86.488 Y86.119 E0.23668
G1 X86.737 Y86.097 E0.245
G1 X87.304 Y86.067 E0.26388
G1 X87.547 Y86.062 E0.27197
G1 X88.022 Y86.069 E0.28777
G1 X88.26 Y86.081 E0.29569
G1 X88.951 Y86.137 E0.31875
G1 X89.021 Y86.143 E0.32109
G1 X91.676 Y86.411 E0.40984
G1 X94.442 Y86.612 E0.50208
G1 X97.099 Y86.729 E0.59054
G1 X99.863 Y86.773 E0.68248
G1 X102.594 Y86.739 E0.77332
G1 X105.322 Y86.629 E0.86413
G1 X107.999 Y86.443 E0.95338
G1 X111.256 Y86.114 E1.06226
G1 X111.412 Y86.102 E1.06747
G1 X111.971 Y86.07 E1.08609
G1 X112.226 Y86.064 E1.09457
G1 X112.817 Y86.072 E1.11423
G1 X113.055 Y86.083 E1.12216
G1 X113.542 Y86.122 E1.1384
G1 X113.785 Y86.15 E1.14654
G1 X114.289 Y86.225 E1.16349
G1 X114.534 Y86.27 E1.17177
G1 X114.983 Y86.369 E1.18707
G1 X115.204 Y86.425 E1.19465
G1 X115.76 Y86.585 E1.21389
G1 X116.088 Y86.697 E1.22542
G1 X116.791 Y86.975 E1.25056
G1 X116.909 Y87.024 E1.25481
G1 X117.179 Y87.142 E1.26461
G1 X117.425 Y87.261 E1.2737
G1 X117.7 Y87.407 E1.28406
G1 X117.859 Y87.497 E1.29013
G1 X118.314 Y87.769 E1.30777
G1 X118.587 Y87.949 E1.31864
G1 X119.276 Y88.451 E1.347
G1 X119.366 Y88.519 E1.35075
G1 X119.546 Y88.659 E1.35833
G1 X119.719 Y88.803 E1.36582
G1 X119.873 Y88.939 E1.37265
G1 X120.052 Y89.107 E1.38082
G1 X120.526 Y89.587 E1.40325
G1 X120.689 Y89.764 E1.41126
G1 X120.986 Y90.108 E1.42637
G1 X121.148 Y90.311 E1.43501
G1 X121.492 Y90.773 E1.45417
G1 X121.625 Y90.963 E1.46188
G1 X121.86 Y91.325 E1.47624
G1 X121.979 Y91.522 E1.48389
G1 X122.266 Y92.033 E1.50339
G1 X122.382 Y92.259 E1.51183
G1 X122.577 Y92.672 E1.52703
G1 X122.67 Y92.886 E1.53479
G1 X122.855 Y93.354 E1.55152
G1 X122.937 Y93.584 E1.55965
G1 X123.11 Y94.127 E1.5786
G1 X123.173 Y94.35 E1.58631
G1 X123.287 Y94.808 E1.60201
G1 X123.34 Y95.057 E1.61047
G1 X123.41 Y95.457 E1.62398
G1 X123.44 Y95.662 E1.63087
G1 X123.506 Y96.23 E1.64989
G1 X123.529 Y96.568 E1.66116
G1 X123.552 Y97.628 E1.69642
G1 X123.553 Y97.696 E1.69868
G1 X123.565 Y102.08 E1.8445
G1 X123.565 Y102.118 E1.84576
G1 X123.56 Y102.76 E1.86711
G1 X123.558 Y102.843 E1.86987
G1 X123.543 Y103.329 E1.88605
G1 X123.535 Y103.486 E1.89127
G1 X123.52 Y103.687 E1.89798
G1 X123.494 Y103.925 E1.90594
G1 X123.391 Y104.65 E1.9303
G1 X123.326 Y104.989 E1.94178
G1 X123.158 Y105.685 E1.96559
G1 X123.128 Y105.802 E1.96961
G1 X123.039 Y106.123 E1.98069
G1 X122.962 Y106.368 E1.98923
G1 X122.872 Y106.621 E1.99816
G1 X122.789 Y106.833 E2.00573
G1 X122.554 Y107.381 E2.02557
G1 X122.458 Y107.586 E2.03309
G1 X122.22 Y108.057 E2.05065
G1 X122.104 Y108.269 E2.05868
G1 X121.868 Y108.667 E2.07407
G1 X121.731 Y108.88 E2.0825
G1 X121.418 Y109.332 E2.10078
G1 X121.276 Y109.524 E2.10873
G1 X120.942 Y109.944 E2.12657
G1 X120.786 Y110.127 E2.13457
G1 X120.501 Y110.44 E2.14865
G1 X120.341 Y110.604 E2.15627
G1 X119.952 Y110.98 E2.17427
G1 X119.689 Y111.211 E2.18591
G1 X119.009 Y111.751 E2.21479
G1 X118.674 Y111.988 E2.22844
G1 X117.865 Y112.492 E2.26014
G1 X117.722 Y112.576 E2.26566
G1 X117.533 Y112.682 E2.27286
G1 X117.275 Y112.813 E2.28249
G1 X116.979 Y112.949 E2.29332
G1 X116.83 Y113.014 E2.29873
G1 X116.362 Y113.204 E2.31553
G1 X116.138 Y113.286 E2.32346
G1 X115.639 Y113.451 E2.34094
G1 X115.417 Y113.517 E2.34865
G1 X114.922 Y113.646 E2.36566
G1 X114.674 Y113.701 E2.37411
G1 X114.218 Y113.786 E2.38954
G1 X113.987 Y113.821 E2.39731
G1 X113.446 Y113.886 E2.41543
G1 X113.206 Y113.907 E2.42344
G1 X112.672 Y113.935 E2.44123
G1 X112.445 Y113.94 E2.44878
G1 X112.064 Y113.936 E2.46145
G1 X111.818 Y113.925 E2.46964
G1 X111.072 Y113.866 E2.49453
G1 X110.999 Y113.859 E2.49697
G1 X108.138 Y113.574 E2.5926
G1 X105.413 Y113.381 E2.68346
G1 X102.691 Y113.266 E2.77408
G1 X99.958 Y113.228 E2.86498
G1 X97.231 Y113.266 E2.95569
G1 X94.499 Y113.383 E3.04664
G1 X91.794 Y113.575 E3.13684
G1 X89.012 Y113.862 E3.22986
G1 X88.864 Y113.874 E3.2348
G1 X87.903 Y113.933 E3.26682
G1 X87.64 Y113.94 E3.27557
G1 X87.299 Y113.936 E3.28691
G1 X87.06 Y113.925 E3.29487
G1 X86.473 Y113.879 E3.31446
G1 X86.223 Y113.851 E3.32282
G1 X85.7 Y113.773 E3.34041
G1 X85.463 Y113.729 E3.34843
G1 X84.996 Y113.627 E3.36433
G1 X84.767 Y113.569 E3.37218
G1 X84.295 Y113.433 E3.38852
G1 X83.973 Y113.324 E3.39983
G1 X83.173 Y113.009 E3.42842
G1 X82.799 Y112.836 E3.44213
G1 X81.936 Y112.376 E3.47466
G1 X81.796 Y112.297 E3.48
G1 X81.605 Y112.184 E3.48738
G1 X81.334 Y112.007 E3.49815
G1 X81.08 Y111.824 E3.50856
G1 X80.975 Y111.746 E3.51291
G1 X80.567 Y111.429 E3.5301
G1 X80.383 Y111.276 E3.53806
G1 X80.002 Y110.937 E3.55502
G1 X79.828 Y110.771 E3.56302
G1 X79.476 Y110.413 E3.57972
G1 X79.312 Y110.235 E3.58777
G1 X78.977 Y109.845 E3.60487
G1 X78.823 Y109.652 E3.61308
G1 X78.529 Y109.258 E3.62943
G1 X78.394 Y109.065 E3.63726
G1 X78.135 Y108.666 E3.65308
G1 X78.011 Y108.459 E3.66111
G1 X77.725 Y107.946 E3.68064
G1 X77.618 Y107.739 E3.68839
G1 X77.442 Y107.369 E3.70202
G1 X77.345 Y107.147 E3.71008
G1 X77.133 Y106.611 E3.72925
G1 X77.052 Y106.384 E3.73727
G1 X76.908 Y105.934 E3.75298
G1 X76.845 Y105.712 E3.76066
G1 X76.704 Y105.149 E3.77996
G1 X76.646 Y104.869 E3.78947
G1 X76.586 Y104.511 E3.80154
G1 X76.559 Y104.323 E3.80786
G1 X76.495 Y103.761 E3.82668
G1 X76.473 Y103.437 E3.83748
G1 X76.448 Y102.359 E3.87334
G1 X76.447 Y102.286 E3.87577
G1 X76.435 Y98.015 E4.01782
G1 X76.435 Y97.972 E4.01925
G1 X76.442 Y97.216 E4.0444
G1 X76.444 Y97.135 E4.04709
G1 X76.459 Y96.663 E4.0628
G1 X76.486 Y96.321 E4.07421
G1 X76.604 Y95.397 E4.10519
G1 X76.676 Y95.004 E4.11848
G1 X76.847 Y94.299 E4.14261
G1 X76.877 Y94.187 E4.14647
G1 X76.962 Y93.88 E4.15706
G1 X77.04 Y93.632 E4.16571
G1 X77.132 Y93.374 E4.17482
G1 X77.213 Y93.167 E4.18221
G1 X77.45 Y92.613 E4.20225
G1 X77.546 Y92.408 E4.20978
G1 X77.773 Y91.958 E4.22655
G1 X77.895 Y91.735 E4.235
G1 X78.152 Y91.304 E4.25169
G1 X78.284 Y91.099 E4.2598
G1 X78.583 Y90.667 E4.27727
G1 X78.724 Y90.477 E4.28514
G1 X79.048 Y90.069 E4.30247
G1 X79.205 Y89.884 E4.31054
G1 X79.511 Y89.548 E4.32566
G1 X79.681 Y89.374 E4.33375
G1 X80.1 Y88.972 E4.35306
G0 F3600 X80.377 Y89.261
G1 F900 X80.604 Y89.063 E4.36308
G1 X81.169 Y88.615 E4.38706
G1 X81.249 Y88.553 E4.39043
G1 X81.513 Y88.357 E4.40136
G1 X81.727 Y88.211 E4.40998
G1 X81.993 Y88.045 E4.42041
G1 X82.125 Y87.967 E4.42551
G1 X82.674 Y87.66 E4.44643
G1 X82.91 Y87.541 E4.45522
G1 X83.224 Y87.398 E4.4667
G1 X83.356 Y87.341 E4.47148
G1 X83.953 Y87.101 E4.49288
G1 X84.208 Y87.011 E4.50187
G1 X84.576 Y86.898 E4.51468
G1 X84.72 Y86.857 E4.51966
G1 X85.153 Y86.746 E4.53452
G1 X85.359 Y86.701 E4.54154
G1 X85.882 Y86.603 E4.55924
G1 X86.081 Y86.572 E4.56593
G1 X86.537 Y86.516 E4.58121
G1 X86.758 Y86.496 E4.5886
G1 X87.325 Y86.466 E4.60748
G1 X87.541 Y86.462 E4.61467
G1 X88.016 Y86.469 E4.63047
G1 X88.227 Y86.479 E4.63749
G1 X88.918 Y86.535 E4.66055
G1 X88.981 Y86.541 E4.66265
G1 X91.644 Y86.81 E4.75168
G1 X94.396 Y87.01 E4.84345
G1 X97.11 Y87.13 E4.93381
G1 X99.862 Y87.173 E5.02535
G1 X102.615 Y87.139 E5.11692
G1 X105.33 Y87.029 E5.2073
G1 X108.036 Y86.842 E5.29751
G1 X111.296 Y86.512 E5.4065
G1 X111.435 Y86.501 E5.41113
G1 X111.994 Y86.469 E5.42976
G1 X112.22 Y86.464 E5.43727
G1 X112.811 Y86.472 E5.45693
G1 X113.023 Y86.482 E5.46399
G1 X113.51 Y86.521 E5.48024
G1 X113.726 Y86.546 E5.48747
G1 X114.23 Y86.621 E5.50442
G1 X114.448 Y86.661 E5.51179
G1 X114.897 Y86.76 E5.52709
G1 X115.093 Y86.81 E5.53381
G1 X115.649 Y86.97 E5.55306
G1 X115.941 Y87.069 E5.56331
G1 X116.644 Y87.347 E5.58846
G1 X116.748 Y87.391 E5.59221
G1 X117.018 Y87.509 E5.60201
G1 X117.238 Y87.615 E5.61013
G1 X117.513 Y87.761 E5.62049
G1 X117.654 Y87.84 E5.62587
G1 X118.109 Y88.112 E5.6435
G1 X118.351 Y88.273 E5.65316
G1 X119.04 Y88.775 E5.68152
G1 X119.121 Y88.835 E5.68487
G1 X119.301 Y88.975 E5.69246
G1 X119.454 Y89.102 E5.69907
G1 X119.608 Y89.238 E5.7059
G1 X119.767 Y89.389 E5.7132
G1 X120.241 Y89.869 E5.73563
G1 X120.386 Y90.026 E5.74274
G1 X120.683 Y90.37 E5.75786
G1 X120.828 Y90.55 E5.76554
G1 X121.172 Y91.012 E5.7847
G1 X121.289 Y91.181 E5.79154
G1 X121.524 Y91.543 E5.80589
G1 X121.63 Y91.718 E5.8127
G1 X121.917 Y92.229 E5.83219
G1 X122.021 Y92.43 E5.83972
G1 X122.216 Y92.843 E5.85491
G1 X122.298 Y93.033 E5.86179
G1 X122.483 Y93.501 E5.87853
G1 X122.556 Y93.706 E5.88577
G1 X122.729 Y94.249 E5.90472
G1 X122.785 Y94.447 E5.91157
G1 X122.899 Y94.905 E5.92726
G1 X122.946 Y95.126 E5.93478
G1 X123.016 Y95.526 E5.94829
G1 X123.043 Y95.709 E5.95444
G1 X123.109 Y96.277 E5.97346
G1 X123.129 Y96.577 E5.98346
G1 X123.152 Y97.637 E6.01872
G1 X123.153 Y97.697 E6.02072
G1 X123.165 Y102.081 E6.16653
G1 X123.165 Y102.115 E6.16766
G1 X123.16 Y102.757 E6.18901
G1 X123.158 Y102.831 E6.19148
G1 X123.143 Y103.317 E6.20765
G1 X123.136 Y103.456 E6.21228
G1 X123.121 Y103.657 E6.21898
G1 X123.098 Y103.869 E6.22607
G1 X122.995 Y104.594 E6.25043
G1 X122.938 Y104.895 E6.26062
G1 X122.77 Y105.591 E6.28443
G1 X122.743 Y105.695 E6.28801
G1 X122.654 Y106.016 E6.29909
G1 X122.585 Y106.234 E6.30669
G1 X122.495 Y106.487 E6.31562
G1 X122.421 Y106.675 E6.32234
G1 X122.186 Y107.223 E6.34217
G1 X122.101 Y107.405 E6.34885
G1 X121.863 Y107.876 E6.36641
G1 X121.759 Y108.065 E6.37358
G1 X121.523 Y108.463 E6.38897
G1 X121.402 Y108.653 E6.39646
G1 X121.089 Y109.105 E6.41475
G1 X120.963 Y109.275 E6.42179
G1 X120.629 Y109.695 E6.43964
G1 X120.49 Y109.857 E6.44674
G1 X120.205 Y110.17 E6.46081
G1 X120.063 Y110.317 E6.46761
G1 X119.674 Y110.693 E6.48561
G1 X119.44 Y110.898 E6.49595
G1 X118.76 Y111.438 E6.52483
G1 X118.462 Y111.648 E6.53696
G1 X117.653 Y112.152 E6.56866
G1 X117.526 Y112.227 E6.57357
G1 X117.337 Y112.333 E6.58077
G1 X117.108 Y112.45 E6.58933
G1 X116.812 Y112.586 E6.60016
G1 X116.68 Y112.643 E6.60494
G1 X116.212 Y112.833 E6.62174
G1 X116.013 Y112.906 E6.62879
G1 X115.514 Y113.071 E6.64627
G1 X115.316 Y113.13 E6.65315
G1 X114.821 Y113.259 E6.67016
G1 X114.6 Y113.308 E6.67769
G1 X114.144 Y113.393 E6.69312
G1 X113.94 Y113.424 E6.69998
G1 X113.399 Y113.489 E6.7181
G1 X113.185 Y113.508 E6.72525
G1 X112.651 Y113.536 E6.74303
G1 X112.449 Y113.54 E6.74975
G1 X112.068 Y113.536 E6.76243
G1 X111.85 Y113.526 E6.76969
G1 X111.104 Y113.467 E6.79457
G1 X111.039 Y113.461 E6.79675
G1 X108.17 Y113.175 E6.89264
G1 X105.427 Y112.981 E6.9841
G1 X102.712 Y112.867 E7.07448
G1 X99.958 Y112.828 E7.16609
G1 X97.209 Y112.867 E7.25753
G1 X94.488 Y112.983 E7.34812
G1 X91.757 Y113.177 E7.43918
G1 X88.971 Y113.464 E7.53233
G1 X88.839 Y113.475 E7.53674
G1 X87.878 Y113.534 E7.56876
G1 X87.644 Y113.54 E7.57654
G1 X87.303 Y113.536 E7.58789
G1 X87.091 Y113.526 E7.59495
G1 X86.504 Y113.48 E7.61453
G1 X86.282 Y113.455 E7.62196
G1 X85.759 Y113.377 E7.63955
G1 X85.548 Y113.338 E7.64668
G1 X85.081 Y113.236 E7.66258
G1 X84.878 Y113.185 E7.66954
G1 X84.406 Y113.049 E7.68588
G1 X84.12 Y112.951 E7.69594
G1 X83.32 Y112.636 E7.72453
G1 X82.987 Y112.483 E7.73672
G1 X82.124 Y112.023 E7.76925
G1 X82 Y111.953 E7.77399
G1 X81.809 Y111.84 E7.78137
G1 X81.567 Y111.682 E7.79098
G1 X81.313 Y111.499 E7.80139
G1 X81.221 Y111.43 E7.80522
G1 X80.813 Y111.113 E7.8224
G1 X80.649 Y110.977 E7.82949
G1 X80.268 Y110.638 E7.84645
G1 X80.113 Y110.491 E7.85355
G1 X79.761 Y110.133 E7.87025
G1 X79.616 Y109.974 E7.87741
G1 X79.281 Y109.584 E7.89451
G1 X79.143 Y109.413 E7.90182
G1 X78.849 Y109.019 E7.91817
G1 X78.73 Y108.847 E7.92513
G1 X78.471 Y108.448 E7.94095
G1 X78.36 Y108.264 E7.94809
G1 X78.074 Y107.751 E7.96763
G1 X77.979 Y107.568 E7.97449
G1 X77.803 Y107.198 E7.98812
G1 X77.717 Y107 E7.99529
G1 X77.505 Y106.464 E8.01447
G1 X77.433 Y106.262 E8.0216
G1 X77.289 Y105.812 E8.03731
G1 X77.233 Y105.614 E8.04416
G1 X77.092 Y105.051 E8.06346
G1 X77.04 Y104.803 E8.07189
G1 X76.98 Y104.445 E8.08396
G1 X76.957 Y104.278 E8.08957
G1 X76.893 Y103.716 E8.10838
G1 X76.873 Y103.428 E8.11798
G1 X76.848 Y102.35 E8.15385
G1 X76.847 Y102.285 E8.15601
G1 X76.835 Y98.014 E8.29806
G1 X76.835 Y97.975 E8.29936
G1 X76.842 Y97.219 E8.32451
G1 X76.844 Y97.147 E8.3269
G1 X76.859 Y96.675 E8.34261
G1 X76.883 Y96.372 E8.35272
G1 X77.001 Y95.448 E8.3837
G1 X77.065 Y95.099 E8.3955
G1 X77.236 Y94.394 E8.41963
G1 X77.262 Y94.294 E8.42307
G1 X77.347 Y93.987 E8.43366
G1 X77.417 Y93.766 E8.44137
G1 X77.509 Y93.508 E8.45048
G1 X77.581 Y93.324 E8.45706
G1 X77.818 Y92.77 E8.4771
G1 X77.903 Y92.588 E8.48378
G1 X78.13 Y92.138 E8.50054
G1 X78.239 Y91.94 E8.50806
G1 X78.496 Y91.509 E8.52475
G1 X78.613 Y91.327 E8.53195
G1 X78.912 Y90.895 E8.54942
G1 X79.037 Y90.726 E8.55641
G1 X79.361 Y90.318 E8.57374
G1 X79.501 Y90.153 E8.58094
G1 X79.807 Y89.817 E8.59605
G1 X79.958 Y89.663 E8.60323
G1 X80.377 Y89.261 E8.62254
G1 F2400 E6.12254
;MESH:bowtie_Red.stl
G0 F3600 X82.184 Y91.028
G0 X83.054 Y91.971
G0 X103.17 Y105.332
G0 X103.162 Y105.431
;TYPE:WALL-INNER
G1 F2400 E8.62254
G1 F900 X102.376 Y105.788 E8.65125
G1 X101.756 Y106.007 E8.67312
G1 X101.16 Y106.15 E8.69351
G1 X100.579 Y106.231 E8.71302
G1 X99.987 Y106.257 E8.73273
G1 X99.412 Y106.23 E8.75187
G1 X98.871 Y106.154 E8.77004
G1 X98.295 Y106.021 E8.7897
G1 X97.726 Y105.83 E8.80967
G1 X96.845 Y105.437 E8.84175
G1 X95.888 Y106.062 E8.87977
G1 X91.325 Y108.696 E9.05501
G1 X90.75 Y109.012 E9.07683
G1 X90.323 Y109.21 E9.09248
G1 X89.895 Y109.373 E9.10772
G1 X89.001 Y109.616 E9.13853
G1 X88.57 Y109.689 E9.15307
G1 X88.096 Y109.737 E9.16891
G1 X87.623 Y109.754 E9.18466
G1 X87.153 Y109.739 E9.2003
G1 X86.685 Y109.693 E9.21594
G1 X86.247 Y109.619 E9.23071
G1 X85.778 Y109.507 E9.24675
G1 X85.358 Y109.378 E9.26136
G1 X84.522 Y109.028 E9.29151
G1 X83.753 Y108.585 E9.32102
G1 X83.041 Y108.044 E9.35077
G1 X82.704 Y107.732 E9.36604
G1 X82.376 Y107.385 E9.38192
G1 X82.096 Y107.045 E9.39657
G1 X81.814 Y106.653 E9.41263
G1 X81.575 Y106.27 E9.42765
G1 X81.346 Y105.838 E9.44391
G1 X81.162 Y105.433 E9.45871
G1 X80.999 Y104.994 E9.47428
G1 X80.866 Y104.551 E9.48967
G1 X80.763 Y104.099 E9.50508
G1 X80.65 Y103.214 E9.53476
G1 X80.634 Y97.493 E9.72504
G1 X80.647 Y96.799 E9.74813
G1 X80.687 Y96.361 E9.76276
G1 X80.764 Y95.897 E9.7784
G1 X80.995 Y95.013 E9.80879
G1 X81.156 Y94.583 E9.82406
G1 X81.353 Y94.146 E9.84
G1 X81.572 Y93.735 E9.85549
G1 X81.818 Y93.34 E9.87097
G1 X82.093 Y92.958 E9.88663
G1 X82.381 Y92.61 E9.90165
G1 X82.703 Y92.269 E9.91725
G1 X83.042 Y91.956 E9.93259
G1 X83.753 Y91.414 E9.96233
G1 X84.509 Y90.978 E9.99136
G1 X85.356 Y90.623 E10.0219
G1 X85.785 Y90.492 E10.03682
G1 X86.244 Y90.384 E10.0525
G1 X86.684 Y90.309 E10.06735
G1 X87.149 Y90.262 E10.08289
G1 X87.619 Y90.245 E10.09854
G1 X88.092 Y90.262 E10.11428
G1 X88.56 Y90.309 E10.12992
G1 X88.998 Y90.383 E10.1447
G1 X89.462 Y90.493 E10.16056
G1 X89.889 Y90.626 E10.17543
G1 X90.722 Y90.975 E10.20547
G1 X95.686 Y93.822 E10.3958
G1 X96.221 Y94.143 E10.41655
G1 X96.837 Y94.568 E10.44145
G1 X97.623 Y94.214 E10.47012
G1 X98.251 Y93.993 E10.49226
G1 X98.84 Y93.851 E10.51241
G1 X99.423 Y93.77 E10.53199
G1 X100.017 Y93.742 E10.55177
G1 X100.587 Y93.769 E10.57075
G1 X101.128 Y93.845 E10.58892
G1 X101.703 Y93.978 E10.60855
