;FLAVOR:Marlin
;TIME:1432
;Filament used: 0.542337m
;Layer height: 0.12
;MINX:75.625
;MINY:80.271
;MINZ:0.2
;MAXX:115.06
;MAXY:119.633
;MAXZ:11.24
;Generated with Cura_SteamEngine 4.4.1
M140 S60
M105
M190 S60
M104 S200
M105
M109 S200
M82 ;absolute extrusion mode
; START CODE
G21 ;metric values
G90 ;absolute positioning
M82 ;set extruder to absolute mode
M107 ;start with the fan off
G28 X0 Y0 ;move X/Y to min endstops
G28 Z0 ;move Z to min endstops
G1 Z15.0 F120 ;move the platform down 15mm
G92 E0 ;zero the extruded length
G1 F200 E6 ;extrude 6 mm of feed stock
G92 E0 ;zero the extruded length again
G1 F120
;Put printing message on LCD screen
M117 Printing...
G92 E0
G92 E0
G1 F2400 E-2.5
;LAYER_COUNT:94
;LAYER:0
M107
G0 F3600 X86.13 Y84.671 Z0.2
;TYPE:SKIRT
G1 F2400 E0
G1 F900 X86.537 Y84.352 E0.0172
G1 X86.785 Y84.185 E0.02714
G1 X86.884 Y84.12 E0.03108
G1 X87.508 Y83.729 E0.05557
G1 X87.6 Y83.674 E0.05914
G1 X87.897 Y83.5 E0.07059
G1 X87.989 Y83.448 E0.0741
G1 X88.581 Y83.124 E0.09655
G1 X88.688 Y83.068 E0.10057
G1 X89.477 Y82.67 E0.12996
G1 X89.585 Y82.617 E0.13396
G1 X90.045 Y82.404 E0.15082
G1 X90.134 Y82.365 E0.15405
G1 X90.624 Y82.154 E0.1718
G1 X90.736 Y82.108 E0.17582
G1 X91.615 Y81.764 E0.20722
G1 X91.731 Y81.721 E0.21133
G1 X92.222 Y81.548 E0.22865
G1 X92.319 Y81.515 E0.23206
G1 X92.868 Y81.339 E0.25123
G1 X92.944 Y81.315 E0.25388
G1 X93.295 Y81.211 E0.26606
G1 X93.409 Y81.18 E0.26999
G1 X94.137 Y80.99 E0.29501
G1 X94.242 Y80.964 E0.29861
G1 X94.831 Y80.829 E0.31871
G1 X94.944 Y80.805 E0.32255
G1 X95.68 Y80.661 E0.34749
G1 X95.819 Y80.637 E0.35218
G1 X96.676 Y80.504 E0.38103
G1 X96.794 Y80.487 E0.38499
G1 X97.378 Y80.416 E0.40456
G1 X97.499 Y80.404 E0.40861
G1 X98.244 Y80.339 E0.43348
G1 X98.373 Y80.33 E0.43778
G1 X99.134 Y80.291 E0.46312
G1 X99.247 Y80.287 E0.46688
G1 X100.007 Y80.272 E0.49217
G1 X100.112 Y80.271 E0.49566
G1 X100.323 Y80.273 E0.50268
G1 X100.419 Y80.275 E0.50587
G1 X101.278 Y80.306 E0.53446
G1 X101.392 Y80.312 E0.53826
G1 X101.849 Y80.343 E0.55349
G1 X101.967 Y80.353 E0.55743
G1 X102.818 Y80.439 E0.58588
G1 X102.948 Y80.455 E0.59024
G1 X103.746 Y80.565 E0.61703
G1 X103.869 Y80.584 E0.62117
G1 X104.567 Y80.705 E0.64473
G1 X104.658 Y80.722 E0.64781
G1 X104.928 Y80.776 E0.65697
G1 X105.042 Y80.801 E0.66085
G1 X105.897 Y81.001 E0.69005
G1 X106.01 Y81.029 E0.69393
G1 X106.737 Y81.224 E0.71896
G1 X106.836 Y81.252 E0.72238
G1 X107.237 Y81.372 E0.7363
G1 X107.362 Y81.412 E0.74067
G1 X108.275 Y81.722 E0.77274
G1 X108.447 Y81.785 E0.77883
G1 X109.29 Y82.12 E0.809
G1 X109.401 Y82.167 E0.81301
G1 X109.992 Y82.425 E0.83446
G1 X110.106 Y82.477 E0.83863
G1 X110.952 Y82.882 E0.86982
G1 X111.056 Y82.933 E0.87368
G1 X111.295 Y83.057 E0.88263
G1 X111.388 Y83.108 E0.88616
G1 X112.313 Y83.623 E0.92137
G1 X112.471 Y83.716 E0.92747
G1 X113.189 Y84.165 E0.95564
G1 X113.306 Y84.241 E0.96028
G1 X113.472 Y84.354 E0.96695
G1 X113.891 Y84.688 E0.98478
G1 X114.257 Y85.081 E1.00264
G1 X114.56 Y85.523 E1.02046
G1 X114.794 Y86.006 E1.03831
G1 X114.953 Y86.518 E1.05614
G1 X115.046 Y87.271 E1.08138
G1 X115.059 Y88.058 E1.10756
G1 X115.059 Y88.116 E1.10949
G1 X115.06 Y92.931 E1.26964
G1 X115.059 Y92.999 E1.2719
G1 X115.048 Y93.589 E1.29152
G1 X114.986 Y94.194 E1.31175
G1 X114.842 Y94.952 E1.33741
G1 X114.832 Y95.003 E1.33914
G1 X114.565 Y96.307 E1.38341
G1 X114.094 Y98.989 E1.47398
G1 X113.698 Y101.696 E1.56498
G1 X113.382 Y104.371 E1.65457
G1 X113.09 Y107.774 E1.76817
G1 X113.043 Y108.452 E1.79077
G1 X113.033 Y108.572 E1.79477
G1 X112.948 Y109.397 E1.82236
G1 X112.919 Y109.612 E1.82958
G1 X112.768 Y110.531 E1.86055
G1 X112.74 Y110.681 E1.86563
G1 X112.605 Y111.329 E1.88764
G1 X112.573 Y111.471 E1.89248
G1 X112.408 Y112.129 E1.91505
G1 X112.38 Y112.232 E1.9186
G1 X112.302 Y112.508 E1.92814
G1 X112.254 Y112.664 E1.93356
G1 X112.07 Y113.218 E1.95298
G1 X112.014 Y113.375 E1.95852
G1 X111.826 Y113.864 E1.97595
G1 X111.758 Y114.029 E1.98188
G1 X111.535 Y114.533 E2.00022
G1 X111.412 Y114.785 E2.00954
G1 X111 Y115.549 E2.03841
G1 X110.898 Y115.725 E2.04518
G1 X110.78 Y115.917 E2.05267
G1 X110.672 Y116.083 E2.05926
G1 X110.455 Y116.396 E2.07193
G1 X110.35 Y116.539 E2.07783
G1 X110.177 Y116.764 E2.08727
G1 X110.103 Y116.857 E2.09122
G1 X109.913 Y117.088 E2.10117
G1 X109.704 Y117.321 E2.11158
G1 X109.357 Y117.675 E2.12807
G1 X109.082 Y117.928 E2.1405
G1 X108.803 Y118.159 E2.15254
G1 X108.495 Y118.387 E2.16529
G1 X108.092 Y118.654 E2.18137
G1 X107.559 Y118.946 E2.20158
G1 X106.964 Y119.209 E2.22322
G1 X106.233 Y119.442 E2.24874
G1 X105.756 Y119.54 E2.26493
G1 X105.225 Y119.609 E2.28274
G1 X104.946 Y119.613 E2.29202
G1 X101.012 Y119.519 E2.42291
G1 X98.292 Y119.533 E2.51337
G1 X96.645 Y119.598 E2.5682
G1 X96.593 Y119.6 E2.56993
G1 X95.281 Y119.633 E2.61358
G1 X94.877 Y119.62 E2.62702
G1 X94.316 Y119.571 E2.64575
G1 X93.707 Y119.465 E2.66631
G1 X92.479 Y119.14 E2.70856
G1 X89.76 Y118.451 E2.80185
G1 X87.144 Y117.866 E2.89101
G1 X84.438 Y117.34 E2.9827
G1 X81.771 Y116.9 E3.0726
G1 X79.22 Y116.551 E3.15824
G1 X78.766 Y116.494 E3.17346
G1 X78.24 Y116.388 E3.1913
G1 X77.736 Y116.205 E3.20914
G1 X77.265 Y115.949 E3.22697
G1 X76.837 Y115.625 E3.24482
G1 X76.462 Y115.242 E3.26265
G1 X76.147 Y114.808 E3.28049
G1 X75.901 Y114.331 E3.29834
G1 X75.729 Y113.823 E3.31618
G1 X75.633 Y113.296 E3.33399
G1 X75.625 Y112.639 E3.35585
G1 X75.644 Y112.398 E3.36389
G1 X75.726 Y111.868 E3.38172
G1 X75.809 Y111.57 E3.39201
G1 X75.883 Y111.342 E3.39999
G1 X76.106 Y110.805 E3.41933
G1 X76.554 Y109.935 E3.45187
G1 X77.436 Y108.187 E3.51699
G1 X78.606 Y105.721 E3.60778
G1 X79.703 Y103.226 E3.69843
G1 X80.743 Y100.674 E3.79008
G1 X81.68 Y98.162 E3.87926
G1 X82.57 Y95.557 E3.97082
G1 X83.372 Y92.975 E4.06074
G1 X84.113 Y90.329 E4.15213
G1 X84.774 Y87.683 E4.24284
G1 X84.956 Y86.876 E4.27036
G1 X84.969 Y86.82 E4.27227
G1 X85.049 Y86.49 E4.28357
G1 X85.214 Y85.98 E4.30139
G1 X85.453 Y85.499 E4.31926
G1 X85.76 Y85.06 E4.33708
G1 X86.13 Y84.671 E4.35493
G0 F3600 X86.486 Y84.891
G1 F900 X86.761 Y84.684 E4.36638
G1 X87.009 Y84.517 E4.37632
G1 X87.097 Y84.459 E4.37983
G1 X87.721 Y84.068 E4.40432
G1 X87.802 Y84.019 E4.40747
G1 X88.099 Y83.845 E4.41892
G1 X88.181 Y83.799 E4.42205
G1 X88.773 Y83.475 E4.44449
G1 X88.868 Y83.425 E4.44806
G1 X89.657 Y83.027 E4.47745
G1 X89.753 Y82.98 E4.48101
G1 X90.213 Y82.767 E4.49787
G1 X90.292 Y82.732 E4.50074
G1 X90.782 Y82.521 E4.51849
G1 X90.882 Y82.48 E4.52208
G1 X91.761 Y82.136 E4.55348
G1 X91.864 Y82.098 E4.55713
G1 X92.355 Y81.925 E4.57444
G1 X92.441 Y81.896 E4.57746
G1 X92.99 Y81.72 E4.59664
G1 X93.058 Y81.699 E4.59901
G1 X93.409 Y81.595 E4.61118
G1 X93.51 Y81.567 E4.61467
G1 X94.238 Y81.377 E4.63969
G1 X94.331 Y81.354 E4.64288
G1 X94.92 Y81.219 E4.66298
G1 X95.021 Y81.198 E4.66641
G1 X95.757 Y81.054 E4.69135
G1 X95.88 Y81.032 E4.69551
G1 X96.737 Y80.899 E4.72435
G1 X96.842 Y80.884 E4.72788
G1 X97.426 Y80.813 E4.74745
G1 X97.534 Y80.802 E4.75106
G1 X98.279 Y80.737 E4.77593
G1 X98.393 Y80.729 E4.77973
G1 X99.154 Y80.69 E4.80508
G1 X99.255 Y80.687 E4.80844
G1 X100.015 Y80.672 E4.83372
G1 X100.108 Y80.671 E4.83681
G1 X100.319 Y80.673 E4.84383
G1 X100.404 Y80.675 E4.84666
G1 X101.263 Y80.706 E4.87525
G1 X101.365 Y80.711 E4.87864
G1 X101.822 Y80.742 E4.89388
G1 X101.927 Y80.751 E4.89738
G1 X102.778 Y80.837 E4.92583
G1 X102.893 Y80.851 E4.92969
G1 X103.691 Y80.961 E4.95648
G1 X103.801 Y80.978 E4.96018
G1 X104.499 Y81.099 E4.98374
G1 X104.58 Y81.114 E4.98648
G1 X104.85 Y81.168 E4.99564
G1 X104.951 Y81.19 E4.99908
G1 X105.806 Y81.39 E5.02828
G1 X105.906 Y81.415 E5.03171
G1 X106.633 Y81.61 E5.05675
G1 X106.721 Y81.635 E5.05979
G1 X107.122 Y81.755 E5.07371
G1 X107.234 Y81.791 E5.07762
G1 X108.147 Y82.101 E5.10969
G1 X108.3 Y82.157 E5.11511
G1 X109.143 Y82.492 E5.14528
G1 X109.241 Y82.533 E5.14882
G1 X109.832 Y82.791 E5.17026
G1 X109.934 Y82.838 E5.174
G1 X110.78 Y83.243 E5.2052
G1 X110.872 Y83.289 E5.20862
G1 X111.111 Y83.413 E5.21757
G1 X111.194 Y83.457 E5.2207
G1 X112.119 Y83.972 E5.25591
G1 X112.259 Y84.055 E5.26132
G1 X112.977 Y84.504 E5.28949
G1 X113.081 Y84.572 E5.29362
G1 X113.247 Y84.685 E5.3003
G1 X113.641 Y85.001 E5.3171
G1 X113.98 Y85.376 E5.33391
G1 X114.256 Y85.8 E5.35074
G1 X114.462 Y86.261 E5.36753
G1 X114.593 Y86.75 E5.38437
G1 X114.646 Y87.277 E5.40199
G1 X114.659 Y88.064 E5.42817
G1 X114.659 Y88.116 E5.4299
G1 X114.66 Y92.931 E5.59004
G1 X114.659 Y92.992 E5.59207
G1 X114.648 Y93.582 E5.6117
G1 X114.593 Y94.119 E5.62965
G1 X114.449 Y94.877 E5.65532
G1 X114.44 Y94.922 E5.65684
G1 X114.174 Y96.222 E5.70098
G1 X113.698 Y98.934 E5.79256
G1 X113.303 Y101.627 E5.88308
G1 X112.982 Y104.352 E5.97435
G1 X112.691 Y107.74 E6.08745
G1 X112.644 Y108.424 E6.11025
G1 X112.635 Y108.531 E6.11382
G1 X112.55 Y109.356 E6.14141
G1 X112.525 Y109.547 E6.14781
G1 X112.374 Y110.466 E6.17879
G1 X112.349 Y110.6 E6.18332
G1 X112.214 Y111.248 E6.20534
G1 X112.185 Y111.373 E6.2096
G1 X112.02 Y112.031 E6.23217
G1 X111.995 Y112.123 E6.23534
G1 X111.917 Y112.399 E6.24488
G1 X111.875 Y112.538 E6.24971
G1 X111.691 Y113.092 E6.26912
G1 X111.641 Y113.231 E6.27404
G1 X111.453 Y113.72 E6.29146
G1 X111.392 Y113.867 E6.29675
G1 X111.169 Y114.371 E6.31509
G1 X111.06 Y114.595 E6.32337
G1 X110.648 Y115.359 E6.35224
G1 X110.557 Y115.516 E6.35828
G1 X110.439 Y115.708 E6.36577
G1 X110.343 Y115.855 E6.37161
G1 X110.126 Y116.168 E6.38428
G1 X110.033 Y116.296 E6.38954
G1 X109.86 Y116.521 E6.39898
G1 X109.794 Y116.603 E6.40248
G1 X109.604 Y116.834 E6.41243
G1 X109.418 Y117.041 E6.42169
G1 X109.071 Y117.395 E6.43817
G1 X108.827 Y117.62 E6.44921
G1 X108.548 Y117.851 E6.46126
G1 X108.274 Y118.054 E6.4726
G1 X107.871 Y118.321 E6.48868
G1 X107.398 Y118.58 E6.50662
G1 X106.803 Y118.843 E6.52825
G1 X106.153 Y119.051 E6.55095
G1 X105.676 Y119.149 E6.56715
G1 X104.956 Y119.213 E6.59119
G1 X101.02 Y119.119 E6.72214
G1 X98.274 Y119.133 E6.81347
G1 X96.629 Y119.198 E6.86823
G1 X96.582 Y119.2 E6.86979
G1 X95.27 Y119.233 E6.91345
G1 X94.912 Y119.222 E6.92536
G1 X94.351 Y119.173 E6.94409
G1 X93.81 Y119.078 E6.96236
G1 X92.578 Y118.752 E7.00474
G1 X89.881 Y118.068 E7.09729
G1 X87.201 Y117.469 E7.18862
G1 X84.508 Y116.946 E7.27987
G1 X81.818 Y116.502 E7.37055
G1 X79.31 Y116.159 E7.45474
G1 X78.816 Y116.097 E7.4713
G1 X78.32 Y115.995 E7.48814
G1 X77.848 Y115.816 E7.50493
G1 X77.409 Y115.564 E7.52177
G1 X77.015 Y115.247 E7.53859
G1 X76.677 Y114.872 E7.55538
G1 X76.401 Y114.448 E7.5722
G1 X76.196 Y113.986 E7.58901
G1 X76.066 Y113.497 E7.60584
G1 X76.015 Y112.994 E7.62266
G1 X76.024 Y112.67 E7.63344
G1 X76.043 Y112.429 E7.64148
G1 X76.189 Y111.693 E7.66644
G1 X76.263 Y111.465 E7.67441
G1 X76.462 Y110.988 E7.6916
G1 X76.91 Y110.118 E7.72415
G1 X77.811 Y108.332 E7.79068
G1 X78.962 Y105.903 E7.88008
G1 X80.068 Y103.389 E7.97143
G1 X81.123 Y100.798 E8.06448
G1 X82.058 Y98.294 E8.15338
G1 X82.945 Y95.699 E8.24459
G1 X83.767 Y93.054 E8.33671
G1 X84.492 Y90.462 E8.42623
G1 X85.162 Y87.781 E8.51815
G1 X85.346 Y86.964 E8.546
G1 X85.358 Y86.914 E8.54771
G1 X85.438 Y86.584 E8.559
G1 X85.596 Y86.104 E8.57581
G1 X85.827 Y85.654 E8.59264
G1 X86.126 Y85.247 E8.60943
G1 X86.486 Y84.891 E8.62627
G1 F2400 E6.12627
;MESH:nose__Yellow.stl
G0 F3600 X81.779 Y110.442
G0 X81.856 Y111.523
G0 X81.177 Y111.998
;TYPE:WALL-INNER
G1 F2400 E8.62627
G1 F900 X81.007 Y112.023 E8.63199
G1 X80.598 Y112.083 E8.64574
G1 X80.553 Y112.09 E8.64725
G1 X80.595 Y112.065 E8.64735
G1 X80.989 Y111.904 E8.65004
G1 X81.139 Y111.863 E8.65155
G1 X81.463 Y111.773 E8.66264
G1 X81.851 Y111.708 E8.67573
G1 X81.885 Y111.702 E8.67688
G1 X82.352 Y111.669 E8.69245
G1 X82.603 Y111.677 E8.7008
G1 X82.82 Y111.685 E8.70802
G1 X83.264 Y111.755 E8.72297
G1 X82.832 Y111.797 E8.72488
G1 X82.599 Y111.821 E8.72758
G1 X82.373 Y111.847 E8.7304
G1 X81.909 Y111.902 E8.73778
G1 X81.885 Y111.905 E8.73809
G1 X81.488 Y111.957 E8.74455
G1 X81.177 Y111.998 E8.74857
G0 F3600 X79.494 Y112.625
G0 X79.438 Y112.685
;TYPE:WALL-OUTER
G1 F900 X79.424 Y112.688 E8.74904
G1 X79.429 Y112.641 E8.74978
G1 X79.531 Y112.447 E8.75707
G1 X79.595 Y112.327 E8.76159
G1 X79.618 Y112.304 E8.76267
G1 X79.926 Y112.003 E8.777
G1 X80.414 Y111.707 E8.79598
G1 X80.867 Y111.522 E8.81226
G1 X81.366 Y111.384 E8.82947
G1 X81.843 Y111.304 E8.84556
G1 X82.347 Y111.268 E8.86237
G1 X82.851 Y111.286 E8.87914
G1 X83.343 Y111.361 E8.89569
G1 X83.886 Y111.534 E8.91465
G1 X84.24 Y111.746 E8.92837
G1 X84.267 Y111.762 E8.92942
G1 X84.287 Y111.774 E8.93019
G1 X84.348 Y111.843 E8.93326
G1 X84.519 Y112.036 E8.94183
G1 X84.526 Y112.055 E8.94251
G1 X84.309 Y112.07 E8.94485
G1 X84.072 Y112.088 E8.95073
G1 X84.041 Y112.09 E8.95174
G1 X83.356 Y112.148 E8.9746
G1 X82.642 Y112.219 E8.99847
G1 X81.934 Y112.302 E9.02218
G1 X81.232 Y112.394 E9.04573
G1 X80.535 Y112.497 E9.06916
G1 X79.877 Y112.607 E9.09135
G1 X79.845 Y112.612 E9.09224
G1 X79.653 Y112.646 E9.097
G1 X79.438 Y112.685 E9.09998
G0 F3600 X79.424 Y112.688
G0 X79.429 Y112.641
G0 X79.493 Y112.518
G0 X79.761 Y112.22
G1 F2400 E6.59998
;MESH:clothes_Yellow.stl
G0 F3600 X79.801 Y112.264
G0 X80.926 Y111.734
G0 X80.637 Y110.689
G0 X89.155 Y94.189
G0 X89.155 Y92.91
G0 X91.633 Y86.395
G0 X91.591 Y86.305
;TYPE:WALL-INNER
G1 F2400 E9.09998
G1 F900 X92.041 Y86.104 E9.11637
G1 X92.69 Y85.837 E9.13971
G1 X93.341 Y85.596 E9.1628
G1 X93.811 Y85.437 E9.1793
G1 X94.365 Y85.267 E9.19858
G1 X94.848 Y85.132 E9.21526
G1 X95.501 Y84.971 E9.23763
G1 X96.148 Y84.835 E9.25962
G1 X96.908 Y84.701 E9.28529
G1 X97.535 Y84.615 E9.30633
G1 X98.283 Y84.537 E9.33135
G1 X98.916 Y84.493 E9.35245
G1 X99.65 Y84.467 E9.37688
G1 X100.196 Y84.465 E9.39504
G1 X100.728 Y84.476 E9.41274
G1 X101.361 Y84.509 E9.43382
G1 X102.01 Y84.563 E9.45548
G1 X102.762 Y84.654 E9.48068
G1 X103.399 Y84.753 E9.50212
G1 X104.066 Y84.879 E9.52469
G1 X104.545 Y84.981 E9.54098
G1 X105.212 Y85.149 E9.56386
G1 X105.857 Y85.334 E9.58618
G1 X106.33 Y85.484 E9.60268
G1 X106.907 Y85.686 E9.62302
G1 X107.374 Y85.861 E9.6396
G1 X108.017 Y86.13 E9.66278
G1 X108.654 Y86.421 E9.68608
G1 X109.311 Y86.75 E9.71052
G1 X109.746 Y86.981 E9.7269
G1 X110.288 Y87.297 E9.74777
G1 X110.859 Y87.651 E9.77011
G1 X110.86 Y92.724 E9.93884
G1 X110.86 Y92.924 E9.94549
G1 X110.66 Y92.924 E9.9498
G1 X89.141 Y92.924 E10.66552
G1 X89.14 Y87.653 E10.84084
G1 X89.353 Y87.514 E10.8493
G1 X89.874 Y87.2 E10.86953
G1 X90.33 Y86.941 E10.88697
G1 X90.954 Y86.612 E10.91043
G1 X91.591 Y86.305 E10.93395
G0 F3600 X91.417 Y85.945
;TYPE:WALL-OUTER
G1 F900 X91.889 Y85.734 E10.95115
G1 X92.543 Y85.465 E10.97467
G1 X93.213 Y85.217 E10.99843
G1 X93.683 Y85.058 E11.01493
G1 X94.257 Y84.882 E11.0349
G1 X94.74 Y84.747 E11.05158
G1 X95.405 Y84.583 E11.07436
G1 X96.079 Y84.441 E11.09727
G1 X96.839 Y84.307 E11.12294
G1 X97.494 Y84.217 E11.14493
G1 X98.245 Y84.139 E11.17004
G1 X98.902 Y84.093 E11.19195
G1 X99.636 Y84.067 E11.21638
G1 X100.203 Y84.065 E11.23523
G1 X100.736 Y84.076 E11.25297
G1 X101.394 Y84.111 E11.27488
G1 X102.043 Y84.164 E11.29654
G1 X102.81 Y84.257 E11.32224
G1 X103.473 Y84.36 E11.34455
G1 X104.146 Y84.487 E11.36733
G1 X104.636 Y84.592 E11.384
G1 X105.309 Y84.761 E11.40708
G1 X105.978 Y84.953 E11.43023
G1 X106.462 Y85.106 E11.44711
G1 X107.039 Y85.308 E11.46744
G1 X107.514 Y85.486 E11.48432
G1 X108.183 Y85.766 E11.50844
G1 X108.833 Y86.063 E11.53221
G1 X109.49 Y86.392 E11.55664
G1 X109.947 Y86.635 E11.57386
G1 X110.489 Y86.951 E11.59473
G1 X110.94 Y87.227 E11.61231
G1 X111.259 Y87.435 E11.62498
G1 X111.26 Y93.124 E11.8142
G1 X111.26 Y93.324 E11.82085
G1 X111.06 Y93.324 E11.82516
G1 X88.862 Y93.324 E12.56346
G1 X88.741 Y93.318 E12.56749
G1 X88.74 Y87.436 E12.76313
G1 X89.146 Y87.172 E12.77924
G1 X89.676 Y86.852 E12.79983
G1 X90.132 Y86.593 E12.81727
G1 X90.768 Y86.258 E12.84118
G1 X91.417 Y85.945 E12.86514
G0 F3600 X91.599 Y85.864
G0 X91.755 Y86.659
;TYPE:SKIN
G1 F900 X92.195 Y86.462 E12.88118
G1 X92.831 Y86.201 E12.90404
G1 X93.494 Y85.955 E12.92756
G1 X93.926 Y85.81 E12.94272
G1 X94.475 Y85.642 E12.96182
G1 X94.953 Y85.508 E12.97833
G1 X95.581 Y85.353 E12.99984
G1 X96.228 Y85.217 E13.02183
G1 X96.976 Y85.085 E13.04709
G1 X97.576 Y85.003 E13.06724
G1 X98.31 Y84.927 E13.09178
G1 X98.943 Y84.883 E13.11288
G1 X99.664 Y84.857 E13.13688
