;FLAVOR:Marlin
;TIME:594
;Filament used: 0.393537m
;Layer height: 0.16
;MINX:84.74
;MINY:80.065
;MINZ:0.2
;MAXX:115.259
;MAXY:119.837
;MAXZ:11.24
;Generated with Cura_SteamEngine 4.4.1
M140 S60
M105
M190 S60
M104 S200
M105
M109 S200
M82 ;absolute extrusion mode
; START CODE
G21 ;metric values
G90 ;absolute positioning
M82 ;set extruder to absolute mode
M107 ;start with the fan off
G28 X0 Y0 ;move X/Y to min endstops
G28 Z0 ;move Z to min endstops
G1 Z15.0 F120 ;move the platform down 15mm
G92 E0 ;zero the extruded length
G1 F200 E6 ;extrude 6 mm of feed stock
G92 E0 ;zero the extruded length again
G1 F120
;Put printing message on LCD screen
M117 Printing...
G92 E0
G92 E0
G1 F2400 E-2.5
;LAYER_COUNT:71
;LAYER:0
M107
G0 F3600 X99.216 Y97.324 Z0.2
;TYPE:SKIRT
G1 F2400 E0
G1 F1200 X99.22 Y97.428 E0.00346
G1 X99.221 Y98.518 E0.03972
G1 X99.182 Y99.067 E0.05802
G1 X99.092 Y99.504 E0.07286
G1 X98.962 Y99.991 E0.08963
G1 X98.826 Y100.555 E0.10892
G1 X98.735 Y100.97 E0.12305
G1 X98.637 Y101.507 E0.14121
G1 X98.542 Y102.125 E0.162
G1 X98.478 Y102.625 E0.17877
G1 X98.423 Y103.164 E0.19679
G1 X98.386 Y103.709 E0.21496
G1 X98.362 Y104.306 E0.23483
G1 X98.354 Y104.777 E0.2505
G1 X98.361 Y105.242 E0.26597
G1 X98.375 Y105.667 E0.28011
G1 X98.399 Y106.089 E0.29417
G1 X98.449 Y106.69 E0.31423
G1 X98.514 Y107.271 E0.33367
G1 X98.599 Y107.866 E0.35366
G1 X98.697 Y108.43 E0.3727
G1 X98.808 Y108.971 E0.39107
G1 X98.948 Y109.559 E0.41117
G1 X99.084 Y110.069 E0.42873
G1 X99.238 Y110.591 E0.44683
G1 X99.457 Y111.248 E0.46987
G1 X99.62 Y111.704 E0.48597
G1 X99.803 Y112.172 E0.50269
G1 X99.943 Y112.502 E0.51461
G1 X99.948 Y112.491 E0.51501
G1 X100.146 Y112.013 E0.53222
G1 X100.322 Y111.552 E0.54863
G1 X100.512 Y111 E0.56805
G1 X100.708 Y110.39 E0.58936
G1 X100.877 Y109.793 E0.60999
G1 X100.992 Y109.335 E0.6257
G1 X101.116 Y108.778 E0.64468
G1 X101.225 Y108.226 E0.66339
G1 X101.322 Y107.633 E0.68338
G1 X101.392 Y107.108 E0.701
G1 X101.453 Y106.524 E0.72052
G1 X101.498 Y105.916 E0.7408
G1 X101.52 Y105.4 E0.75798
G1 X101.528 Y104.922 E0.77388
G1 X101.525 Y104.426 E0.79038
G1 X101.509 Y103.911 E0.80752
G1 X101.476 Y103.371 E0.82551
G1 X101.426 Y102.806 E0.84437
G1 X101.359 Y102.236 E0.86346
G1 X101.296 Y101.807 E0.87789
G1 X101.212 Y101.307 E0.89475
G1 X101.124 Y100.858 E0.90997
G1 X100.989 Y100.25 E0.93068
G1 X100.84 Y99.666 E0.95073
G1 X100.809 Y99.556 E0.95453
G1 X100.7 Y99.016 E0.97285
G1 X100.67 Y98.541 E0.98868
G1 X100.669 Y97.433 E1.02553
G1 X100.677 Y97.324 E1.02917
G1 X99.216 Y97.324 E1.07776
G0 F3600 X98.82 Y97.428
G1 F1200 X98.821 Y98.518 E1.11401
G1 X98.782 Y99.038 E1.13136
G1 X98.705 Y99.4 E1.14367
G1 X98.583 Y99.854 E1.1593
G1 X98.437 Y100.461 E1.18007
G1 X98.348 Y100.867 E1.19389
G1 X98.237 Y101.472 E1.21435
G1 X98.147 Y102.059 E1.2341
G1 X98.082 Y102.569 E1.2512
G1 X98.025 Y103.129 E1.26992
G1 X97.986 Y103.7 E1.28896
G1 X97.965 Y104.211 E1.30597
G1 X97.955 Y104.798 E1.3255
G1 X97.961 Y105.261 E1.3409
G1 X97.973 Y105.635 E1.35334
G1 X98.002 Y106.148 E1.37043
G1 X98.05 Y106.732 E1.38992
G1 X98.115 Y107.302 E1.409
G1 X98.205 Y107.93 E1.4301
G1 X98.306 Y108.514 E1.44982
G1 X98.415 Y109.047 E1.46791
G1 X98.558 Y109.65 E1.48852
G1 X98.688 Y110.136 E1.50526
G1 X98.866 Y110.739 E1.52617
G1 X99.063 Y111.333 E1.54698
G1 X99.261 Y111.887 E1.56655
G1 X99.421 Y112.294 E1.5811
G1 X99.681 Y112.908 E1.60327
G1 X99.923 Y113.436 E1.62259
G1 X99.941 Y113.473 E1.62396
G1 X100.056 Y113.232 E1.63284
G1 X100.296 Y112.693 E1.65247
G1 X100.525 Y112.143 E1.67228
G1 X100.694 Y111.697 E1.68814
G1 X100.907 Y111.079 E1.70989
G1 X101.089 Y110.512 E1.72969
G1 X101.256 Y109.925 E1.74999
G1 X101.385 Y109.415 E1.76749
G1 X101.501 Y108.892 E1.7853
G1 X101.624 Y108.266 E1.80652
G1 X101.714 Y107.714 E1.82513
G1 X101.791 Y107.136 E1.84452
G1 X101.851 Y106.559 E1.86381
G1 X101.895 Y105.965 E1.88362
G1 X101.921 Y105.379 E1.90313
G1 X101.928 Y104.929 E1.9181
G1 X101.925 Y104.412 E1.9353
G1 X101.909 Y103.906 E1.95214
G1 X101.873 Y103.315 E1.97183
G1 X101.827 Y102.79 E1.98936
G1 X101.754 Y102.175 E2.00996
G1 X101.68 Y101.677 E2.0267
G1 X101.606 Y101.235 E2.04161
G1 X101.517 Y100.781 E2.057
G1 X101.385 Y100.183 E2.07736
G1 X101.225 Y99.562 E2.09869
G1 X101.194 Y99.449 E2.10259
G1 X101.094 Y98.938 E2.11991
G1 X101.07 Y98.541 E2.13314
G1 X101.069 Y97.433 E2.16999
G1 X101.107 Y96.924 E2.18697
G1 X98.78 Y96.924 E2.26436
G1 X98.82 Y97.428 E2.28118
G0 F3600 X98.42 Y97.428
G1 F1200 X98.421 Y98.518 E2.31743
G1 X98.382 Y99.006 E2.33371
G1 X98.319 Y99.297 E2.34362
G1 X98.187 Y99.791 E2.36062
G1 X98.062 Y100.308 E2.37832
G1 X97.947 Y100.834 E2.39622
G1 X97.848 Y101.373 E2.41445
G1 X97.754 Y101.986 E2.43508
G1 X97.686 Y102.517 E2.45288
G1 X97.625 Y103.12 E2.47304
G1 X97.588 Y103.657 E2.49094
G1 X97.565 Y104.218 E2.50962
G1 X97.555 Y104.798 E2.52891
G1 X97.561 Y105.279 E2.54491
G1 X97.575 Y105.694 E2.55872
G1 X97.598 Y106.113 E2.57268
G1 X97.653 Y106.777 E2.59484
G1 X97.721 Y107.371 E2.61473
G1 X97.808 Y107.984 E2.63532
G1 X97.909 Y108.565 E2.65493
G1 X98.026 Y109.136 E2.67432
G1 X98.177 Y109.774 E2.69612
G1 X98.307 Y110.262 E2.71292
G1 X98.487 Y110.87 E2.73401
G1 X98.676 Y111.439 E2.75395
G1 X98.876 Y111.999 E2.77373
G1 X99.064 Y112.479 E2.79088
G1 X99.303 Y113.042 E2.81122
G1 X99.587 Y113.662 E2.8339
G1 X99.727 Y113.951 E2.84458
G1 X99.904 Y114.408 E2.86088
G1 X99.941 Y114.586 E2.86693
G1 X99.963 Y114.468 E2.87092
G1 X100.152 Y113.958 E2.88901
G1 X100.417 Y113.404 E2.90944
G1 X100.676 Y112.822 E2.93062
G1 X100.903 Y112.273 E2.95038
G1 X101.063 Y111.853 E2.96533
G1 X101.285 Y111.209 E2.98799
G1 X101.47 Y110.635 E3.00805
G1 X101.643 Y110.027 E3.02907
G1 X101.768 Y109.534 E3.04599
G1 X101.905 Y108.914 E3.06711
G1 X102.013 Y108.364 E3.08575
G1 X102.113 Y107.755 E3.10628
G1 X102.187 Y107.202 E3.12483
G1 X102.25 Y106.593 E3.1452
G1 X102.296 Y105.979 E3.16567
G1 X102.32 Y105.412 E3.18455
G1 X102.328 Y104.935 E3.20042
G1 X102.325 Y104.436 E3.21701
G1 X102.307 Y103.835 E3.23701
G1 X102.277 Y103.351 E3.25314
G1 X102.221 Y102.712 E3.27448
G1 X102.155 Y102.15 E3.2933
G1 X102.079 Y101.637 E3.31055
G1 X101.999 Y101.164 E3.3265
G1 X101.904 Y100.679 E3.34294
G1 X101.768 Y100.065 E3.36386
G1 X101.606 Y99.434 E3.38552
G1 X101.58 Y99.342 E3.3887
G1 X101.487 Y98.861 E3.405
G1 X101.47 Y98.541 E3.41566
G1 X101.469 Y97.433 E3.45251
G1 X101.508 Y96.945 E3.46879
G1 X101.613 Y96.524 E3.48322
G1 X98.269 Y96.524 E3.59444
G1 X98.342 Y96.751 E3.60237
G1 X98.42 Y97.428 E3.62504
G0 F3600 X98.02 Y97.429
G1 F1200 X98.021 Y98.519 E3.66129
G1 X97.933 Y99.193 E3.6839
G1 X97.803 Y99.677 E3.70057
G1 X97.666 Y100.246 E3.72004
G1 X97.559 Y100.731 E3.73656
G1 X97.448 Y101.338 E3.75708
G1 X97.36 Y101.914 E3.77646
G1 X97.29 Y102.462 E3.79483
G1 X97.226 Y103.083 E3.8156
G1 X97.188 Y103.65 E3.8345
G1 X97.165 Y104.197 E3.85271
G1 X97.155 Y104.807 E3.873
G1 X97.16 Y105.236 E3.88727
G1 X97.177 Y105.729 E3.90368
G1 X97.201 Y106.168 E3.9183
G1 X97.251 Y106.776 E3.93859
G1 X97.326 Y107.435 E3.96065
G1 X97.413 Y108.043 E3.98108
G1 X97.518 Y108.654 E4.0017
G1 X97.635 Y109.222 E4.02099
G1 X97.787 Y109.864 E4.04293
G1 X97.924 Y110.374 E4.06049
G1 X98.104 Y110.984 E4.08165
G1 X98.314 Y111.615 E4.10377
G1 X98.497 Y112.128 E4.12188
G1 X98.695 Y112.633 E4.13992
G1 X98.948 Y113.228 E4.16143
G1 X99.217 Y113.816 E4.18293
G1 X99.367 Y114.126 E4.19439
G1 X99.529 Y114.551 E4.20952
G1 X99.614 Y114.999 E4.22468
G1 X99.62 Y115.455 E4.23985
G1 X99.545 Y115.904 E4.25499
G1 X99.394 Y116.334 E4.27015
G1 X99.17 Y116.731 E4.28531
G1 X98.88 Y117.082 E4.30045
G1 X98.594 Y117.333 E4.31311
G1 X98.19 Y117.638 E4.32995
G1 X97.875 Y117.842 E4.34243
G1 X97.409 Y118.098 E4.36011
G1 X96.964 Y118.291 E4.37624
G1 X96.431 Y118.465 E4.39489
G1 X95.889 Y118.579 E4.41331
G1 X95.372 Y118.632 E4.4306
G1 X94.831 Y118.631 E4.44859
G1 X94.326 Y118.577 E4.46549
G1 X93.804 Y118.466 E4.48324
G1 X93.302 Y118.304 E4.50078
G1 X92.86 Y118.115 E4.51677
G1 X92.37 Y117.849 E4.53531
G1 X92.04 Y117.636 E4.54838
G1 X91.627 Y117.323 E4.56561
G1 X91.377 Y117.107 E4.5766
G1 X90.965 Y116.703 E4.59579
G1 X90.761 Y116.479 E4.60587
G1 X90.373 Y115.998 E4.62642
G1 X90.238 Y115.815 E4.63399
G1 X89.93 Y115.356 E4.65237
G1 X89.826 Y115.186 E4.659
G1 X89.488 Y114.588 E4.68185
G1 X89.395 Y114.408 E4.68859
G1 X89.166 Y113.917 E4.70661
G1 X89.121 Y113.816 E4.71028
G1 X88.911 Y113.311 E4.72847
G1 X88.859 Y113.175 E4.73332
G1 X88.672 Y112.643 E4.75207
G1 X88.636 Y112.534 E4.75589
G1 X88.47 Y111.985 E4.77497
G1 X88.445 Y111.897 E4.77801
G1 X88.3 Y111.349 E4.79686
G1 X88.273 Y111.233 E4.80082
G1 X88.15 Y110.664 E4.82019
G1 X88.131 Y110.57 E4.82338
G1 X88.029 Y109.996 E4.84277
G1 X88.016 Y109.916 E4.84546
G1 X87.934 Y109.353 E4.86439
G1 X87.923 Y109.27 E4.86717
G1 X87.858 Y108.695 E4.88642
G1 X87.849 Y108.589 E4.88995
G1 X87.808 Y108.017 E4.90903
G1 X87.804 Y107.955 E4.91109
G1 X87.778 Y107.409 E4.92928
G1 X87.775 Y107.332 E4.93184
G1 X87.765 Y106.776 E4.95033
G1 X87.765 Y106.687 E4.95329
G1 X87.774 Y106.133 E4.97172
G1 X87.777 Y106.052 E4.97442
G1 X87.803 Y105.505 E4.99263
G1 X87.807 Y105.438 E4.99486
G1 X87.849 Y104.865 E5.01397
G1 X87.858 Y104.766 E5.01728
G1 X87.922 Y104.193 E5.03646
G1 X87.933 Y104.107 E5.03934
G1 X88.015 Y103.544 E5.05826
G1 X88.029 Y103.457 E5.06119
G1 X88.133 Y102.881 E5.08066
G1 X88.149 Y102.801 E5.08338
G1 X88.27 Y102.233 E5.10269
G1 X88.299 Y102.11 E5.10689
G1 X88.444 Y101.562 E5.12575
G1 X88.47 Y101.473 E5.12883
G1 X88.636 Y100.925 E5.14788
G1 X88.673 Y100.813 E5.1518
G1 X88.861 Y100.281 E5.17057
G1 X88.907 Y100.158 E5.17493
G1 X89.115 Y99.652 E5.19313
G1 X89.167 Y99.534 E5.19742
G1 X89.398 Y99.043 E5.21547
G1 X89.477 Y98.89 E5.22119
G1 X89.748 Y98.401 E5.23979
G1 X89.849 Y98.233 E5.24631
G1 X90.223 Y97.664 E5.26896
G1 X90.365 Y97.468 E5.27701
G1 X90.712 Y97.034 E5.29549
G1 X90.89 Y96.834 E5.30439
G1 X91.269 Y96.449 E5.32236
G1 X91.496 Y96.244 E5.33253
G1 X91.646 Y96.124 E5.33892
G1 X88.852 Y96.124 E5.43185
G1 X88.735 Y96.121 E5.43574
G1 X88.424 Y96.107 E5.4461
G1 X87.972 Y96.047 E5.46126
G1 X87.538 Y95.909 E5.47641
G1 X87.135 Y95.697 E5.49156
G1 X86.775 Y95.418 E5.50671
G1 X86.469 Y95.08 E5.52187
G1 X86.226 Y94.694 E5.53704
G1 X86.055 Y94.272 E5.55219
G1 X85.96 Y93.827 E5.56732
G1 X85.941 Y93.51 E5.57788
G1 X85.94 Y87.327 E5.78353
G1 X85.98 Y86.874 E5.79865
G1 X86.098 Y86.434 E5.81381
G1 X86.292 Y86.021 E5.82898
G1 X86.554 Y85.649 E5.84412
G1 X86.878 Y85.328 E5.85929
G1 X87.123 Y85.147 E5.86942
G1 X87.62 Y84.824 E5.88913
G1 X87.695 Y84.777 E5.89208
G1 X88.236 Y84.451 E5.91308
G1 X88.292 Y84.418 E5.91525
G1 X88.747 Y84.159 E5.93266
G1 X88.822 Y84.118 E5.9355
G1 X89.47 Y83.777 E5.95986
G1 X89.55 Y83.737 E5.96283
G1 X90.204 Y83.421 E5.98699
G1 X90.276 Y83.388 E5.98962
G1 X90.749 Y83.177 E6.00685
G1 X90.819 Y83.147 E6.00938
G1 X91.485 Y82.873 E6.03334
G1 X91.57 Y82.839 E6.03638
G1 X92.239 Y82.591 E6.06011
G1 X92.313 Y82.565 E6.06272
G1 X92.794 Y82.403 E6.0796
G1 X92.86 Y82.382 E6.0819
G1 X93.439 Y82.204 E6.10205
G1 X93.503 Y82.185 E6.10427
G1 X93.986 Y82.05 E6.12095
G1 X94.066 Y82.029 E6.1237
G1 X94.742 Y81.863 E6.14686
G1 X94.823 Y81.844 E6.14962
G1 X95.498 Y81.701 E6.17257
G1 X95.587 Y81.684 E6.17559
G1 X96.355 Y81.549 E6.20152
G1 X96.45 Y81.534 E6.20472
G1 X97.118 Y81.442 E6.22715
G1 X97.204 Y81.432 E6.23003
G1 X97.963 Y81.353 E6.25541
G1 X98.05 Y81.345 E6.25831
G1 X98.706 Y81.299 E6.28019
G1 X98.797 Y81.295 E6.28322
G1 X99.538 Y81.269 E6.30788
G1 X99.62 Y81.267 E6.3106
G1 X100.197 Y81.265 E6.3298
G1 X100.259 Y81.266 E6.33186
G1 X100.8 Y81.277 E6.34986
G1 X100.885 Y81.28 E6.35268
G1 X101.542 Y81.315 E6.37457
G1 X101.619 Y81.32 E6.37713
G1 X102.282 Y81.375 E6.39926
G1 X102.376 Y81.384 E6.4024
G1 X103.145 Y81.476 E6.42816
G1 X103.236 Y81.489 E6.43122
G1 X103.91 Y81.594 E6.45391
G1 X103.992 Y81.608 E6.45667
G1 X104.67 Y81.736 E6.47962
G1 X104.733 Y81.749 E6.48176
G1 X105.223 Y81.854 E6.49843
G1 X105.315 Y81.875 E6.50157
G1 X105.996 Y82.047 E6.52493
G1 X106.073 Y82.068 E6.52758
G1 X106.752 Y82.262 E6.55107
G1 X106.824 Y82.284 E6.55357
G1 X107.313 Y82.439 E6.57064
G1 X107.385 Y82.463 E6.57316
G1 X107.963 Y82.665 E6.59353
G1 X108.021 Y82.686 E6.59558
G1 X108.507 Y82.869 E6.61285
G1 X108.592 Y82.902 E6.61588
G1 X109.261 Y83.181 E6.63999
G1 X109.342 Y83.217 E6.64294
G1 X110.004 Y83.52 E6.66715
G1 X110.085 Y83.558 E6.67013
G1 X110.743 Y83.887 E6.6946
G1 X110.803 Y83.919 E6.69686
G1 X111.272 Y84.169 E6.71454
G1 X111.358 Y84.217 E6.71781
G1 X111.902 Y84.534 E6.73875
G1 X111.95 Y84.562 E6.7406
G1 X112.406 Y84.841 E6.75838
G1 X112.468 Y84.88 E6.76082
G1 X112.878 Y85.147 E6.77709
G1 X113.236 Y85.428 E6.79223
G1 X113.54 Y85.768 E6.8074
G1 X113.78 Y86.155 E6.82254
G1 X113.949 Y86.578 E6.83769
G1 X114.041 Y87.024 E6.85284
G1 X114.059 Y87.326 E6.8629
G1 X114.059 Y93.524 E7.06905
G1 X114.019 Y93.978 E7.08421
G1 X113.901 Y94.418 E7.09936
G1 X113.707 Y94.83 E7.11451
G1 X113.444 Y95.203 E7.12969
G1 X113.121 Y95.524 E7.14483
G1 X112.746 Y95.783 E7.15999
G1 X112.332 Y95.973 E7.17514
G1 X111.891 Y96.088 E7.1903
G1 X111.459 Y96.124 E7.20472
G1 X108.252 Y96.124 E7.31138
G1 X108.257 Y96.128 E7.31159
G1 X108.648 Y96.475 E7.32898
G1 X108.853 Y96.679 E7.3386
G1 X109.219 Y97.085 E7.35678
G1 X109.369 Y97.267 E7.36463
G1 X109.698 Y97.706 E7.38287
G1 X109.821 Y97.885 E7.3901
G1 X110.126 Y98.372 E7.40921
G1 X110.219 Y98.535 E7.41545
G1 X110.494 Y99.054 E7.43499
G1 X110.561 Y99.188 E7.43997
G1 X110.785 Y99.677 E7.45786
G1 X110.837 Y99.799 E7.46227
G1 X111.043 Y100.317 E7.48081
G1 X111.089 Y100.442 E7.48524
G1 X111.271 Y100.978 E7.50407
G1 X111.303 Y101.078 E7.50756
G1 X111.463 Y101.62 E7.52636
G1 X111.493 Y101.733 E7.53024
G1 X111.632 Y102.296 E7.54953
G1 X111.653 Y102.388 E7.55267
G1 X111.772 Y102.958 E7.57204
G1 X111.79 Y103.051 E7.57519
G1 X111.886 Y103.613 E7.59415
G1 X111.899 Y103.697 E7.59698
G1 X111.978 Y104.272 E7.61628
G1 X111.99 Y104.375 E7.61973
G1 X112.046 Y104.952 E7.63901
G1 X112.051 Y105.015 E7.64111
G1 X112.091 Y105.567 E7.65952
G1 X112.096 Y105.653 E7.66239
G1 X112.118 Y106.216 E7.68113
G1 X112.12 Y106.294 E7.68372
G1 X112.125 Y106.846 E7.70208
G1 X112.124 Y106.938 E7.70514
G1 X112.11 Y107.477 E7.72308
G1 X112.108 Y107.542 E7.72524
G1 X112.079 Y108.11 E7.74416
G1 X112.073 Y108.198 E7.74709
G1 X112.024 Y108.772 E7.76625
G1 X112.014 Y108.866 E7.76939
G1 X111.946 Y109.424 E7.78809
G1 X111.937 Y109.49 E7.79031
G1 X111.851 Y110.07 E7.80981
G1 X111.834 Y110.171 E7.81321
G1 X111.726 Y110.744 E7.83261
G1 X111.705 Y110.845 E7.83604
G1 X111.578 Y111.397 E7.85488
G1 X111.553 Y111.496 E7.85827
G1 X111.401 Y112.055 E7.87754
G1 X111.371 Y112.158 E7.88111
G1 X111.199 Y112.701 E7.90005
G1 X111.16 Y112.814 E7.90403
G1 X110.969 Y113.333 E7.92242
G1 X110.92 Y113.455 E7.9268
G1 X110.702 Y113.966 E7.94528
G1 X110.651 Y114.08 E7.94943
G1 X110.43 Y114.536 E7.96628
G1 X110.348 Y114.691 E7.97212
G1 X110.059 Y115.197 E7.9915
G1 X109.961 Y115.356 E7.99771
G1 X109.654 Y115.814 E8.01605
G1 X109.525 Y115.99 E8.02331
G1 X109.178 Y116.424 E8.04179
G1 X109 Y116.624 E8.05069
G1 X108.62 Y117.01 E8.06871
G1 X108.389 Y117.218 E8.07905
G1 X107.992 Y117.535 E8.09594
G1 X107.695 Y117.74 E8.10795
G1 X107.229 Y118.016 E8.12596
G1 X106.804 Y118.218 E8.14161
G1 X106.3 Y118.404 E8.15948
G1 X105.797 Y118.535 E8.17677
G1 X105.292 Y118.613 E8.19376
G1 X104.748 Y118.639 E8.21188
G1 X104.237 Y118.61 E8.2289
G1 X103.72 Y118.528 E8.24631
G1 X103.224 Y118.397 E8.26337
G1 X102.75 Y118.221 E8.28019
G1 X102.257 Y117.981 E8.29843
G1 X101.882 Y117.757 E8.31296
G1 X101.386 Y117.402 E8.33324
G1 X101.239 Y117.289 E8.33941
G1 X101.198 Y117.255 E8.34118
G1 X100.874 Y116.935 E8.35633
G1 X100.611 Y116.563 E8.37148
G1 X100.417 Y116.151 E8.38663
G1 X100.298 Y115.711 E8.40179
G1 X100.258 Y115.257 E8.41695
G1 X100.297 Y114.803 E8.4321
G1 X100.415 Y114.363 E8.44725
G1 X100.513 Y114.131 E8.45563
G1 X100.786 Y113.56 E8.47668
G1 X101.029 Y113.015 E8.49653
G1 X101.271 Y112.431 E8.51755
G1 X101.45 Y111.962 E8.53425
G1 X101.647 Y111.389 E8.5544
G1 X101.859 Y110.731 E8.57739
G1 X102.021 Y110.161 E8.5971
G1 X102.167 Y109.582 E8.61696
G1 X102.285 Y109.052 E8.63502
G1 X102.41 Y108.416 E8.65658
G1 X102.504 Y107.841 E8.67596
G1 X102.587 Y107.226 E8.6966
