;FLAVOR:Marlin
;TIME:89
;Filament used: 0.0307786m
;Layer height: 0.12
;MINX:83.038
;MINY:91.715
;MINZ:0.2
;MAXX:107.07
;MAXY:108.286
;MAXZ:1.52
;Generated with Cura_SteamEngine 4.4.1
M140 S60
M105
M190 S60
M104 S200
M105
M109 S200
M82 ;absolute extrusion mode
; START CODE
G21 ;metric values
G90 ;absolute positioning
M82 ;set extruder to absolute mode
M107 ;start with the fan off
G28 X0 Y0 ;move X/Y to min endstops
G28 Z0 ;move Z to min endstops
G1 Z15.0 F120 ;move the platform down 15mm
G92 E0 ;zero the extruded length
G1 F200 E6 ;extrude 6 mm of feed stock
G92 E0 ;zero the extruded length again
G1 F120
;Put printing message on LCD screen
M117 Printing...
G92 E0
G92 E0
G1 F2400 E-2.5
;LAYER_COUNT:12
;LAYER:0
M107
G0 F3600 X85.582 Y93.484 Z0.2
;TYPE:SKIRT
G1 F2400 E0
G1 F900 X85.937 Y93.178 E0.01559
G1 X86.431 Y92.805 E0.03618
G1 X86.903 Y92.531 E0.05433
G1 X87.31 Y92.325 E0.0695
G1 X87.88 Y92.082 E0.09011
G1 X88.595 Y91.89 E0.11473
G1 X89.113 Y91.793 E0.13226
G1 X89.727 Y91.719 E0.15283
G1 X90.218 Y91.716 E0.16916
G1 X90.477 Y91.728 E0.17779
G1 X93.156 Y91.816 E0.26694
G1 X95.865 Y91.83 E0.35704
G1 X99.276 Y91.737 E0.47053
G1 X99.746 Y91.715 E0.48618
G1 X100.618 Y91.754 E0.51521
G1 X101.057 Y91.814 E0.52995
G1 X101.664 Y91.937 E0.55055
G1 X102.294 Y92.156 E0.57273
G1 X102.701 Y92.33 E0.58746
G1 X103.253 Y92.61 E0.60804
G1 X103.614 Y92.845 E0.62237
G1 X103.795 Y92.975 E0.62978
G1 X104.003 Y93.134 E0.63849
G1 X104.233 Y93.319 E0.64831
G1 X104.868 Y93.933 E0.67769
G1 X105.013 Y94.102 E0.68509
G1 X105.132 Y94.247 E0.69133
G1 X105.319 Y94.483 E0.70135
G1 X105.722 Y95.077 E0.72522
G1 X106.028 Y95.611 E0.74569
G1 X106.332 Y96.247 E0.76914
G1 X106.477 Y96.617 E0.78235
G1 X106.61 Y97.005 E0.796
G1 X106.74 Y97.444 E0.81122
G1 X106.812 Y97.716 E0.82058
G1 X106.865 Y97.943 E0.82834
G1 X106.945 Y98.369 E0.84275
G1 X106.993 Y98.712 E0.85427
G1 X107.03 Y99.091 E0.86694
G1 X107.064 Y99.66 E0.8859
G1 X107.07 Y100.121 E0.90123
G1 X107.048 Y100.724 E0.9213
G1 X107.006 Y101.204 E0.93732
G1 X106.963 Y101.516 E0.9478
G1 X106.869 Y102.009 E0.96449
G1 X106.702 Y102.687 E0.98772
G1 X106.512 Y103.286 E1.00862
G1 X106.294 Y103.844 E1.02854
G1 X105.985 Y104.487 E1.05227
G1 X105.811 Y104.79 E1.06389
G1 X105.727 Y104.932 E1.06938
G1 X105.609 Y105.122 E1.07682
G1 X105.128 Y105.768 E1.10361
G1 X104.772 Y106.171 E1.12149
G1 X104.333 Y106.608 E1.14209
G1 X103.983 Y106.886 E1.15696
G1 X103.556 Y107.194 E1.17447
G1 X103.031 Y107.523 E1.19508
G1 X102.388 Y107.812 E1.21852
G1 X101.923 Y107.981 E1.23498
G1 X101.328 Y108.155 E1.2556
G1 X100.439 Y108.267 E1.2854
G1 X99.978 Y108.282 E1.30074
G1 X99.635 Y108.281 E1.31215
G1 X98.685 Y108.244 E1.34377
G1 X95.985 Y108.176 E1.4336
G1 X93.281 Y108.185 E1.52354
G1 X89.979 Y108.286 E1.63341
G1 X89.36 Y108.265 E1.65401
G1 X88.605 Y108.128 E1.67954
G1 X88.363 Y108.064 E1.68786
G1 X88.25 Y108.033 E1.69176
G1 X88.023 Y107.967 E1.69962
G1 X87.441 Y107.756 E1.72021
G1 X86.888 Y107.471 E1.7409
G1 X86.529 Y107.255 E1.75484
G1 X86.02 Y106.902 E1.77544
G1 X85.677 Y106.602 E1.7906
G1 X85.26 Y106.201 E1.80984
G1 X84.842 Y105.744 E1.83044
G1 X84.624 Y105.449 E1.84264
G1 X84.365 Y105.07 E1.85791
G1 X84.221 Y104.847 E1.86673
G1 X84.103 Y104.652 E1.87432
G1 X83.835 Y104.141 E1.89351
G1 X83.738 Y103.926 E1.90135
G1 X83.607 Y103.606 E1.91285
G1 X83.411 Y103.072 E1.93177
G1 X83.235 Y102.478 E1.95238
G1 X83.12 Y101.575 E1.98265
G1 X83.038 Y99.063 E2.06625
G1 X83.057 Y98.444 E2.08685
G1 X83.203 Y97.648 E2.11376
G1 X83.332 Y97.173 E2.13013
G1 X83.488 Y96.696 E2.14683
G1 X83.6 Y96.407 E2.15713
G1 X83.647 Y96.291 E2.1613
G1 X83.731 Y96.09 E2.16854
G1 X83.981 Y95.58 E2.18743
G1 X84.225 Y95.148 E2.20394
G1 X84.66 Y94.506 E2.22973
G1 X84.972 Y94.117 E2.24631
G1 X85.582 Y93.484 E2.27555
G0 F3600 X85.843 Y93.787
G1 F900 X86.198 Y93.481 E2.29114
G1 X86.672 Y93.125 E2.31086
G1 X87.084 Y92.888 E2.32667
G1 X87.491 Y92.682 E2.34184
G1 X88.037 Y92.451 E2.36156
G1 X88.668 Y92.283 E2.38327
G1 X89.186 Y92.186 E2.4008
G1 X89.775 Y92.117 E2.42053
G1 X90.2 Y92.116 E2.43466
G1 X90.4 Y92.125 E2.44132
G1 X93.177 Y92.216 E2.53373
G1 X95.874 Y92.23 E2.62344
G1 X99.307 Y92.136 E2.73766
G1 X99.765 Y92.115 E2.75291
G1 X100.564 Y92.151 E2.77951
G1 X101.003 Y92.211 E2.79425
G1 X101.584 Y92.33 E2.81398
G1 X102.137 Y92.524 E2.83347
G1 X102.544 Y92.698 E2.84819
G1 X103.072 Y92.968 E2.86791
G1 X103.381 Y93.17 E2.88019
G1 X103.562 Y93.3 E2.88761
G1 X103.753 Y93.445 E2.89558
G1 X103.983 Y93.63 E2.9054
G1 X104.564 Y94.194 E2.93233
G1 X104.709 Y94.363 E2.93974
G1 X104.819 Y94.495 E2.94545
G1 X105.006 Y94.731 E2.95547
G1 X105.375 Y95.276 E2.97736
G1 X105.681 Y95.81 E2.99783
G1 X105.96 Y96.393 E3.01932
G1 X106.105 Y96.763 E3.03254
G1 X106.227 Y97.119 E3.04506
G1 X106.357 Y97.558 E3.06029
G1 X106.423 Y97.807 E3.06885
G1 X106.476 Y98.034 E3.07661
G1 X106.549 Y98.424 E3.0898
G1 X106.597 Y98.767 E3.10132
G1 X106.631 Y99.115 E3.11295
G1 X106.665 Y99.684 E3.13191
G1 X106.67 Y100.106 E3.14595
G1 X106.648 Y100.709 E3.16602
G1 X106.61 Y101.15 E3.18074
G1 X106.567 Y101.462 E3.19121
G1 X106.48 Y101.913 E3.20649
G1 X106.313 Y102.591 E3.22972
G1 X106.139 Y103.14 E3.24887
G1 X105.921 Y103.698 E3.2688
G1 X105.639 Y104.288 E3.29055
G1 X105.465 Y104.591 E3.30217
G1 X105.387 Y104.721 E3.30721
G1 X105.269 Y104.911 E3.31465
G1 X104.829 Y105.503 E3.33918
G1 X104.473 Y105.906 E3.35707
G1 X104.051 Y106.323 E3.3768
G1 X103.749 Y106.562 E3.38961
G1 X103.322 Y106.87 E3.40712
G1 X102.819 Y107.183 E3.42682
G1 X102.251 Y107.436 E3.4475
G1 X101.786 Y107.605 E3.46396
G1 X101.216 Y107.77 E3.4837
G1 X100.426 Y107.868 E3.51017
G1 X99.965 Y107.883 E3.52552
G1 X99.651 Y107.882 E3.53596
G1 X98.71 Y107.845 E3.56728
G1 X95.959 Y107.776 E3.65881
G1 X93.268 Y107.785 E3.74831
G1 X89.967 Y107.886 E3.85815
G1 X89.374 Y107.864 E3.87789
G1 X88.707 Y107.742 E3.90044
G1 X88.465 Y107.678 E3.90877
G1 X88.362 Y107.649 E3.91233
G1 X88.135 Y107.583 E3.92019
G1 X87.578 Y107.38 E3.93991
G1 X87.095 Y107.128 E3.95803
G1 X86.736 Y106.912 E3.97196
G1 X86.249 Y106.573 E3.9917
G1 X85.954 Y106.314 E4.00476
G1 X85.537 Y105.913 E4.024
G1 X85.138 Y105.474 E4.04373
G1 X84.954 Y105.224 E4.05405
G1 X84.695 Y104.845 E4.06932
G1 X84.564 Y104.64 E4.07741
G1 X84.446 Y104.445 E4.08499
G1 X84.199 Y103.976 E4.10262
G1 X84.102 Y103.761 E4.11047
G1 X83.982 Y103.468 E4.121
G1 X83.786 Y102.934 E4.13992
G1 X83.62 Y102.365 E4.15963
G1 X83.519 Y101.562 E4.18655
G1 X83.437 Y99.05 E4.27015
G1 X83.458 Y98.457 E4.28988
G1 X83.589 Y97.753 E4.3137
G1 X83.718 Y97.278 E4.33007
G1 X83.861 Y96.841 E4.34536
G1 X83.973 Y96.552 E4.35567
G1 X84.016 Y96.445 E4.35951
G1 X84.1 Y96.244 E4.36675
G1 X84.329 Y95.777 E4.38405
G1 X84.573 Y95.345 E4.40055
G1 X84.972 Y94.756 E4.42422
G1 X85.284 Y94.367 E4.4408
G1 X85.843 Y93.787 E4.46759
G0 F3600 X86.104 Y94.09
G1 F900 X86.459 Y93.784 E4.48318
G1 X86.913 Y93.446 E4.50201
G1 X87.265 Y93.245 E4.51549
G1 X87.672 Y93.039 E4.53066
G1 X88.193 Y92.82 E4.54946
G1 X88.742 Y92.676 E4.56834
G1 X89.26 Y92.579 E4.58586
G1 X89.821 Y92.515 E4.60464
G1 X90.181 Y92.515 E4.61662
G1 X90.421 Y92.526 E4.62461
G1 X93.162 Y92.616 E4.71582
G1 X95.852 Y92.63 E4.80529
G1 X99.335 Y92.535 E4.92118
G1 X99.783 Y92.514 E4.9361
G1 X100.51 Y92.547 E4.9603
G1 X100.949 Y92.607 E4.97504
G1 X101.502 Y92.723 E4.99383
G1 X101.979 Y92.892 E5.01067
G1 X102.386 Y93.066 E5.02539
G1 X102.889 Y93.324 E5.04419
G1 X103.147 Y93.495 E5.05448
G1 X103.328 Y93.625 E5.0619
G1 X103.502 Y93.757 E5.06916
G1 X103.732 Y93.942 E5.07898
G1 X104.261 Y94.454 E5.10346
G1 X104.406 Y94.623 E5.11087
G1 X104.505 Y94.744 E5.11607
G1 X104.692 Y94.98 E5.12609
G1 X105.028 Y95.475 E5.14598
G1 X105.334 Y96.009 E5.16645
G1 X105.587 Y96.539 E5.18599
G1 X105.732 Y96.909 E5.1992
G1 X105.843 Y97.232 E5.21056
G1 X105.973 Y97.671 E5.22579
G1 X106.033 Y97.898 E5.2336
G1 X106.086 Y98.125 E5.24135
G1 X106.152 Y98.48 E5.25336
G1 X106.2 Y98.823 E5.26488
G1 X106.232 Y99.138 E5.27541
G1 X106.266 Y99.707 E5.29437
G1 X106.27 Y100.092 E5.30718
G1 X106.248 Y100.695 E5.32725
G1 X106.214 Y101.095 E5.3406
G1 X106.171 Y101.407 E5.35108
G1 X106.092 Y101.818 E5.365
G1 X105.925 Y102.496 E5.38822
G1 X105.767 Y102.995 E5.40563
G1 X105.549 Y103.553 E5.42555
G1 X105.292 Y104.089 E5.44533
G1 X105.118 Y104.392 E5.45695
G1 X105.047 Y104.51 E5.46153
G1 X104.929 Y104.7 E5.46897
G1 X104.529 Y105.238 E5.49126
G1 X104.173 Y105.641 E5.50915
G1 X103.77 Y106.037 E5.52794
G1 X103.515 Y106.237 E5.53872
G1 X103.088 Y106.545 E5.55623
G1 X102.607 Y106.843 E5.57505
G1 X102.114 Y107.06 E5.59297
G1 X101.649 Y107.229 E5.60942
G1 X101.106 Y107.384 E5.6282
G1 X100.413 Y107.468 E5.65142
G1 X99.952 Y107.483 E5.66676
G1 X99.666 Y107.482 E5.67627
G1 X98.734 Y107.446 E5.7073
G1 X95.968 Y107.376 E5.79932
G1 X93.255 Y107.385 E5.88956
G1 X89.955 Y107.486 E5.99937
G1 X89.39 Y107.463 E6.01818
G1 X88.809 Y107.355 E6.03783
G1 X88.567 Y107.291 E6.04616
G1 X88.473 Y107.265 E6.0494
G1 X88.246 Y107.199 E6.05726
G1 X87.716 Y107.003 E6.07606
G1 X87.301 Y106.785 E6.09165
G1 X86.942 Y106.569 E6.10558
G1 X86.479 Y106.244 E6.1244
G1 X86.231 Y106.025 E6.1354
G1 X85.814 Y105.624 E6.15464
G1 X85.284 Y104.998 E6.18193
G1 X85.025 Y104.619 E6.19719
G1 X84.906 Y104.433 E6.20454
G1 X84.788 Y104.238 E6.21212
G1 X84.564 Y103.812 E6.22813
G1 X84.467 Y103.597 E6.23597
G1 X84.358 Y103.33 E6.24556
G1 X84.162 Y102.796 E6.26448
G1 X84.005 Y102.253 E6.28328
G1 X83.919 Y101.549 E6.30687
G1 X83.837 Y99.037 E6.39047
G1 X83.859 Y98.472 E6.40927
G1 X83.975 Y97.858 E6.43006
G1 X84.104 Y97.383 E6.44643
G1 X84.234 Y96.986 E6.46032
G1 X84.346 Y96.697 E6.47063
G1 X84.385 Y96.6 E6.47411
G1 X84.469 Y96.399 E6.48135
G1 X84.677 Y95.974 E6.49709
G1 X84.921 Y95.542 E6.51359
G1 X85.284 Y95.006 E6.53512
G1 X85.596 Y94.617 E6.55171
G1 X86.104 Y94.09 E6.57605
G0 F3600 X86.366 Y94.393
G1 F900 X86.721 Y94.087 E6.59164
G1 X87.152 Y93.768 E6.60948
G1 X87.445 Y93.602 E6.62068
G1 X87.852 Y93.396 E6.63585
G1 X88.347 Y93.19 E6.65368
G1 X88.815 Y93.07 E6.66975
G1 X89.333 Y92.973 E6.68728
G1 X89.866 Y92.913 E6.70512
G1 X90.163 Y92.915 E6.715
G1 X90.393 Y92.926 E6.72266
G1 X93.146 Y93.016 E6.81427
G1 X95.861 Y93.03 E6.90457
G1 X99.365 Y92.934 E7.02116
G1 X99.802 Y92.914 E7.03571
G1 X100.455 Y92.943 E7.05745
G1 X100.894 Y93.003 E7.07219
G1 X101.419 Y93.115 E7.09004
G1 X101.822 Y93.26 E7.10429
G1 X102.229 Y93.434 E7.11901
G1 X102.914 Y93.82 E7.14516
G1 X103.095 Y93.95 E7.15257
G1 X103.251 Y94.069 E7.1591
G1 X103.481 Y94.254 E7.16892
G1 X103.957 Y94.715 E7.19095
G1 X104.102 Y94.884 E7.19836
G1 X104.192 Y94.992 E7.20304
G1 X104.379 Y95.228 E7.21305
G1 X104.681 Y95.674 E7.23097
G1 X104.987 Y96.208 E7.25144
G1 X105.215 Y96.684 E7.26899
G1 X105.36 Y97.054 E7.28221
G1 X105.46 Y97.346 E7.29247
G1 X105.59 Y97.785 E7.3077
G1 X105.644 Y97.988 E7.31469
G1 X105.697 Y98.215 E7.32244
G1 X105.756 Y98.535 E7.33326
G1 X105.804 Y98.878 E7.34478
G1 X105.833 Y99.162 E7.35428
G1 X105.867 Y99.731 E7.37324
G1 X105.871 Y100.077 E7.38475
G1 X105.849 Y100.68 E7.40482
G1 X105.817 Y101.041 E7.41687
G1 X105.774 Y101.353 E7.42735
G1 X105.704 Y101.722 E7.43984
G1 X105.537 Y102.4 E7.46306
G1 X105.394 Y102.849 E7.47873
G1 X105.176 Y103.407 E7.49866
G1 X104.945 Y103.89 E7.51647
G1 X104.771 Y104.193 E7.52809
G1 X104.707 Y104.299 E7.53221
G1 X104.589 Y104.489 E7.53965
G1 X104.229 Y104.973 E7.55971
G1 X103.873 Y105.376 E7.57759
G1 X103.281 Y105.913 E7.60418
G1 X102.854 Y106.221 E7.62169
G1 X102.397 Y106.501 E7.63951
G1 X101.978 Y106.684 E7.65472
G1 X101.513 Y106.853 E7.67118
G1 X100.996 Y106.999 E7.68904
G1 X100.4 Y107.068 E7.709
G1 X99.939 Y107.083 E7.72434
G1 X99.682 Y107.082 E7.73289
G1 X98.757 Y107.046 E7.76368
G1 X95.977 Y106.976 E7.85617
G1 X93.241 Y106.985 E7.94717
G1 X89.942 Y107.086 E8.05695
G1 X89.407 Y107.063 E8.07476
G1 X88.912 Y106.968 E8.09152
G1 X88.67 Y106.904 E8.09985
G1 X88.585 Y106.881 E8.10278
G1 X88.358 Y106.815 E8.11064
G1 X87.856 Y106.627 E8.12847
G1 X87.507 Y106.443 E8.14159
G1 X87.148 Y106.227 E8.15553
G1 X86.71 Y105.917 E8.17337
G1 X86.509 Y105.737 E8.18235
G1 X86.092 Y105.336 E8.20159
G1 X85.615 Y104.772 E8.22616
G1 X85.356 Y104.393 E8.24143
G1 X85.248 Y104.226 E8.24804
G1 X85.13 Y104.031 E8.25562
G1 X84.929 Y103.647 E8.27004
G1 X84.832 Y103.432 E8.27788
G1 X84.733 Y103.192 E8.28652
G1 X84.537 Y102.658 E8.30544
G1 X84.391 Y102.143 E8.32324
G1 X84.319 Y101.535 E8.3436
G1 X84.237 Y99.023 E8.4272
G1 X84.259 Y98.488 E8.44501
G1 X84.361 Y97.962 E8.46283
G1 X84.49 Y97.487 E8.4792
G1 X84.607 Y97.13 E8.49169
G1 X84.719 Y96.841 E8.502
G1 X84.754 Y96.754 E8.50512
G1 X84.838 Y96.553 E8.51237
G1 X85.025 Y96.171 E8.52651
G1 X85.269 Y95.739 E8.54301
G1 X85.596 Y95.257 E8.56239
G1 X85.908 Y94.868 E8.57897
G1 X86.366 Y94.393 E8.60092
G0 F3600 X86.627 Y94.696
G1 F900 X86.982 Y94.39 E8.61651
G1 X87.39 Y94.091 E8.63333
G1 X87.626 Y93.959 E8.64233
G1 X88.033 Y93.753 E8.6575
G1 X88.501 Y93.561 E8.67432
G1 X88.889 Y93.463 E8.68763
G1 X89.407 Y93.366 E8.70516
G1 X90.144 Y93.314 E8.72973
G1 X90.403 Y93.326 E8.73836
G1 X93.131 Y93.416 E8.82914
G1 X95.87 Y93.43 E8.92024
G1 X99.341 Y93.335 E9.03573
G1 X99.82 Y93.313 E9.05168
G1 X100.401 Y93.339 E9.07102
G1 X100.84 Y93.399 E9.08576
G1 X101.334 Y93.507 E9.10258
G1 X101.665 Y93.628 E9.1143
G1 X102.072 Y93.802 E9.12902
G1 X102.681 Y94.145 E9.15227
G1 X102.862 Y94.275 E9.15968
G1 X103.001 Y94.381 E9.16549
G1 X103.231 Y94.566 E9.17531
G1 X103.654 Y94.975 E9.19488
G1 X103.799 Y95.144 E9.20229
G1 X103.878 Y95.241 E9.20645
G1 X104.065 Y95.477 E9.21646
G1 X104.333 Y95.873 E9.23237
G1 X104.639 Y96.407 E9.25284
G1 X104.842 Y96.83 E9.26844
G1 X104.987 Y97.2 E9.28166
G1 X105.076 Y97.459 E9.29077
G1 X105.206 Y97.898 E9.306
G1 X105.254 Y98.079 E9.31223
G1 X105.307 Y98.306 E9.31998
G1 X105.36 Y98.591 E9.32962
G1 X105.408 Y98.934 E9.34114
G1 X105.433 Y99.186 E9.34956
G1 X105.467 Y99.755 E9.36852
G1 X105.471 Y100.063 E9.37877
G1 X105.449 Y100.666 E9.39884
G1 X105.421 Y100.986 E9.40952
G1 X105.378 Y101.298 E9.41999
G1 X105.315 Y101.626 E9.4311
G1 X105.148 Y102.304 E9.45433
G1 X105.022 Y102.703 E9.46824
G1 X104.804 Y103.261 E9.48817
G1 X104.598 Y103.691 E9.50403
G1 X104.424 Y103.994 E9.51565
G1 X104.367 Y104.088 E9.51931
G1 X104.249 Y104.278 E9.52675
G1 X103.929 Y104.709 E9.5446
G1 X103.573 Y105.112 E9.56248
G1 X103.047 Y105.588 E9.58608
G1 X102.62 Y105.896 E9.60359
G1 X102.188 Y106.159 E9.62041
G1 X101.841 Y106.309 E9.63299
G1 X101.376 Y106.478 E9.64944
G1 X100.889 Y106.612 E9.66624
G1 X100.387 Y106.668 E9.68304
G1 X99.926 Y106.683 E9.69838
G1 X99.697 Y106.683 E9.706
G1 X98.722 Y106.645 E9.73845
G1 X95.985 Y106.576 E9.82951
G1 X93.227 Y106.585 E9.92125
G1 X89.93 Y106.686 E10.03096
G1 X89.425 Y106.662 E10.04777
G1 X89.014 Y106.582 E10.0617
G1 X88.772 Y106.518 E10.07002
G1 X88.697 Y106.497 E10.07261
G1 X88.47 Y106.431 E10.08048
G1 X87.997 Y106.252 E10.0973
G1 X87.713 Y106.1 E10.10801
G1 X87.354 Y105.884 E10.12195
G1 X86.786 Y105.449 E10.14574
G1 X86.369 Y105.048 E10.16498
G1 X85.945 Y104.546 E10.18684
G1 X85.686 Y104.167 E10.20211
G1 X85.59 Y104.019 E10.20797
G1 X85.472 Y103.824 E10.21555
G1 X85.293 Y103.483 E10.22836
G1 X85.196 Y103.268 E10.23621
G1 X85.109 Y103.055 E10.24386
G1 X84.913 Y102.521 E10.26278
G1 X84.777 Y102.034 E10.2796
G1 X84.719 Y101.522 E10.29674
G1 X84.637 Y99.01 E10.38033
G1 X84.66 Y98.505 E10.39714
G1 X84.747 Y98.067 E10.412
G1 X84.876 Y97.592 E10.42837
G1 X84.98 Y97.275 E10.43946
G1 X85.092 Y96.986 E10.44977
G1 X85.123 Y96.908 E10.45256
G1 X85.207 Y96.707 E10.45981
G1 X85.374 Y96.367 E10.47241
G1 X85.618 Y95.935 E10.48891
G1 X85.908 Y95.507 E10.50611
G1 X86.22 Y95.118 E10.52269
G1 X86.627 Y94.696 E10.54219
G1 F2400 E8.04219
;MESH:eye_Black.stl
G0 F3600 X88.601 Y96.329
G0 X89.303 Y97.154
G0 X90.851 Y97.678
;TYPE:WALL-INNER
G1 F2400 E10.54219
G1 F900 X90.764 Y97.649 E10.54524
G1 X90.435 Y97.536 E10.55681
G1 X90.179 Y97.448 E10.56582
G1 X89.944 Y97.409 E10.57374
G1 X89.733 Y97.374 E10.58085
G1 X89.718 Y97.375 E10.58135
G1 X89.409 Y97.395 E10.59165
G1 X89.287 Y97.404 E10.59572
G1 X89.402 Y97.306 E10.5969
G1 X89.64 Y97.188 E10.59975
G1 X89.703 Y97.156 E10.59997
G1 X89.993 Y97.108 E10.60686
G1 X90.225 Y97.143 E10.61282
G1 X90.278 Y97.151 E10.6144
G1 X90.306 Y97.163 E10.61488
