;FLAVOR:Marlin
;TIME:3626
;Filament used: 1.50863m
;Layer height: 0.12
;MINX:73.169
;MINY:74.728
;MINZ:0.2
;MAXX:126.826
;MAXY:125.27
;MAXZ:11.12
;Generated with Cura_SteamEngine 4.4.1
M140 S60
M105
M190 S60
M104 S200
M105
M109 S200
M82 ;absolute extrusion mode
; START CODE
G21 ;metric values
G90 ;absolute positioning
M82 ;set extruder to absolute mode
M107 ;start with the fan off
G28 X0 Y0 ;move X/Y to min endstops
G28 Z0 ;move Z to min endstops
G1 Z15.0 F120 ;move the platform down 15mm
G92 E0 ;zero the extruded length
G1 F200 E6 ;extrude 6 mm of feed stock
G92 E0 ;zero the extruded length again
G1 F120
;Put printing message on LCD screen
M117 Printing...
G92 E0
G92 E0
G1 F2400 E-2.5
;LAYER_COUNT:92
;LAYER:0
M107
G0 F3600 X78.105 Y78.497 Z0.2
;TYPE:SKIRT
G1 F2400 E0
G1 F900 X78.23 Y78.376 E0.00579
G1 X78.651 Y77.988 E0.02483
G1 X78.798 Y77.86 E0.03131
G1 X79.161 Y77.56 E0.04697
G1 X79.254 Y77.485 E0.05095
G1 X79.46 Y77.326 E0.0596
G1 X79.535 Y77.27 E0.06272
G1 X79.885 Y77.014 E0.07714
G1 X80.039 Y76.907 E0.08338
G1 X80.334 Y76.714 E0.0951
G1 X80.449 Y76.642 E0.09961
G1 X80.906 Y76.367 E0.11735
G1 X81.053 Y76.283 E0.12298
G1 X81.346 Y76.125 E0.13406
G1 X81.445 Y76.074 E0.13776
G1 X81.655 Y75.969 E0.14557
G1 X81.824 Y75.89 E0.15177
G1 X82.25 Y75.704 E0.16723
G1 X82.346 Y75.664 E0.17069
G1 X82.803 Y75.48 E0.18708
G1 X83.044 Y75.392 E0.19561
G1 X83.491 Y75.248 E0.21123
G1 X83.722 Y75.182 E0.21922
G1 X84.238 Y75.053 E0.23691
G1 X84.336 Y75.03 E0.24026
G1 X84.749 Y74.939 E0.25433
G1 X84.985 Y74.896 E0.26231
G1 X85.48 Y74.821 E0.27896
G1 X85.668 Y74.797 E0.28526
G1 X85.923 Y74.772 E0.29378
G1 X86.176 Y74.756 E0.30222
G1 X87.13 Y74.73 E0.33396
G1 X87.366 Y74.732 E0.34181
G1 X87.575 Y74.74 E0.34876
G1 X87.757 Y74.751 E0.35483
G1 X88.239 Y74.794 E0.37092
G1 X88.333 Y74.804 E0.37407
G1 X88.811 Y74.859 E0.39007
G1 X91.538 Y75.139 E0.48125
G1 X94.265 Y75.34 E0.57219
G1 X96.992 Y75.465 E0.66299
G1 X99.687 Y75.512 E0.75264
G1 X102.452 Y75.482 E0.84461
G1 X105.145 Y75.377 E0.93425
G1 X107.881 Y75.191 E1.02546
G1 X111.41 Y74.838 E1.14342
G1 X111.45 Y74.834 E1.14475
G1 X112.405 Y74.749 E1.17664
G1 X112.67 Y74.735 E1.18547
G1 X113.138 Y74.728 E1.20104
G1 X113.307 Y74.73 E1.20666
G1 X113.619 Y74.74 E1.21704
G1 X113.818 Y74.752 E1.22367
G1 X114.275 Y74.792 E1.23893
G1 X114.499 Y74.818 E1.24643
G1 X115.028 Y74.898 E1.26422
G1 X115.224 Y74.934 E1.27085
G1 X115.565 Y75.005 E1.28244
G1 X115.71 Y75.038 E1.28738
G1 X116.23 Y75.169 E1.30522
G1 X116.42 Y75.222 E1.31178
G1 X116.761 Y75.328 E1.32366
G1 X116.915 Y75.38 E1.32906
G1 X117.297 Y75.518 E1.34257
G1 X117.493 Y75.596 E1.34959
G1 X118.134 Y75.871 E1.37279
G1 X118.319 Y75.956 E1.37956
G1 X118.538 Y76.065 E1.38769
G1 X118.634 Y76.115 E1.39129
G1 X118.871 Y76.242 E1.40024
G1 X118.966 Y76.294 E1.40384
G1 X119.272 Y76.47 E1.41558
G1 X119.409 Y76.554 E1.42093
G1 X119.824 Y76.818 E1.43729
G1 X119.948 Y76.9 E1.44223
G1 X120.247 Y77.108 E1.45434
G1 X120.377 Y77.202 E1.45968
G1 X120.75 Y77.487 E1.47529
G1 X120.847 Y77.565 E1.47943
G1 X121.014 Y77.702 E1.48662
G1 X121.09 Y77.766 E1.48992
G1 X121.415 Y78.048 E1.50423
G1 X121.534 Y78.155 E1.50956
G1 X121.943 Y78.543 E1.52831
G1 X122.073 Y78.673 E1.53442
G1 X122.485 Y79.106 E1.5543
G1 X122.62 Y79.256 E1.56101
G1 X122.949 Y79.643 E1.57791
G1 X123.019 Y79.728 E1.58157
G1 X123.166 Y79.912 E1.5894
G1 X123.228 Y79.992 E1.59277
G1 X123.528 Y80.39 E1.60935
G1 X123.623 Y80.523 E1.61478
G1 X123.964 Y81.021 E1.63486
G1 X124.067 Y81.179 E1.64113
G1 X124.396 Y81.718 E1.66213
G1 X124.478 Y81.861 E1.66762
G1 X124.768 Y82.389 E1.68765
G1 X124.842 Y82.531 E1.69298
G1 X125.118 Y83.091 E1.71374
G1 X125.189 Y83.244 E1.71935
G1 X125.437 Y83.813 E1.74
G1 X125.496 Y83.955 E1.74511
G1 X125.726 Y84.551 E1.76636
G1 X125.78 Y84.701 E1.77166
G1 X125.966 Y85.255 E1.7911
G1 X126.012 Y85.405 E1.79632
G1 X126.143 Y85.86 E1.81206
G1 X126.187 Y86.028 E1.81784
G1 X126.39 Y86.887 E1.8472
G1 X126.422 Y87.032 E1.85214
G1 X126.543 Y87.658 E1.87334
G1 X126.567 Y87.797 E1.87803
G1 X126.659 Y88.399 E1.89829
G1 X126.677 Y88.536 E1.90289
G1 X126.731 Y89.011 E1.91879
G1 X126.743 Y89.141 E1.92313
G1 X126.794 Y89.803 E1.94521
G1 X126.802 Y89.945 E1.94994
G1 X126.823 Y90.503 E1.96851
G1 X126.826 Y90.638 E1.97301
G1 X126.826 Y91.225 E1.99253
G1 X126.823 Y91.362 E1.99709
G1 X126.802 Y91.915 E2.01549
G1 X126.795 Y92.052 E2.02006
G1 X126.744 Y92.719 E2.0423
G1 X126.731 Y92.852 E2.04675
G1 X126.677 Y93.326 E2.06262
G1 X126.659 Y93.463 E2.06721
G1 X126.567 Y94.065 E2.08747
G1 X126.543 Y94.204 E2.09216
G1 X126.422 Y94.83 E2.11337
G1 X126.391 Y94.975 E2.1183
G1 X126.19 Y95.826 E2.14738
G1 X126.16 Y95.943 E2.1514
G1 X126.092 Y96.193 E2.16001
G1 X126.049 Y96.338 E2.16504
G1 X125.866 Y96.914 E2.18515
G1 X125.813 Y97.069 E2.19059
G1 X125.603 Y97.639 E2.2108
G1 X125.547 Y97.782 E2.21591
G1 X125.305 Y98.361 E2.23678
G1 X125.243 Y98.5 E2.24184
G1 X124.99 Y99.04 E2.26167
G1 X124.914 Y99.192 E2.26733
G1 X124.614 Y99.761 E2.28872
G1 X124.533 Y99.906 E2.29425
G1 X124.242 Y100.401 E2.31334
G1 X124.156 Y100.541 E2.31881
G1 X123.82 Y101.057 E2.33929
G1 X123.719 Y101.204 E2.34522
G1 X123.373 Y101.682 E2.36485
G1 X123.27 Y101.817 E2.37049
G1 X122.937 Y102.234 E2.38824
G1 X122.816 Y102.379 E2.39453
G1 X121.926 Y103.381 E2.4391
G1 X120.136 Y105.445 E2.52997
G1 X118.416 Y107.544 E2.62023
G1 X116.728 Y109.732 E2.71214
G1 X115.142 Y111.91 E2.80175
G1 X113.596 Y114.165 E2.89269
G1 X112.116 Y116.459 E2.98349
G1 X110.707 Y118.785 E3.07394
G1 X109.089 Y121.629 E3.18277
G1 X109.006 Y121.767 E3.18812
G1 X108.778 Y122.129 E3.20235
G1 X108.595 Y122.392 E3.21301
G1 X108.252 Y122.842 E3.23183
G1 X108.021 Y123.116 E3.24375
G1 X107.881 Y123.266 E3.25057
G1 X107.765 Y123.385 E3.2561
G1 X107.504 Y123.64 E3.26823
G1 X107.096 Y123.983 E3.28596
G1 X106.653 Y124.303 E3.30414
G1 X105.986 Y124.684 E3.32969
G1 X105.544 Y124.877 E3.34573
G1 X104.793 Y125.111 E3.37189
G1 X104.322 Y125.203 E3.38785
G1 X103.602 Y125.27 E3.4119
G1 X103.246 Y125.267 E3.42375
G1 X103.181 Y125.266 E3.42591
G1 X101.174 Y125.213 E3.49268
G1 X98.457 Y125.219 E3.58305
G1 X96.501 Y125.27 E3.64813
G1 X95.826 Y125.224 E3.67063
G1 X95.38 Y125.151 E3.68567
G1 X94.858 Y125.025 E3.70353
G1 X94.511 Y124.893 E3.71587
G1 X93.952 Y124.647 E3.73619
G1 X93.479 Y124.395 E3.75401
G1 X93.233 Y124.225 E3.76396
G1 X92.784 Y123.886 E3.78267
G1 X92.344 Y123.494 E3.80227
G1 X92.091 Y123.228 E3.81448
G1 X91.872 Y122.974 E3.82563
G1 X91.405 Y122.381 E3.85074
G1 X91.164 Y122.036 E3.86474
G1 X90.942 Y121.674 E3.87886
G1 X90.884 Y121.576 E3.88265
G1 X90.459 Y120.831 E3.91118
G1 X90.427 Y120.774 E3.91335
G1 X90.124 Y120.219 E3.93438
G1 X88.775 Y117.902 E4.02355
G1 X87.319 Y115.558 E4.11533
G1 X85.812 Y113.277 E4.20626
G1 X84.261 Y111.067 E4.29606
G1 X82.614 Y108.859 E4.38768
G1 X80.937 Y106.738 E4.47761
G1 X79.177 Y104.635 E4.56882
G1 X78.077 Y103.381 E4.6243
G1 X77.251 Y102.455 E4.66557
G1 X77.151 Y102.337 E4.67072
G1 X76.811 Y101.921 E4.68859
G1 X76.687 Y101.761 E4.69532
G1 X76.27 Y101.188 E4.71889
G1 X76.16 Y101.028 E4.72535
G1 X75.823 Y100.508 E4.74596
G1 X75.73 Y100.357 E4.75186
G1 X75.43 Y99.84 E4.77174
G1 X75.353 Y99.699 E4.77708
G1 X75.059 Y99.136 E4.79821
G1 X74.984 Y98.984 E4.80384
G1 X74.775 Y98.533 E4.82038
G1 X74.736 Y98.446 E4.82355
G1 X74.584 Y98.094 E4.8363
G1 X74.548 Y98.007 E4.83943
G1 X74.368 Y97.558 E4.85552
G1 X74.323 Y97.442 E4.85966
G1 X74.229 Y97.182 E4.86885
G1 X74.204 Y97.109 E4.87142
G1 X74.098 Y96.795 E4.88244
G1 X74.045 Y96.626 E4.88833
G1 X73.801 Y95.765 E4.9181
G1 X73.764 Y95.619 E4.92311
G1 X73.619 Y95.012 E4.94387
G1 X73.586 Y94.864 E4.94891
G1 X73.463 Y94.232 E4.97032
G1 X73.439 Y94.09 E4.97511
G1 X73.346 Y93.484 E4.99551
G1 X73.328 Y93.352 E4.99994
G1 X73.274 Y92.886 E5.01554
G1 X73.261 Y92.75 E5.02008
G1 X73.21 Y92.091 E5.04207
G1 X73.202 Y91.956 E5.04656
G1 X73.175 Y91.279 E5.0691
G1 X73.172 Y91.156 E5.07319
G1 X73.169 Y90.614 E5.09122
G1 X73.17 Y90.498 E5.09508
G1 X73.177 Y90.236 E5.1038
G1 X73.186 Y90.061 E5.10962
G1 X73.254 Y89.159 E5.13971
G1 X73.266 Y89.032 E5.14395
G1 X73.315 Y88.592 E5.15868
G1 X73.334 Y88.446 E5.16357
G1 X73.431 Y87.811 E5.18494
G1 X73.454 Y87.678 E5.18943
G1 X73.572 Y87.062 E5.21029
G1 X73.603 Y86.916 E5.21525
G1 X73.742 Y86.324 E5.23548
G1 X73.777 Y86.189 E5.24012
G1 X74.013 Y85.334 E5.26962
G1 X74.048 Y85.214 E5.27378
G1 X74.112 Y85.01 E5.28089
G1 X74.166 Y84.851 E5.28647
G1 X74.323 Y84.422 E5.30167
G1 X74.392 Y84.248 E5.30789
G1 X74.864 Y83.14 E5.34795
G1 X74.913 Y83.031 E5.35192
G1 X75.008 Y82.827 E5.35941
G1 X75.085 Y82.67 E5.36522
G1 X75.364 Y82.14 E5.38514
G1 X75.446 Y81.994 E5.39071
G1 X75.756 Y81.466 E5.41108
G1 X75.837 Y81.334 E5.41623
G1 X76.159 Y80.836 E5.43595
G1 X76.264 Y80.683 E5.44213
G1 X76.623 Y80.186 E5.46252
G1 X76.728 Y80.048 E5.46829
G1 X77.041 Y79.656 E5.48497
G1 X77.154 Y79.521 E5.49083
G1 X77.579 Y79.039 E5.5122
G1 X77.714 Y78.894 E5.51879
G1 X78.105 Y78.497 E5.53732
G0 F3600 X78.39 Y78.778
G1 F900 X78.501 Y78.67 E5.54247
G1 X78.922 Y78.282 E5.56151
G1 X79.052 Y78.168 E5.56726
G1 X79.415 Y77.868 E5.58293
G1 X79.499 Y77.802 E5.58648
G1 X79.705 Y77.643 E5.59514
G1 X79.771 Y77.593 E5.59789
G1 X80.121 Y77.337 E5.61231
G1 X80.258 Y77.242 E5.61786
G1 X80.553 Y77.049 E5.62958
G1 X80.655 Y76.985 E5.63359
G1 X81.112 Y76.71 E5.65133
G1 X81.243 Y76.635 E5.65635
G1 X81.536 Y76.477 E5.66742
G1 X81.624 Y76.432 E5.67071
G1 X81.834 Y76.327 E5.67852
G1 X81.985 Y76.256 E5.68407
G1 X82.411 Y76.07 E5.69953
G1 X82.496 Y76.035 E5.70258
G1 X82.953 Y75.851 E5.71897
G1 X83.167 Y75.773 E5.72655
G1 X83.614 Y75.629 E5.74217
G1 X83.819 Y75.571 E5.74925
G1 X84.335 Y75.442 E5.76694
G1 X84.422 Y75.421 E5.76992
G1 X84.835 Y75.33 E5.78398
G1 X85.045 Y75.291 E5.79109
G1 X85.54 Y75.216 E5.80774
G1 X85.707 Y75.195 E5.81334
G1 X85.962 Y75.17 E5.82186
G1 X86.187 Y75.156 E5.82936
G1 X87.141 Y75.13 E5.8611
G1 X87.35 Y75.131 E5.86805
G1 X87.559 Y75.139 E5.87501
G1 X87.721 Y75.15 E5.88041
G1 X88.203 Y75.193 E5.8965
G1 X88.287 Y75.201 E5.89931
G1 X88.779 Y75.258 E5.91578
G1 X91.504 Y75.537 E6.00689
G1 X94.215 Y75.738 E6.09731
G1 X96.968 Y75.864 E6.18897
G1 X99.72 Y75.911 E6.28051
G1 X102.436 Y75.883 E6.37085
G1 X105.189 Y75.775 E6.46249
G1 X107.917 Y75.59 E6.55343
G1 X111.45 Y75.236 E6.67153
G1 X111.485 Y75.233 E6.67269
G1 X112.44 Y75.148 E6.70458
G1 X112.676 Y75.135 E6.71245
G1 X113.144 Y75.128 E6.72801
G1 X113.295 Y75.13 E6.73304
G1 X113.607 Y75.14 E6.74342
G1 X113.783 Y75.15 E6.74928
G1 X114.24 Y75.19 E6.76454
G1 X114.439 Y75.214 E6.77121
G1 X114.968 Y75.294 E6.789
G1 X115.142 Y75.325 E6.79488
G1 X115.483 Y75.396 E6.80646
G1 X115.613 Y75.426 E6.8109
G1 X116.133 Y75.557 E6.82874
G1 X116.301 Y75.604 E6.83454
G1 X116.642 Y75.71 E6.84642
G1 X116.779 Y75.756 E6.85122
G1 X117.161 Y75.894 E6.86473
G1 X117.336 Y75.963 E6.87099
G1 X117.977 Y76.238 E6.89419
G1 X118.141 Y76.314 E6.9002
G1 X118.36 Y76.423 E6.90834
G1 X118.445 Y76.467 E6.91152
G1 X118.682 Y76.594 E6.92046
G1 X118.766 Y76.641 E6.92366
G1 X119.072 Y76.817 E6.9354
G1 X119.195 Y76.891 E6.94018
G1 X119.61 Y77.155 E6.95654
G1 X119.719 Y77.228 E6.9609
G1 X120.018 Y77.436 E6.97302
G1 X120.134 Y77.52 E6.97778
G1 X120.507 Y77.805 E6.99339
G1 X120.594 Y77.874 E6.99709
G1 X120.761 Y78.011 E7.00427
G1 X120.828 Y78.068 E7.0072
G1 X121.153 Y78.35 E7.02151
G1 X121.258 Y78.445 E7.02622
G1 X121.667 Y78.833 E7.04497
G1 X121.783 Y78.949 E7.05042
G1 X122.195 Y79.382 E7.0703
G1 X122.315 Y79.515 E7.07626
G1 X122.644 Y79.902 E7.09316
G1 X122.706 Y79.978 E7.09642
G1 X122.853 Y80.162 E7.10425
G1 X122.908 Y80.233 E7.10724
G1 X123.208 Y80.631 E7.12381
G1 X123.293 Y80.749 E7.12865
G1 X123.634 Y81.247 E7.14873
G1 X123.725 Y81.388 E7.15431
G1 X124.054 Y81.927 E7.17531
G1 X124.128 Y82.053 E7.18017
G1 X124.418 Y82.581 E7.20021
G1 X124.483 Y82.707 E7.20492
G1 X124.759 Y83.267 E7.22569
G1 X124.822 Y83.403 E7.23067
G1 X125.07 Y83.972 E7.25132
G1 X125.122 Y84.099 E7.25588
G1 X125.352 Y84.695 E7.27713
G1 X125.401 Y84.829 E7.28187
G1 X125.587 Y85.383 E7.30131
G1 X125.628 Y85.516 E7.30594
G1 X125.759 Y85.971 E7.32169
G1 X125.798 Y86.12 E7.32681
G1 X126.001 Y86.979 E7.35617
G1 X126.029 Y87.108 E7.36056
G1 X126.15 Y87.734 E7.38177
G1 X126.171 Y87.858 E7.38595
G1 X126.263 Y88.46 E7.4062
G1 X126.28 Y88.582 E7.4103
G1 X126.334 Y89.057 E7.4262
G1 X126.345 Y89.172 E7.43004
G1 X126.396 Y89.834 E7.45213
G1 X126.403 Y89.96 E7.45632
G1 X126.424 Y90.518 E7.4749
G1 X126.426 Y90.638 E7.47889
G1 X126.426 Y91.225 E7.49841
G1 X126.424 Y91.346 E7.50244
G1 X126.403 Y91.899 E7.52084
G1 X126.396 Y92.022 E7.52494
G1 X126.345 Y92.689 E7.54719
G1 X126.333 Y92.807 E7.55113
G1 X126.279 Y93.281 E7.567
G1 X126.263 Y93.402 E7.57106
G1 X126.171 Y94.004 E7.59132
G1 X126.15 Y94.128 E7.5955
G1 X126.029 Y94.754 E7.61671
G1 X126.001 Y94.883 E7.6211
G1 X125.8 Y95.734 E7.65018
G1 X125.774 Y95.838 E7.65374
G1 X125.706 Y96.088 E7.66236
G1 X125.668 Y96.217 E7.66683
G1 X125.485 Y96.793 E7.68694
G1 X125.438 Y96.93 E7.69175
G1 X125.228 Y97.5 E7.71196
G1 X125.177 Y97.628 E7.71654
G1 X124.935 Y98.207 E7.73741
G1 X124.881 Y98.331 E7.74191
G1 X124.628 Y98.871 E7.76174
G1 X124.561 Y99.005 E7.76673
G1 X124.261 Y99.574 E7.78812
G1 X124.189 Y99.704 E7.79306
G1 X123.898 Y100.199 E7.81216
G1 X123.821 Y100.323 E7.81702
G1 X123.485 Y100.839 E7.8375
G1 X123.395 Y100.969 E7.84276
G1 X123.049 Y101.447 E7.86238
G1 X122.958 Y101.568 E7.86742
G1 X122.625 Y101.985 E7.88517
G1 X122.517 Y102.113 E7.89074
G1 X121.627 Y103.115 E7.93531
G1 X119.841 Y105.175 E8.02599
G1 X118.075 Y107.33 E8.11866
G1 X116.434 Y109.457 E8.20801
G1 X114.793 Y111.71 E8.30072
G1 X113.273 Y113.927 E8.39012
G1 X111.765 Y116.265 E8.48266
G1 X110.366 Y118.575 E8.57248
G1 X108.741 Y121.431 E8.68177
G1 X108.668 Y121.553 E8.6865
G1 X108.44 Y121.915 E8.70073
G1 X108.277 Y122.15 E8.71024
G1 X107.934 Y122.6 E8.72906
G1 X107.728 Y122.843 E8.73966
G1 X107.588 Y122.993 E8.74648
G1 X107.485 Y123.099 E8.7514
G1 X107.224 Y123.354 E8.76353
G1 X106.862 Y123.659 E8.77928
G1 X106.419 Y123.979 E8.79745
G1 X105.826 Y124.318 E8.82017
G1 X105.384 Y124.511 E8.83621
G1 X104.716 Y124.719 E8.85948
G1 X104.245 Y124.811 E8.87544
G1 X103.605 Y124.87 E8.89682
G1 X103.249 Y124.867 E8.90866
G1 X103.192 Y124.866 E8.91056
G1 X101.184 Y124.813 E8.97737
G1 X98.446 Y124.819 E9.06843
G1 X96.491 Y124.87 E9.13348
G1 X95.89 Y124.829 E9.15352
G1 X95.444 Y124.756 E9.16855
G1 X94.953 Y124.635 E9.18537
G1 X94.672 Y124.527 E9.19538
G1 X94.113 Y124.281 E9.21569
G1 X93.474 Y123.906 E9.24033
G1 X93.025 Y123.567 E9.25905
G1 X92.634 Y123.218 E9.27648
G1 X92.381 Y122.952 E9.28869
G1 X92.186 Y122.727 E9.29859
G1 X91.719 Y122.134 E9.3237
G1 X91.505 Y121.827 E9.33614
G1 X91.283 Y121.465 E9.35027
G1 X91.231 Y121.378 E9.35364
G1 X90.806 Y120.633 E9.38217
G1 X90.778 Y120.582 E9.3841
G1 X90.471 Y120.021 E9.40537
G1 X89.118 Y117.696 E9.49484
G1 X87.65 Y115.332 E9.58739
G1 X86.168 Y113.091 E9.67676
G1 X84.565 Y110.805 E9.76962
G1 X82.933 Y108.617 E9.86041
G1 X81.242 Y106.478 E9.9511
G1 X79.481 Y104.375 E10.04233
G1 X78.376 Y103.115 E10.09807
G1 X77.55 Y102.189 E10.13934
G1 X77.46 Y102.084 E10.14394
G1 X77.12 Y101.668 E10.16181
G1 X77.011 Y101.526 E10.16776
G1 X76.594 Y100.953 E10.19133
G1 X76.496 Y100.81 E10.1971
G1 X76.159 Y100.29 E10.21771
G1 X76.076 Y100.156 E10.22295
G1 X75.776 Y99.639 E10.24283
G1 X75.707 Y99.514 E10.24758
G1 X75.413 Y98.951 E10.2687
G1 X75.347 Y98.815 E10.27373
G1 X75.138 Y98.364 E10.29026
G1 X75.103 Y98.288 E10.29305
G1 X74.951 Y97.936 E10.3058
G1 X74.919 Y97.858 E10.3086
G1 X74.739 Y97.409 E10.32469
G1 X74.7 Y97.306 E10.32836
G1 X74.606 Y97.046 E10.33755
G1 X74.583 Y96.982 E10.33981
G1 X74.477 Y96.668 E10.35084
G1 X74.43 Y96.516 E10.35613
G1 X74.186 Y95.655 E10.38589
G1 X74.153 Y95.526 E10.39032
G1 X74.008 Y94.919 E10.41108
G1 X73.979 Y94.787 E10.41557
G1 X73.856 Y94.155 E10.43699
G1 X73.834 Y94.029 E10.44124
G1 X73.741 Y93.423 E10.46163
G1 X73.725 Y93.306 E10.46556
G1 X73.671 Y92.84 E10.48117
G1 X73.66 Y92.719 E10.48521
G1 X73.609 Y92.06 E10.50719
G1 X73.602 Y91.941 E10.51116
G1 X73.575 Y91.264 E10.53369
G1 X73.572 Y91.154 E10.53735
G1 X73.569 Y90.612 E10.55538
G1 X73.57 Y90.509 E10.5588
G1 X73.577 Y90.247 E10.56752
