;FLAVOR:Marlin
;TIME:4418
;Filament used: 3.21286m
;Layer height: 0.16
;MINX:69.031
;MINY:69.692
;MINZ:0.2
;MAXX:130.958
;MAXY:130.309
;MAXZ:9.48
;Generated with Cura_SteamEngine 4.4.1
M140 S60
M105
M190 S60
M104 S200
M105
M109 S200
M82 ;absolute extrusion mode
; START CODE
G21 ;metric values
G90 ;absolute positioning
M82 ;set extruder to absolute mode
M107 ;start with the fan off
G28 X0 Y0 ;move X/Y to min endstops
G28 Z0 ;move Z to min endstops
G1 Z15.0 F120 ;move the platform down 15mm
G92 E0 ;zero the extruded length
G1 F200 E6 ;extrude 6 mm of feed stock
G92 E0 ;zero the extruded length again
G1 F120
;Put printing message on LCD screen
M117 Printing...
G92 E0
G92 E0
G1 F2400 E-2.5
;LAYER_COUNT:59
;LAYER:0
M107
G0 F3600 X73.748 Y76.535 Z0.2
;TYPE:SKIRT
G1 F2400 E0
G1 F1200 X73.853 Y76.435 E0.00482
G1 X74.425 Y75.915 E0.03053
G1 X74.527 Y75.826 E0.03504
G1 X74.686 Y75.692 E0.04195
G1 X74.787 Y75.61 E0.04628
G1 X75.367 Y75.156 E0.07078
G1 X75.475 Y75.075 E0.07527
G1 X75.924 Y74.75 E0.0937
G1 X76.026 Y74.679 E0.09784
G1 X76.545 Y74.33 E0.11864
G1 X76.645 Y74.265 E0.12261
G1 X76.88 Y74.118 E0.13182
G1 X76.976 Y74.06 E0.13555
G1 X77.779 Y73.592 E0.16647
G1 X77.883 Y73.534 E0.17043
G1 X78.302 Y73.308 E0.18626
G1 X78.399 Y73.257 E0.18991
G1 X78.994 Y72.959 E0.21204
G1 X79.084 Y72.916 E0.21536
G1 X79.442 Y72.749 E0.2285
G1 X79.537 Y72.706 E0.23197
G1 X80.299 Y72.377 E0.25957
G1 X80.387 Y72.34 E0.26275
G1 X80.981 Y72.102 E0.28403
G1 X81.078 Y72.065 E0.28748
G1 X81.625 Y71.864 E0.30686
G1 X81.7 Y71.837 E0.30952
G1 X82.237 Y71.653 E0.3284
G1 X82.32 Y71.626 E0.3313
G1 X83.074 Y71.388 E0.3576
G1 X83.157 Y71.363 E0.36048
G1 X83.841 Y71.165 E0.38416
G1 X83.922 Y71.142 E0.38696
G1 X84.501 Y70.989 E0.40688
G1 X84.564 Y70.974 E0.40904
G1 X84.927 Y70.885 E0.42147
G1 X84.993 Y70.869 E0.42373
G1 X85.983 Y70.646 E0.45748
G1 X86.069 Y70.628 E0.4604
G1 X86.66 Y70.51 E0.48045
G1 X86.719 Y70.498 E0.48245
G1 X87.317 Y70.389 E0.50267
G1 X87.377 Y70.379 E0.50469
G1 X88.05 Y70.268 E0.52738
G1 X88.12 Y70.257 E0.52973
G1 X88.976 Y70.133 E0.5585
G1 X89.034 Y70.125 E0.56045
G1 X89.619 Y70.05 E0.58006
G1 X89.684 Y70.043 E0.58224
G1 X90.257 Y69.98 E0.60141
G1 X90.311 Y69.974 E0.60322
G1 X91.316 Y69.879 E0.63679
G1 X91.376 Y69.874 E0.6388
G1 X92.122 Y69.816 E0.66368
G1 X92.185 Y69.811 E0.66579
G1 X92.817 Y69.773 E0.68684
G1 X92.875 Y69.77 E0.68878
G1 X93.739 Y69.732 E0.71754
G1 X93.778 Y69.731 E0.71884
G1 X94.321 Y69.713 E0.73691
G1 X94.378 Y69.712 E0.7388
G1 X95.479 Y69.693 E0.77543
G1 X95.552 Y69.692 E0.77786
G1 X96.207 Y69.694 E0.79964
G1 X96.253 Y69.694 E0.80117
G1 X96.882 Y69.704 E0.8221
G1 X96.941 Y69.706 E0.82406
G1 X97.561 Y69.726 E0.84469
G1 X97.653 Y69.73 E0.84775
G1 X98.846 Y69.799 E0.8875
G1 X98.935 Y69.805 E0.89047
G1 X99.466 Y69.849 E0.90819
G1 X99.544 Y69.857 E0.9108
G1 X100.612 Y69.969 E0.94651
G1 X100.675 Y69.976 E0.94862
G1 X100.993 Y70.015 E0.95928
G1 X101.035 Y70.02 E0.96068
G1 X101.667 Y70.105 E0.98189
G1 X101.721 Y70.113 E0.98371
G1 X102.134 Y70.175 E0.9976
G1 X102.193 Y70.184 E0.99958
G1 X102.893 Y70.301 E1.02319
G1 X102.948 Y70.311 E1.02505
G1 X103.369 Y70.388 E1.03928
G1 X103.432 Y70.4 E1.04142
G1 X104.221 Y70.559 E1.06819
G1 X104.296 Y70.575 E1.07074
G1 X105.105 Y70.756 E1.09831
G1 X105.159 Y70.768 E1.10015
G1 X105.563 Y70.865 E1.11397
G1 X105.633 Y70.883 E1.11637
G1 X106.318 Y71.062 E1.13992
G1 X106.378 Y71.078 E1.14199
G1 X107.1 Y71.28 E1.16692
G1 X107.163 Y71.298 E1.1691
G1 X107.647 Y71.443 E1.18591
G1 X107.714 Y71.464 E1.18824
G1 X108.418 Y71.69 E1.21283
G1 X108.5 Y71.718 E1.21572
G1 X109.533 Y72.077 E1.25209
G1 X109.608 Y72.104 E1.25474
G1 X109.887 Y72.208 E1.26464
G1 X109.946 Y72.23 E1.26674
G1 X110.842 Y72.582 E1.29876
G1 X110.925 Y72.616 E1.30174
G1 X111.703 Y72.944 E1.32982
G1 X111.769 Y72.973 E1.33222
G1 X112.229 Y73.178 E1.34897
G1 X112.294 Y73.207 E1.35134
G1 X112.95 Y73.515 E1.37544
G1 X113.014 Y73.546 E1.37781
G1 X113.747 Y73.908 E1.405
G1 X113.815 Y73.943 E1.40754
G1 X114.155 Y74.12 E1.42029
G1 X114.211 Y74.149 E1.42239
G1 X114.872 Y74.508 E1.44741
G1 X114.959 Y74.557 E1.45073
G1 X115.936 Y75.123 E1.48828
G1 X116.044 Y75.188 E1.49247
G1 X116.771 Y75.644 E1.52102
G1 X116.838 Y75.687 E1.52366
G1 X117.602 Y76.19 E1.55409
G1 X117.664 Y76.232 E1.55658
G1 X117.918 Y76.407 E1.56684
G1 X117.98 Y76.451 E1.56937
G1 X118.656 Y76.938 E1.59708
G1 X118.713 Y76.98 E1.59943
G1 X119.186 Y77.335 E1.6191
G1 X119.256 Y77.388 E1.62202
G1 X119.802 Y77.819 E1.64516
G1 X119.855 Y77.862 E1.64743
G1 X120.284 Y78.214 E1.66589
G1 X120.352 Y78.271 E1.66884
G1 X121.001 Y78.831 E1.69735
G1 X121.051 Y78.875 E1.69956
G1 X121.329 Y79.124 E1.71198
G1 X121.392 Y79.182 E1.71482
G1 X121.971 Y79.726 E1.74125
G1 X122.033 Y79.786 E1.74412
G1 X122.456 Y80.203 E1.76387
G1 X122.51 Y80.258 E1.76644
G1 X122.999 Y80.761 E1.78977
G1 X123.053 Y80.817 E1.79236
G1 X123.39 Y81.179 E1.80881
G1 X123.449 Y81.244 E1.81173
G1 X124.026 Y81.895 E1.84066
G1 X124.077 Y81.954 E1.84325
G1 X124.273 Y82.185 E1.85333
G1 X124.326 Y82.249 E1.85609
G1 X124.896 Y82.953 E1.88622
G1 X124.944 Y83.014 E1.8888
G1 X125.157 Y83.289 E1.90037
G1 X125.208 Y83.356 E1.90317
G1 X125.717 Y84.046 E1.93169
G1 X125.774 Y84.126 E1.93496
G1 X126.047 Y84.518 E1.95085
G1 X126.089 Y84.579 E1.95331
G1 X126.486 Y85.175 E1.97713
G1 X126.53 Y85.242 E1.97979
G1 X126.801 Y85.669 E1.99661
G1 X126.85 Y85.749 E1.99973
G1 X127.19 Y86.317 E2.02175
G1 X127.229 Y86.385 E2.02436
G1 X127.475 Y86.817 E2.04089
G1 X127.516 Y86.89 E2.04368
G1 X127.869 Y87.545 E2.06843
G1 X127.916 Y87.634 E2.07177
G1 X128.141 Y88.081 E2.08842
G1 X128.172 Y88.144 E2.09075
G1 X128.39 Y88.599 E2.10753
G1 X128.426 Y88.679 E2.11045
G1 X128.676 Y89.235 E2.13073
G1 X128.719 Y89.333 E2.13429
G1 X128.99 Y89.987 E2.15783
G1 X129.033 Y90.096 E2.16173
G1 X129.393 Y91.052 E2.19571
G1 X129.438 Y91.177 E2.20013
G1 X129.702 Y91.965 E2.22777
G1 X129.734 Y92.069 E2.23139
G1 X129.871 Y92.523 E2.24716
G1 X129.907 Y92.65 E2.25155
G1 X130.266 Y94.019 E2.29862
G1 X130.292 Y94.123 E2.30219
G1 X130.391 Y94.552 E2.31683
G1 X130.428 Y94.735 E2.32304
G1 X130.63 Y95.879 E2.36168
G1 X130.648 Y95.991 E2.36545
G1 X130.752 Y96.712 E2.38968
G1 X130.774 Y96.899 E2.39594
G1 X130.89 Y98.169 E2.43836
G1 X130.9 Y98.299 E2.4427
G1 X130.938 Y98.991 E2.46575
G1 X130.941 Y99.074 E2.46851
G1 X130.954 Y99.483 E2.48212
G1 X130.956 Y99.58 E2.48535
G1 X130.958 Y100.009 E2.49961
G1 X130.957 Y100.119 E2.50327
G1 X130.929 Y101.197 E2.53914
G1 X130.924 Y101.305 E2.54274
G1 X130.886 Y101.985 E2.56539
G1 X130.873 Y102.158 E2.57116
G1 X130.77 Y103.145 E2.60416
G1 X130.756 Y103.259 E2.60798
G1 X130.701 Y103.661 E2.62148
G1 X130.684 Y103.771 E2.62518
G1 X130.508 Y104.815 E2.6604
G1 X130.484 Y104.943 E2.66473
G1 X130.313 Y105.773 E2.69291
G1 X130.283 Y105.906 E2.69745
G1 X130.068 Y106.781 E2.72742
G1 X130.043 Y106.879 E2.73078
G1 X129.895 Y107.416 E2.74931
G1 X129.87 Y107.501 E2.75225
G1 X129.749 Y107.901 E2.76615
G1 X129.72 Y107.993 E2.76936
G1 X129.483 Y108.707 E2.79438
G1 X129.446 Y108.812 E2.79809
G1 X129.193 Y109.502 E2.82253
G1 X129.158 Y109.593 E2.82577
G1 X128.925 Y110.179 E2.84675
G1 X128.884 Y110.278 E2.85031
G1 X128.534 Y111.087 E2.87963
G1 X128.466 Y111.235 E2.88505
G1 X127.928 Y112.339 E2.92589
G1 X127.877 Y112.44 E2.92966
G1 X127.74 Y112.7 E2.93943
G1 X127.711 Y112.755 E2.9415
G1 X127.465 Y113.203 E2.9585
G1 X127.412 Y113.295 E2.96203
G1 X126.905 Y114.157 E2.99529
G1 X126.868 Y114.219 E2.99769
G1 X126.679 Y114.526 E3.00968
G1 X126.635 Y114.595 E3.0124
G1 X126.503 Y114.799 E3.02049
G1 X126.459 Y114.866 E3.02315
G1 X125.843 Y115.773 E3.05962
G1 X125.788 Y115.851 E3.06279
G1 X125.461 Y116.306 E3.08143
G1 X125.413 Y116.371 E3.08412
G1 X125.187 Y116.671 E3.09661
G1 X125.131 Y116.744 E3.09967
G1 X124.528 Y117.503 E3.13191
G1 X124.468 Y117.577 E3.13508
G1 X124.209 Y117.886 E3.14849
G1 X124.151 Y117.953 E3.15144
G1 X123.374 Y118.835 E3.19053
G1 X123.314 Y118.901 E3.1935
G1 X123.05 Y119.186 E3.20642
G1 X122.991 Y119.249 E3.20929
G1 X122.51 Y119.744 E3.23225
G1 X122.449 Y119.805 E3.23512
G1 X122.022 Y120.224 E3.25501
G1 X121.967 Y120.277 E3.25755
G1 X121.398 Y120.812 E3.28353
G1 X121.344 Y120.861 E3.28596
G1 X121.077 Y121.102 E3.29792
G1 X121.011 Y121.161 E3.30086
G1 X120.323 Y121.752 E3.33103
G1 X120.266 Y121.8 E3.33351
G1 X119.903 Y122.099 E3.34915
G1 X119.841 Y122.149 E3.3518
G1 X119.221 Y122.637 E3.37804
G1 X119.162 Y122.682 E3.38051
G1 X118.694 Y123.035 E3.40001
G1 X118.631 Y123.082 E3.40262
G1 X118.019 Y123.523 E3.42771
G1 X117.96 Y123.564 E3.4301
G1 X117.669 Y123.765 E3.44186
G1 X117.606 Y123.808 E3.4444
G1 X116.812 Y124.332 E3.47604
G1 X116.74 Y124.378 E3.47888
G1 X116.135 Y124.757 E3.50263
G1 X116.025 Y124.823 E3.5069
G1 X114.89 Y125.479 E3.5505
G1 X114.813 Y125.522 E3.55343
G1 X114.265 Y125.821 E3.57419
G1 X114.202 Y125.855 E3.57657
G1 X113.752 Y126.089 E3.59344
G1 X113.685 Y126.123 E3.59594
G1 X113.023 Y126.45 E3.6205
G1 X112.956 Y126.482 E3.62297
G1 X112.294 Y126.792 E3.64728
G1 X112.24 Y126.817 E3.64926
G1 X111.812 Y127.009 E3.66486
G1 X111.736 Y127.042 E3.66762
G1 X110.876 Y127.404 E3.69866
G1 X110.802 Y127.434 E3.70131
G1 X109.964 Y127.765 E3.73128
G1 X109.883 Y127.796 E3.73416
G1 X109.592 Y127.903 E3.74448
G1 X109.527 Y127.926 E3.74677
G1 X108.507 Y128.279 E3.78267
G1 X108.416 Y128.309 E3.78585
G1 X107.401 Y128.63 E3.82126
G1 X107.294 Y128.662 E3.82498
G1 X106.25 Y128.957 E3.86106
G1 X106.171 Y128.979 E3.86379
G1 X105.71 Y129.098 E3.87962
G1 X105.657 Y129.111 E3.88144
G1 X105.116 Y129.242 E3.89995
G1 X105.049 Y129.257 E3.90224
G1 X104.274 Y129.429 E3.92864
G1 X104.217 Y129.442 E3.93058
G1 X103.534 Y129.582 E3.95377
G1 X103.458 Y129.596 E3.95634
G1 X103.042 Y129.672 E3.97041
G1 X102.99 Y129.681 E3.97216
G1 X102.185 Y129.816 E3.99931
G1 X102.126 Y129.826 E4.0013
G1 X101.694 Y129.891 E4.01583
G1 X101.64 Y129.899 E4.01765
G1 X101.1 Y129.972 E4.03577
G1 X101.005 Y129.983 E4.03895
G1 X99.489 Y130.147 E4.08967
G1 X99.403 Y130.155 E4.09254
G1 X98.938 Y130.194 E4.10806
G1 X98.839 Y130.201 E4.11136
G1 X97.612 Y130.27 E4.15224
G1 X97.53 Y130.274 E4.15497
G1 X96.959 Y130.293 E4.17397
G1 X96.895 Y130.295 E4.1761
G1 X96.062 Y130.308 E4.20381
G1 X96.015 Y130.308 E4.20537
G1 X95.604 Y130.309 E4.21904
G1 X95.529 Y130.308 E4.22154
G1 X94.328 Y130.286 E4.26149
G1 X94.272 Y130.285 E4.26335
G1 X93.801 Y130.269 E4.27903
G1 X93.766 Y130.268 E4.28019
G1 X92.873 Y130.229 E4.30992
G1 X92.825 Y130.226 E4.31152
G1 X92.264 Y130.194 E4.33021
G1 X92.203 Y130.19 E4.33224
G1 X91.448 Y130.134 E4.35742
G1 X91.392 Y130.13 E4.35929
G1 X90.758 Y130.073 E4.38046
G1 X90.697 Y130.067 E4.3825
G1 X89.726 Y129.963 E4.41498
G1 X89.661 Y129.955 E4.41716
G1 X89.095 Y129.884 E4.43613
G1 X89.037 Y129.876 E4.43808
G1 X88.354 Y129.779 E4.46102
G1 X88.292 Y129.77 E4.46311
G1 X87.572 Y129.655 E4.48736
G1 X87.504 Y129.643 E4.48966
G1 X86.78 Y129.513 E4.51412
G1 X86.705 Y129.499 E4.51666
G1 X85.975 Y129.352 E4.54143
G1 X85.905 Y129.337 E4.54381
G1 X85.163 Y129.172 E4.56909
G1 X85.086 Y129.154 E4.57172
G1 X84.605 Y129.036 E4.58819
G1 X84.546 Y129.021 E4.59022
G1 X83.935 Y128.86 E4.61123
G1 X83.874 Y128.844 E4.61333
G1 X83.385 Y128.706 E4.63023
G1 X83.303 Y128.681 E4.63308
G1 X82.573 Y128.456 E4.65849
G1 X82.487 Y128.429 E4.66148
G1 X81.796 Y128.197 E4.68573
G1 X81.696 Y128.161 E4.68926
G1 X81.089 Y127.937 E4.71078
G1 X81.003 Y127.905 E4.71384
G1 X80.34 Y127.641 E4.73757
G1 X80.244 Y127.601 E4.74103
G1 X79.575 Y127.312 E4.76527
G1 X79.476 Y127.267 E4.76888
G1 X79.126 Y127.103 E4.78174
G1 X79.047 Y127.065 E4.78466
G1 X78.369 Y126.727 E4.80985
G1 X78.266 Y126.674 E4.81371
G1 X77.845 Y126.447 E4.82961
G1 X77.743 Y126.389 E4.83352
G1 X77.049 Y125.985 E4.86023
G1 X76.951 Y125.926 E4.86403
G1 X76.628 Y125.724 E4.8767
G1 X76.529 Y125.66 E4.88062
G1 X76.038 Y125.33 E4.9003
G1 X75.934 Y125.257 E4.90452
G1 X75.433 Y124.894 E4.9251
G1 X75.329 Y124.816 E4.92943
G1 X74.909 Y124.488 E4.94715
G1 X74.804 Y124.403 E4.95164
G1 X74.389 Y124.053 E4.9697
G1 X74.284 Y123.96 E4.97437
G1 X73.896 Y123.606 E4.99183
G1 X73.793 Y123.509 E4.99654
G1 X73.403 Y123.124 E5.01477
G1 X73.296 Y123.014 E5.01987
G1 X72.883 Y122.57 E5.04004
G1 X72.789 Y122.465 E5.04473
G1 X72.336 Y121.938 E5.06784
G1 X72.262 Y121.848 E5.07172
G1 X72.134 Y121.689 E5.07851
G1 X72.027 Y121.549 E5.08437
G1 X71.731 Y121.142 E5.1011
G1 X71.648 Y121.024 E5.1059
G1 X71.377 Y120.618 E5.12214
G1 X71.286 Y120.474 E5.1278
G1 X71.016 Y120.025 E5.14523
G1 X70.939 Y119.89 E5.1504
G1 X70.698 Y119.447 E5.16717
G1 X70.616 Y119.289 E5.17309
G1 X70.396 Y118.832 E5.18996
G1 X70.293 Y118.596 E5.19853
G1 X69.951 Y117.733 E5.2294
G1 X69.901 Y117.6 E5.23413
G1 X69.796 Y117.301 E5.24467
G1 X69.744 Y117.14 E5.2503
G1 X69.6 Y116.659 E5.267
G1 X69.552 Y116.482 E5.27309
G1 X69.407 Y115.889 E5.2934
G1 X69.385 Y115.792 E5.29671
G1 X69.34 Y115.583 E5.30382
G1 X69.313 Y115.445 E5.30849
G1 X69.267 Y115.182 E5.31738
G1 X69.241 Y115.014 E5.32303
G1 X69.109 Y113.97 E5.35803
G1 X69.084 Y113.664 E5.36824
G1 X69.038 Y112.527 E5.40609
G1 X69.035 Y112.418 E5.40972
G1 X69.031 Y112.031 E5.42259
G1 X69.031 Y111.993 E5.42385
G1 X69.035 Y87.607 E6.23493
G1 X69.038 Y87.461 E6.23979
G1 X69.084 Y86.334 E6.27731
G1 X69.101 Y86.105 E6.28494
G1 X69.157 Y85.572 E6.30277
G1 X69.189 Y85.341 E6.31052
G1 X69.366 Y84.306 E6.34545
G1 X69.417 Y84.056 E6.35394
G1 X69.567 Y83.444 E6.37489
G1 X69.621 Y83.25 E6.38159
G1 X69.758 Y82.801 E6.3972
G1 X69.811 Y82.64 E6.40284
G1 X69.954 Y82.24 E6.41697
G1 X69.994 Y82.135 E6.42071
G1 X70.086 Y81.901 E6.42907
G1 X70.116 Y81.826 E6.43176
G1 X70.207 Y81.609 E6.43958
G1 X70.255 Y81.499 E6.44358
G1 X70.529 Y80.902 E6.46542
G1 X70.621 Y80.717 E6.47229
G1 X70.951 Y80.095 E6.49571
G1 X71.024 Y79.964 E6.5007
G1 X71.165 Y79.723 E6.50999
G1 X71.242 Y79.597 E6.5149
G1 X71.507 Y79.184 E6.53122
G1 X71.596 Y79.051 E6.53654
G1 X71.894 Y78.629 E6.55373
G1 X71.987 Y78.505 E6.55888
G1 X72.215 Y78.21 E6.57128
G1 X72.332 Y78.066 E6.57745
G1 X72.782 Y77.542 E6.60043
G1 X72.876 Y77.436 E6.60514
G1 X73.285 Y76.996 E6.62512
G1 X73.395 Y76.883 E6.63036
G1 X73.748 Y76.535 E6.64685
G0 F3600 X74.028 Y76.82
G1 F1200 X74.122 Y76.731 E6.65116
G1 X74.694 Y76.211 E6.67687
G1 X74.785 Y76.132 E6.68088
G1 X74.944 Y75.998 E6.68779
G1 X75.034 Y75.925 E6.69165
G1 X75.614 Y75.471 E6.71614
G1 X75.71 Y75.399 E6.72014
G1 X76.159 Y75.074 E6.73857
G1 X76.249 Y75.011 E6.74222
G1 X76.768 Y74.662 E6.76303
G1 X76.857 Y74.604 E6.76656
G1 X77.092 Y74.457 E6.77578
G1 X77.178 Y74.405 E6.77912
G1 X77.981 Y73.937 E6.81003
G1 X78.073 Y73.886 E6.81353
G1 X78.492 Y73.66 E6.82937
G1 X78.578 Y73.615 E6.8326
G1 X79.173 Y73.317 E6.85473
G1 X79.253 Y73.278 E6.85769
G1 X79.611 Y73.111 E6.87083
G1 X79.696 Y73.073 E6.87392
G1 X80.458 Y72.744 E6.90153
G1 X80.536 Y72.712 E6.90433
G1 X81.13 Y72.474 E6.92562
G1 X81.216 Y72.44 E6.92869
G1 X81.763 Y72.239 E6.94808
G1 X81.83 Y72.216 E6.95043
G1 X82.367 Y72.032 E6.96931
G1 X82.441 Y72.007 E6.97191
G1 X83.195 Y71.769 E6.99821
G1 X83.268 Y71.747 E7.00074
G1 X83.952 Y71.549 E7.02443
G1 X84.024 Y71.529 E7.02691
G1 X84.603 Y71.376 E7.04683
G1 X84.659 Y71.362 E7.04875
G1 X85.022 Y71.273 E7.06118
G1 X85.081 Y71.259 E7.0632
G1 X86.071 Y71.036 E7.09695
G1 X86.147 Y71.02 E7.09954
G1 X86.738 Y70.902 E7.11958
G1 X86.791 Y70.892 E7.12137
G1 X87.389 Y70.783 E7.14159
G1 X87.442 Y70.774 E7.14338
G1 X88.115 Y70.663 E7.16607
G1 X88.177 Y70.653 E7.16815
G1 X89.033 Y70.529 E7.19692
G1 X89.085 Y70.522 E7.19867
G1 X89.67 Y70.447 E7.21828
G1 X89.727 Y70.44 E7.22019
G1 X90.3 Y70.377 E7.23937
G1 X90.349 Y70.372 E7.241
G1 X91.354 Y70.277 E7.27458
G1 X91.407 Y70.273 E7.27635
G1 X92.153 Y70.215 E7.30123
G1 X92.209 Y70.211 E7.3031
G1 X92.841 Y70.173 E7.32416
G1 X92.892 Y70.17 E7.32586
G1 X93.756 Y70.132 E7.35462
G1 X93.791 Y70.131 E7.35579
G1 X94.334 Y70.113 E7.37386
G1 X94.385 Y70.111 E7.37556
G1 X95.486 Y70.092 E7.41218
G1 X95.551 Y70.092 E7.41434
G1 X96.206 Y70.094 E7.43613
G1 X96.247 Y70.094 E7.43749
G1 X96.876 Y70.104 E7.45842
G1 X96.928 Y70.106 E7.46015
G1 X97.548 Y70.126 E7.48078
G1 X97.63 Y70.129 E7.48351
G1 X98.823 Y70.198 E7.52325
G1 X98.902 Y70.204 E7.52589
G1 X99.433 Y70.248 E7.54361
G1 X99.503 Y70.254 E7.54595
