;FLAVOR:Marlin
;TIME:1217
;Filament used: 0.611525m
;Layer height: 0.16
;Generated with Cura_SteamEngine 3.6.0
M140 S60
M105
M190 S60
M104 S200
M105
M109 S200
M82 ;absolute extrusion mode
G21 ;metric values
G90 ;absolute positioning
M82 ;set extruder to absolute mode
M107 ;start with the fan off
G28 X0 Y0 ;move X/Y to min endstops
G28 Z0 ;move Z to min endstops
G1 Z15.0 F120 ;move the platform down 15mm
G92 E0 ;zero the extruded length
G1 F200 E6 ;extrude 6 mm of feed stock
G92 E0 ;zero the extruded length again
M117 Printing...
G1 F120
G92 E0
G1 F2400 E-2.5
;LAYER_COUNT:25
;LAYER:0
M107
G0 F3600 X84.107 Y72.377 Z0.2
;TYPE:SKIRT
G1 F2400 E0
G1 F1200 X84.363 Y72.082 E0.01299
G1 X84.917 Y71.508 E0.03952
G1 X85.317 Y71.151 E0.05736
G1 X85.851 Y70.811 E0.07841
G1 X86.573 Y70.437 E0.10546
G1 X87.066 Y70.227 E0.12328
G1 X87.793 Y70.06 E0.14809
G1 X88.826 Y69.934 E0.1827
G1 X89.263 Y69.908 E0.19726
G1 X94.991 Y69.91 E0.38778
G1 X95.099 Y69.912 E0.39137
G1 X98.671 Y70.02 E0.51023
G1 X104.992 Y69.911 E0.7205
G1 X105.071 Y69.91 E0.72312
G1 X111.364 Y69.94 E0.93243
G1 X111.899 Y69.983 E0.95028
G1 X112.358 Y70.085 E0.96592
G1 X113.069 Y70.293 E0.99056
G1 X113.571 Y70.481 E1.00839
G1 X113.865 Y70.635 E1.01943
G1 X114.256 Y70.862 E1.03447
G1 X114.699 Y71.165 E1.05232
G1 X115.057 Y71.494 E1.06849
G1 X115.702 Y72.172 E1.09961
G1 X116.042 Y72.587 E1.11746
G1 X116.316 Y73.048 E1.1353
G1 X116.444 Y73.334 E1.14572
G1 X116.792 Y74.218 E1.17732
G1 X116.951 Y74.731 E1.19518
G1 X117.028 Y75.223 E1.21174
G1 X117.626 Y82.062 E1.44008
G1 X118.415 Y87.436 E1.62073
G1 X120.238 Y95.802 E1.90552
G1 X120.275 Y95.999 E1.91218
G1 X120.51 Y97.466 E1.9616
G1 X120.549 Y97.828 E1.97371
G1 X120.661 Y99.769 E2.03837
G1 X120.661 Y100.176 E2.05191
G1 X120.554 Y102.103 E2.1161
G1 X120.502 Y102.547 E2.13097
G1 X120.085 Y104.841 E2.20852
G1 X119.99 Y105.235 E2.222
G1 X119.565 Y106.647 E2.27104
G1 X119.45 Y106.972 E2.28251
G1 X118.754 Y108.674 E2.34367
G1 X118.532 Y109.124 E2.36036
G1 X115.192 Y114.855 E2.58098
G1 X112.631 Y119.669 E2.76234
G1 X109.479 Y126.653 E3.01719
G1 X109.174 Y127.197 E3.03793
G1 X108.876 Y127.635 E3.05555
G1 X108.543 Y128.055 E3.07338
G1 X108.325 Y128.271 E3.08359
G1 X107.863 Y128.692 E3.10438
G1 X107.441 Y129.023 E3.12222
G1 X106.973 Y129.287 E3.14009
G1 X106.218 Y129.643 E3.16785
G1 X105.718 Y129.835 E3.18566
G1 X105.334 Y129.928 E3.19881
G1 X104.834 Y130.02 E3.21572
G1 X104.182 Y130.079 E3.23749
G1 X95.782 Y130.077 E3.51687
G1 X95.247 Y130.037 E3.53472
G1 X94.77 Y129.932 E3.55096
G1 X93.815 Y129.652 E3.58406
G1 X93.313 Y129.463 E3.6019
G1 X92.828 Y129.19 E3.62042
G1 X92.412 Y128.912 E3.63706
G1 X91.805 Y128.402 E3.66343
G1 X91.404 Y127.981 E3.68276
G1 X91.064 Y127.566 E3.70061
G1 X90.728 Y126.976 E3.72319
G1 X88.425 Y121.859 E3.90983
G1 X85.992 Y116.997 E4.09065
G1 X82.002 Y110.157 E4.35403
G1 X81.876 Y109.921 E4.36293
G1 X81.024 Y108.174 E4.42758
G1 X80.886 Y107.851 E4.43926
G1 X80.39 Y106.517 E4.48659
G1 X80.293 Y106.219 E4.49702
G1 X79.892 Y104.764 E4.54722
G1 X79.824 Y104.468 E4.55732
G1 X79.568 Y103.098 E4.60367
G1 X79.52 Y102.742 E4.61562
G1 X79.353 Y100.778 E4.68118
G1 X79.342 Y100.346 E4.69555
G1 X79.418 Y98.201 E4.76694
G1 X79.465 Y97.737 E4.78245
G1 X79.841 Y95.476 E4.85868
G1 X79.88 Y95.276 E4.86546
G1 X81.326 Y88.859 E5.08424
G1 X82.197 Y83.481 E5.26545
G1 X82.77 Y77.992 E5.449
G1 X82.951 Y75.381 E5.53606
G1 X83.076 Y74.659 E5.56043
G1 X83.252 Y74.031 E5.58212
G1 X83.434 Y73.526 E5.59997
G1 X83.576 Y73.244 E5.61047
G1 X83.811 Y72.824 E5.62648
G1 X84.107 Y72.377 E5.64431
G0 F3600 X84.441 Y72.599
G1 F1200 X84.651 Y72.36 E5.65489
G1 X85.205 Y71.786 E5.68143
G1 X85.583 Y71.451 E5.69823
G1 X86.035 Y71.167 E5.71598
G1 X86.757 Y70.793 E5.74303
G1 X87.223 Y70.596 E5.75985
G1 X87.842 Y70.458 E5.78095
G1 X88.875 Y70.332 E5.81556
G1 X89.263 Y70.308 E5.82849
G1 X94.991 Y70.31 E6.019
G1 X95.087 Y70.311 E6.0222
G1 X98.666 Y70.42 E6.14129
G1 X104.999 Y70.31 E6.35196
G1 X105.069 Y70.31 E6.35429
G1 X111.362 Y70.34 E6.56359
G1 X111.866 Y70.382 E6.58041
G1 X112.245 Y70.469 E6.59335
G1 X112.956 Y70.677 E6.61799
G1 X113.429 Y70.857 E6.63482
G1 X113.665 Y70.981 E6.64369
G1 X114.056 Y71.208 E6.65872
G1 X114.471 Y71.495 E6.67551
G1 X114.767 Y71.769 E6.68892
G1 X115.412 Y72.447 E6.72005
G1 X115.731 Y72.84 E6.73688
G1 X116.072 Y73.481 E6.76103
G1 X116.42 Y74.365 E6.79263
G1 X116.567 Y74.848 E6.80942
G1 X116.63 Y75.258 E6.82322
G1 X117.23 Y82.12 E7.05232
G1 X118.021 Y87.506 E7.23338
G1 X119.847 Y95.887 E7.51867
G1 X119.88 Y96.062 E7.5246
G1 X120.115 Y97.529 E7.57401
G1 X120.15 Y97.851 E7.58478
G1 X120.262 Y99.792 E7.64945
G1 X120.262 Y100.153 E7.66146
G1 X120.155 Y102.08 E7.72565
G1 X120.108 Y102.475 E7.73888
G1 X119.691 Y104.769 E7.81643
G1 X119.607 Y105.119 E7.8284
G1 X119.182 Y106.531 E7.87744
G1 X119.08 Y106.82 E7.88764
G1 X118.384 Y108.522 E7.94879
G1 X118.187 Y108.922 E7.96362
G1 X114.846 Y114.654 E8.18429
G1 X112.274 Y119.49 E8.36647
G1 X109.115 Y126.489 E8.62187
G1 X108.844 Y126.972 E8.64029
G1 X108.546 Y127.41 E8.65791
G1 X108.055 Y127.975 E8.68281
G1 X107.593 Y128.396 E8.7036
G1 X107.194 Y128.706 E8.72041
G1 X106.803 Y128.925 E8.73531
G1 X106.048 Y129.281 E8.76307
G1 X105.575 Y129.46 E8.77989
G1 X105.262 Y129.534 E8.79059
G1 X104.762 Y129.626 E8.8075
G1 X104.182 Y129.679 E8.82687
G1 X95.782 Y129.677 E9.10626
G1 X95.278 Y129.637 E9.12307
G1 X94.883 Y129.548 E9.13654
G1 X93.928 Y129.268 E9.16964
G1 X93.455 Y129.088 E9.18647
G1 X93.05 Y128.858 E9.20196
G1 X92.634 Y128.58 E9.21861
G1 X92.095 Y128.126 E9.24205
G1 X91.694 Y127.705 E9.26138
G1 X91.375 Y127.313 E9.27819
G1 X91.093 Y126.811 E9.29734
G1 X88.799 Y121.713 E9.48328
G1 X86.334 Y116.788 E9.66646
G1 X82.348 Y109.955 E9.92957
G1 X82.236 Y109.746 E9.93745
G1 X81.384 Y107.999 E10.0021
G1 X81.261 Y107.711 E10.01252
G1 X80.765 Y106.377 E10.05985
G1 X80.679 Y106.112 E10.06912
G1 X80.278 Y104.657 E10.11932
G1 X80.217 Y104.395 E10.12826
G1 X79.961 Y103.025 E10.17462
G1 X79.919 Y102.708 E10.18525
G1 X79.752 Y100.744 E10.25081
G1 X79.742 Y100.36 E10.26359
G1 X79.818 Y98.215 E10.33498
G1 X79.859 Y97.803 E10.34875
G1 X80.235 Y95.542 E10.42498
G1 X80.27 Y95.364 E10.43102
G1 X81.719 Y88.93 E10.65037
G1 X82.594 Y83.532 E10.83225
G1 X83.168 Y78.033 E11.01614
G1 X83.35 Y75.409 E11.10363
G1 X83.461 Y74.766 E11.12533
G1 X83.637 Y74.138 E11.14702
G1 X83.925 Y73.439 E11.17217
G1 X84.16 Y73.019 E11.18818
G1 X84.441 Y72.599 E11.20498
G1 F2400 E8.70498
;MESH:Unicorn_Horn_-_Clips.stl
G0 F3600 X89.896 Y72.843
G0 X89.898 Y74.105
G0 X93.422 Y74.462
G0 X93.499 Y74.525
;TYPE:WALL-INNER
G1 F2400 E11.20498
G1 F1200 X93.233 Y74.86 E11.21921
G1 X93.043 Y75.232 E11.2331
G1 X92.933 Y75.619 E11.24648
G1 X92.9 Y75.972 E11.25828
G1 X92.9 Y84.03 E11.52629
G1 X92.937 Y84.4 E11.53865
G1 X93.052 Y84.795 E11.55234
G1 X93.252 Y85.17 E11.56647
G1 X93.524 Y85.5 E11.5807
G1 X93.525 Y85.501 E11.58074
G1 X93.86 Y85.767 E11.59497
G1 X94.119 Y85.899 E11.60464
G1 X93.86 Y85.899 E11.60584
G1 X93.526 Y85.899 E11.61407
G1 X93.524 Y85.899 E11.61414
G1 X90.517 Y85.899 E11.71415
G1 X90.171 Y85.899 E11.72566
G1 X89.885 Y85.9 E11.73517
G1 X90.17 Y85.748 E11.73794
G1 X90.436 Y85.528 E11.74605
G1 X90.501 Y85.475 E11.74884
G1 X90.767 Y85.14 E11.76307
G1 X90.957 Y84.768 E11.77696
G1 X91.067 Y84.381 E11.79035
G1 X91.1 Y84.028 E11.80214
G1 X91.1 Y75.97 E12.07015
G1 X91.063 Y75.6 E12.08252
G1 X90.948 Y75.205 E12.0962
G1 X90.748 Y74.83 E12.11033
G1 X90.476 Y74.5 E12.12456
G1 X90.475 Y74.499 E12.1246
G1 X90.14 Y74.233 E12.13883
G1 X89.881 Y74.101 E12.1485
G1 X90.14 Y74.101 E12.1497
G1 X90.475 Y74.101 E12.1568
G1 X90.477 Y74.101 E12.15687
G1 X93.483 Y74.101 E12.25685
G1 X93.829 Y74.101 E12.26836
G1 X94.115 Y74.1 E12.27787
G1 X93.83 Y74.252 E12.28064
G1 X93.564 Y74.472 E12.28875
G1 X93.499 Y74.525 E12.29154
G0 F3600 X93.786 Y74.807
;TYPE:WALL-OUTER
G1 F1200 X93.571 Y75.078 E12.30305
G1 X93.417 Y75.379 E12.31429
G1 X93.328 Y75.693 E12.32515
G1 X93.3 Y75.991 E12.3351
G1 X93.3 Y84.01 E12.60182
G1 X93.331 Y84.324 E12.61231
G1 X93.424 Y84.643 E12.62336
G1 X93.586 Y84.946 E12.63479
G1 X93.807 Y85.214 E12.64634
G1 X94.078 Y85.429 E12.65785
G1 X94.379 Y85.583 E12.66909
G1 X94.693 Y85.672 E12.67995
G1 X95 Y85.701 E12.69021
G1 X95.326 Y85.669 E12.7011
G1 X95.646 Y85.574 E12.7122
G1 X95.949 Y85.412 E12.72363
G1 X96.216 Y85.191 E12.73516
G1 X96.431 Y84.92 E12.74666
G1 X96.584 Y84.618 E12.75792
G1 X96.674 Y84.306 E12.76873
G1 X96.7 Y84.009 E12.77864
G1 X96.7 Y75.99 E13.04535
G1 X96.669 Y75.675 E13.05588
G1 X96.586 Y75.393 E13.06566
G1 X96.555 Y75.317 E13.06839
G1 X96.412 Y75.051 E13.07843
G1 X96.191 Y74.784 E13.08996
G1 X95.92 Y74.569 E13.10147
G1 X95.618 Y74.416 E13.11273
G1 X95.306 Y74.326 E13.12353
G1 X94.999 Y74.299 E13.13378
G1 X94.677 Y74.33 E13.14454
G1 X94.357 Y74.424 E13.15563
G1 X94.054 Y74.586 E13.16706
G1 X93.786 Y74.807 E13.17861
G0 F3600 X93.662 Y74.964
G0 X93.271 Y74.653
G0 X95.22 Y73.811
G0 X95.229 Y73.712
G1 F1200 X95.415 Y73.737 E13.18485
G1 X95.674 Y73.802 E13.19373
G1 X95.874 Y73.873 E13.20079
G1 X96.083 Y73.972 E13.20849
G1 X96.287 Y74.094 E13.21639
G1 X96.473 Y74.234 E13.22413
G1 X96.636 Y74.384 E13.2315
G1 X96.802 Y74.572 E13.23984
G1 X96.933 Y74.753 E13.24727
G1 X97.054 Y74.965 E13.25539
G1 X97.142 Y75.161 E13.26254
G1 X97.218 Y75.393 E13.27066
G1 X97.263 Y75.589 E13.27735
G1 X97.291 Y75.801 E13.28446
G1 X97.299 Y75.978 E13.29035
G1 X97.3 Y83.99 E13.55683
G1 X97.288 Y84.229 E13.56479
G1 X97.263 Y84.415 E13.57103
G1 X97.199 Y84.671 E13.57981
G1 X97.127 Y84.874 E13.58698
G1 X97.028 Y85.083 E13.59467
G1 X96.906 Y85.287 E13.60257
G1 X96.766 Y85.473 E13.61032
G1 X96.616 Y85.636 E13.61768
G1 X96.428 Y85.802 E13.62603
G1 X96.247 Y85.933 E13.63346
G1 X96.038 Y86.052 E13.64146
G1 X95.839 Y86.142 E13.64872
G1 X95.603 Y86.219 E13.65698
G1 X95.411 Y86.263 E13.66353
G1 X95.196 Y86.291 E13.67074
G1 X95.013 Y86.299 E13.67683
G1 X89.011 Y86.3 E13.87646
G1 X88.752 Y86.285 E13.88509
G1 X88.558 Y86.257 E13.89161
G1 X88.366 Y86.21 E13.89818
G1 X88.13 Y86.129 E13.90648
G1 X87.917 Y86.028 E13.91432
G1 X87.713 Y85.906 E13.92223
G1 X87.527 Y85.766 E13.92997
G1 X87.363 Y85.615 E13.93738
G1 X87.198 Y85.428 E13.94568
G1 X87.067 Y85.247 E13.95311
G1 X86.946 Y85.035 E13.96123
G1 X86.858 Y84.839 E13.96838
G1 X86.781 Y84.603 E13.97663
G1 X86.737 Y84.411 E13.98318
G1 X86.709 Y84.196 E13.99039
G1 X86.701 Y84.022 E13.99619
G1 X86.7 Y76.01 E14.26267
G1 X86.712 Y75.767 E14.27076
G1 X86.739 Y75.577 E14.27714
G1 X86.801 Y75.329 E14.28565
G1 X86.873 Y75.126 E14.29281
G1 X86.972 Y74.917 E14.3005
G1 X87.094 Y74.713 E14.30841
G1 X87.234 Y74.527 E14.31615
G1 X87.384 Y74.364 E14.32352
G1 X87.572 Y74.198 E14.33186
G1 X87.753 Y74.067 E14.33929
G1 X87.962 Y73.948 E14.34729
G1 X88.161 Y73.858 E14.35455
G1 X88.397 Y73.781 E14.36281
G1 X88.589 Y73.737 E14.36936
G1 X88.804 Y73.709 E14.37657
G1 X88.987 Y73.701 E14.38267
G1 X94.99 Y73.7 E14.58233
G1 X95.229 Y73.712 E14.59029
G0 F3600 X95.415 Y73.737
G0 X95.427 Y73.74
G0 X95.401 Y73.836
G0 X94.032 Y74.553
G0 X93.538 Y75.057
G0 X93.398 Y75.413
G0 X90.604 Y85.505
G0 X90.214 Y85.193
G1 F1200 X90.429 Y84.922 E14.60179
G1 X90.583 Y84.621 E14.61304
G1 X90.672 Y84.307 E14.62389
G1 X90.7 Y84.009 E14.63385
G1 X90.7 Y75.99 E14.90056
G1 X90.669 Y75.676 E14.91105
G1 X90.576 Y75.357 E14.92211
G1 X90.414 Y75.054 E14.93353
G1 X90.193 Y74.786 E14.94509
G1 X89.922 Y74.571 E14.95659
G1 X89.621 Y74.417 E14.96784
G1 X89.307 Y74.328 E14.97869
G1 X89 Y74.299 E14.98895
G1 X88.674 Y74.331 E14.99985
G1 X88.354 Y74.426 E15.01095
G1 X88.051 Y74.588 E15.02238
G1 X87.784 Y74.809 E15.0339
G1 X87.569 Y75.08 E15.04541
G1 X87.416 Y75.382 E15.05667
G1 X87.326 Y75.694 E15.06747
G1 X87.3 Y75.991 E15.07739
G1 X87.3 Y84.01 E15.3441
G1 X87.331 Y84.325 E15.35463
G1 X87.414 Y84.607 E15.3644
G1 X87.445 Y84.683 E15.36713
G1 X87.588 Y84.949 E15.37718
G1 X87.809 Y85.216 E15.38871
G1 X88.08 Y85.431 E15.40021
G1 X88.382 Y85.584 E15.41147
G1 X88.694 Y85.674 E15.42227
G1 X89.001 Y85.701 E15.43252
G1 X89.323 Y85.67 E15.44328
G1 X89.643 Y85.576 E15.45437
G1 X89.946 Y85.414 E15.4658
G1 X90.214 Y85.193 E15.47736
G0 F3600 X90.338 Y85.036
G0 X90.972 Y85.51
;TYPE:SKIN
G1 F1200 X91.097 Y85.352 E15.48406
G1 X91.322 Y84.912 E15.50049
G1 X91.452 Y84.453 E15.51636
G1 X91.49 Y84.046 E15.52996
G1 X91.49 Y75.95 E15.79923
G1 X91.447 Y75.526 E15.8134
G1 X91.311 Y75.057 E15.82965
G1 X91.074 Y74.612 E15.84641
G1 X90.974 Y74.491 E15.85164
G1 X93.028 Y74.49 E15.91995
G1 X92.903 Y74.648 E15.92665
G1 X92.678 Y75.088 E15.94309
G1 X92.548 Y75.547 E15.95896
G1 X92.51 Y75.954 E15.97255
G1 X92.51 Y84.05 E16.24183
G1 X92.553 Y84.474 E16.256
G1 X92.689 Y84.943 E16.27224
G1 X92.926 Y85.388 E16.28901
G1 X93.026 Y85.509 E16.29423
G1 X90.972 Y85.51 E16.36255
G0 F3600 X91.391 Y85.168
G1 F1200 X91.551 Y85.329 E16.3701
G0 F3600 X92.116 Y85.328
G1 F1200 X91.55 Y84.762 E16.39672
G0 F3600 X91.645 Y84.292
G1 F1200 X92.682 Y85.328 E16.44548
G1 X92.752 Y85.398
G0 F3600 X92.369 Y84.449
G1 F1200 X91.669 Y83.749 E16.4784
G0 F3600 X91.669 Y83.184
G1 F1200 X92.329 Y83.843 E16.50942
G0 F3600 X92.329 Y83.278
G1 F1200 X91.669 Y82.618 E16.54047
G0 F3600 X91.669 Y82.052
G1 F1200 X92.329 Y82.712 E16.57151
G0 F3600 X92.329 Y82.146
G1 F1200 X91.669 Y81.486 E16.60255
G0 F3600 X91.669 Y80.921
G1 F1200 X92.329 Y81.581 E16.6336
G0 F3600 X92.329 Y81.015
G1 F1200 X91.669 Y80.355 E16.66464
G0 F3600 X91.669 Y79.789
G1 F1200 X92.329 Y80.449 E16.69569
G0 F3600 X92.329 Y79.883
G1 F1200 X91.669 Y79.224 E16.72671
G0 F3600 X91.669 Y78.658
G1 F1200 X92.329 Y79.318 E16.75775
G0 F3600 X92.329 Y78.752
G1 F1200 X91.669 Y78.092 E16.7888
G0 F3600 X91.669 Y77.527
G1 F1200 X92.329 Y78.186 E16.81982
G0 F3600 X92.329 Y77.621
G1 F1200 X91.669 Y76.961 E16.85086
G0 F3600 X91.669 Y76.395
G1 F1200 X92.329 Y77.055 E16.88191
G0 F3600 X92.329 Y76.489
G1 F1200 X91.656 Y75.817 E16.91354
G0 F3600 X92.331 Y75.926
G1 F1200 X91.512 Y75.107 E16.95206
G0 F3600 X91.641 Y74.671
G1 F1200 X92.395 Y75.424 E16.98751
G0 F3600 X92.526 Y74.99
G1 F1200 X92.206 Y74.67 E17.00256
G0 F3600 X94.534 Y73.825
G0 X94.259 Y73.894
;TYPE:SKIN
G1 F1200 X94.533 Y74.168 E17.009
G0 F3600 X94.772 Y74.124
G1 F1200 X94.542 Y73.894 E17.01441
G0 F3600 X94.825 Y73.894
G1 F1200 X95.037 Y74.106 E17.0194
G0 F3600 X95.115 Y73.901
G1 F1200 X95.348 Y74.135 E17.02489
G0 F3600 X95.441 Y73.944
G1 F1200 X95.772 Y74.276 E17.03268
G0 F3600 X95.861 Y74.082
G1 F1200 X96.919 Y75.14 E17.05757
G0 F3600 X96.732 Y75.236
G1 F1200 X97.054 Y75.558 E17.06514
G0 F3600 X96.86 Y75.647
G1 F1200 X97.099 Y75.886 E17.07076
G0 F3600 X96.892 Y75.961
G1 F1200 X97.104 Y76.173 E17.07575
G0 F3600 X96.894 Y76.246
G1 F1200 X97.104 Y76.456 E17.08069
G0 F3600 X96.894 Y76.529
G1 F1200 X97.104 Y76.739 E17.08562
G0 F3600 X96.894 Y76.812
G1 F1200 X97.104 Y77.022 E17.09056
G0 F3600 X96.894 Y77.095
G1 F1200 X97.104 Y77.305 E17.0955
G0 F3600 X96.894 Y77.377
G1 F1200 X97.104 Y77.587 E17.10044
G0 F3600 X96.894 Y77.66
G1 F1200 X97.104 Y77.87 E17.10538
G0 F3600 X96.894 Y77.943
G1 F1200 X97.104 Y78.153 E17.11032
G0 F3600 X96.894 Y78.226
G1 F1200 X97.104 Y78.436 E17.11526
G0 F3600 X96.894 Y78.509
G1 F1200 X97.104 Y78.719 E17.1202
G0 F3600 X96.894 Y78.792
G1 F1200 X97.104 Y79.002 E17.12514
G0 F3600 X96.894 Y79.075
G1 F1200 X97.104 Y79.285 E17.13007
G0 F3600 X96.894 Y79.357
G1 F1200 X97.104 Y79.567 E17.13501
G0 F3600 X96.894 Y79.64
G1 F1200 X97.104 Y79.85 E17.13995
G0 F3600 X96.894 Y79.923
G1 F1200 X97.104 Y80.133 E17.14489
G0 F3600 X96.894 Y80.206
G1 F1200 X97.104 Y80.416 E17.14983
G0 F3600 X96.894 Y80.489
G1 F1200 X97.104 Y80.699 E17.15477
G0 F3600 X96.894 Y80.772
G1 F1200 X97.104 Y80.982 E17.15971
G0 F3600 X96.894 Y81.054
G1 F1200 X97.104 Y81.264 E17.16465
G0 F3600 X96.894 Y81.337
G1 F1200 X97.104 Y81.547 E17.16959
G0 F3600 X96.894 Y81.62
G1 F1200 X97.104 Y81.83 E17.17452
G0 F3600 X96.894 Y81.903
G1 F1200 X97.104 Y82.113 E17.17946
G0 F3600 X96.894 Y82.186
G1 F1200 X97.104 Y82.396 E17.1844
G0 F3600 X96.894 Y82.469
G1 F1200 X97.104 Y82.679 E17.18934
G0 F3600 X96.894 Y82.751
G1 F1200 X97.104 Y82.962 E17.19429
G0 F3600 X96.894 Y83.034
G1 F1200 X97.104 Y83.244 E17.19923
G0 F3600 X96.894 Y83.317
G1 F1200 X97.104 Y83.527 E17.20417
G0 F3600 X96.894 Y83.6
