;FLAVOR:Marlin
;TIME:3793
;Filament used: 3.20863m
;Layer height: 0.16
;Generated with Cura_SteamEngine 3.6.0
M140 S65
M105
M190 S65
M104 S195
M105
M109 S195
M82 ;absolute extrusion mode
G21 ;metric values
G90 ;absolute positioning
M82 ;set extruder to absolute mode
M107 ;start with the fan off
G28 X0 Y0 ;move X/Y to min endstops
G28 Z0 ;move Z to min endstops
G1 Z15.0 F80 ;move the platform down 15mm
G92 E0 ;zero the extruded length
G1 F200 E6 ;extrude 6 mm of feed stock
G92 E0 ;zero the extruded length again
G1 F80
;Put printing message on LCD screen
M117 Printing...
G92 E0
G1 F2400 E-2.5
;LAYER_COUNT:280
;LAYER:0
M107
G0 F2400 X91.673 Y77.707 Z0.3
;TYPE:SKIRT
G1 F2400 E0
G1 F1200 X92.143 Y77.198 E0.03456
G1 X92.668 Y76.747 E0.06909
G1 X93.242 Y76.359 E0.10366
G1 X93.857 Y76.04 E0.13822
G1 X94.504 Y75.794 E0.17276
G1 X95.176 Y75.624 E0.20734
G1 X95.862 Y75.533 E0.24186
G1 X96.34 Y75.516 E0.26573
G1 X108.645 Y75.581 E0.87963
G1 X111.486 Y75.509 E1.02142
G1 X111.646 Y75.507 E1.0294
G1 X118.443 Y75.517 E1.36851
G1 X119.134 Y75.558 E1.40304
G1 X119.816 Y75.678 E1.43759
G1 X120.48 Y75.877 E1.47217
G1 X121.116 Y76.15 E1.5067
G1 X121.717 Y76.495 E1.54127
G1 X122.273 Y76.906 E1.57577
G1 X122.779 Y77.379 E1.61033
G1 X123.227 Y77.908 E1.64491
G1 X123.611 Y78.484 E1.67945
G1 X123.926 Y79.101 E1.71401
G1 X124.168 Y79.75 E1.74857
G1 X124.333 Y80.422 E1.78309
G1 X124.42 Y81.109 E1.81764
G1 X124.434 Y81.509 E1.8376
G1 X124.443 Y87.917 E2.1573
G1 X124.441 Y88.066 E2.16473
G1 X124.369 Y91.119 E2.31709
G1 X124.433 Y103.611 E2.94033
G1 X124.396 Y104.303 E2.9749
G1 X124.281 Y104.986 E3.00946
G1 X124.087 Y105.651 E3.04402
G1 X123.818 Y106.289 E3.07856
G1 X123.477 Y106.892 E3.11312
G1 X123.069 Y107.451 E3.14765
G1 X122.599 Y107.96 E3.18221
G1 X122.074 Y108.411 E3.21674
G1 X121.5 Y108.799 E3.25131
G1 X120.885 Y109.118 E3.28587
G1 X120.238 Y109.364 E3.32041
G1 X119.566 Y109.534 E3.35499
G1 X118.88 Y109.625 E3.38951
G1 X118.441 Y109.642 E3.41143
G1 X112.014 Y109.651 E3.73208
G1 X111.864 Y109.649 E3.73956
G1 X108.829 Y109.577 E3.89102
G1 X96.339 Y109.641 E4.51416
G1 X95.647 Y109.604 E4.54873
G1 X94.964 Y109.489 E4.58328
G1 X94.299 Y109.295 E4.61784
G1 X93.661 Y109.026 E4.65239
G1 X93.058 Y108.685 E4.68695
G1 X92.499 Y108.277 E4.72148
G1 X91.99 Y107.807 E4.75604
G1 X91.539 Y107.282 E4.79057
G1 X91.151 Y106.708 E4.82513
G1 X90.832 Y106.093 E4.8597
G1 X90.586 Y105.446 E4.89423
G1 X90.416 Y104.774 E4.92882
G1 X90.325 Y104.088 E4.96334
G1 X90.308 Y103.649 E4.98526
G1 X90.299 Y97.222 E5.3059
G1 X90.301 Y97.072 E5.31339
G1 X90.373 Y94.037 E5.46485
G1 X90.309 Y81.547 E6.08798
G1 X90.346 Y80.855 E6.12256
G1 X90.461 Y80.172 E6.15711
G1 X90.655 Y79.507 E6.19167
G1 X90.924 Y78.869 E6.22621
G1 X91.265 Y78.266 E6.26078
G1 X91.673 Y77.707 E6.2953
G0 F2400 X92.07 Y77.857
G1 F1200 X92.537 Y77.377 E6.32871
G1 X93.057 Y76.957 E6.36206
G1 X93.624 Y76.602 E6.39544
G1 X94.229 Y76.316 E6.42882
G1 X94.864 Y76.106 E6.46219
G1 X95.52 Y75.972 E6.49559
G1 X96.338 Y75.916 E6.5365
G1 X108.653 Y75.981 E7.15091
G1 X111.496 Y75.909 E7.29279
G1 X111.645 Y75.907 E7.30022
G1 X118.442 Y75.917 E7.63933
G1 X119.11 Y75.958 E7.67272
G1 X119.768 Y76.078 E7.70609
G1 X120.407 Y76.276 E7.73946
G1 X121.018 Y76.549 E7.77285
G1 X121.592 Y76.893 E7.80623
G1 X122.121 Y77.302 E7.8396
G1 X122.597 Y77.772 E7.87297
G1 X123.014 Y78.295 E7.90634
G1 X123.366 Y78.864 E7.93972
G1 X123.647 Y79.472 E7.97314
G1 X123.854 Y80.108 E8.0065
G1 X123.983 Y80.764 E8.03986
G1 X124.034 Y81.509 E8.07711
G1 X124.043 Y87.917 E8.39681
G1 X124.041 Y88.056 E8.40375
G1 X123.969 Y91.111 E8.5562
G1 X124.033 Y103.613 E9.17994
G1 X123.996 Y104.282 E9.21337
G1 X123.88 Y104.94 E9.2467
G1 X123.687 Y105.581 E9.2801
G1 X123.418 Y106.193 E9.31345
G1 X123.078 Y106.77 E9.34686
G1 X122.672 Y107.301 E9.38021
G1 X122.205 Y107.781 E9.41362
G1 X121.685 Y108.201 E9.44697
G1 X121.118 Y108.556 E9.48035
G1 X120.513 Y108.842 E9.51373
G1 X119.878 Y109.052 E9.5471
G1 X119.222 Y109.186 E9.5805
G1 X118.441 Y109.242 E9.61957
G1 X112.014 Y109.251 E9.94021
G1 X111.874 Y109.249 E9.9472
G1 X108.837 Y109.177 E10.09876
G1 X96.337 Y109.241 E10.72239
G1 X95.668 Y109.204 E10.75582
G1 X95.01 Y109.088 E10.78915
G1 X94.369 Y108.895 E10.82255
G1 X93.757 Y108.626 E10.8559
G1 X93.18 Y108.286 E10.88932
G1 X92.649 Y107.88 E10.92266
G1 X92.169 Y107.413 E10.95608
G1 X91.749 Y106.893 E10.98942
G1 X91.394 Y106.326 E11.0228
G1 X91.108 Y105.721 E11.05618
G1 X90.898 Y105.086 E11.08955
G1 X90.764 Y104.43 E11.12296
G1 X90.708 Y103.649 E11.16202
G1 X90.699 Y97.222 E11.48267
G1 X90.701 Y97.082 E11.48965
G1 X90.773 Y94.045 E11.64121
G1 X90.709 Y81.545 E12.26485
G1 X90.746 Y80.876 E12.29827
G1 X90.862 Y80.218 E12.33161
G1 X91.055 Y79.577 E12.365
G1 X91.324 Y78.965 E12.39836
G1 X91.664 Y78.388 E12.43177
G1 X92.07 Y77.857 E12.46512
G0 F2400 X92.466 Y78.013
G1 F1200 X92.929 Y77.564 E12.49729
G1 X93.444 Y77.176 E12.52946
G1 X94.003 Y76.855 E12.56162
G1 X94.598 Y76.606 E12.5938
G1 X95.218 Y76.432 E12.62593
G1 X95.856 Y76.336 E12.65812
G1 X96.336 Y76.316 E12.68209
G1 X108.661 Y76.381 E13.29699
G1 X111.506 Y76.309 E13.43897
G1 X111.645 Y76.307 E13.44591
G1 X118.442 Y76.317 E13.78501
G1 X119.085 Y76.358 E13.81716
G1 X119.718 Y76.478 E13.8493
G1 X120.332 Y76.676 E13.88149
G1 X120.916 Y76.948 E13.91363
G1 X121.463 Y77.29 E13.94581
G1 X121.963 Y77.697 E13.97798
G1 X122.408 Y78.163 E14.01012
G1 X122.792 Y78.681 E14.04229
G1 X123.11 Y79.242 E14.07447
G1 X123.355 Y79.838 E14.10662
G1 X123.525 Y80.46 E14.13878
G1 X123.617 Y81.098 E14.17094
G1 X123.634 Y81.51 E14.19152
G1 X123.643 Y87.918 E14.51121
G1 X123.642 Y88.047 E14.51765
G1 X123.569 Y91.14 E14.672
G1 X123.633 Y103.616 E15.29444
G1 X123.596 Y104.259 E15.32657
G1 X123.48 Y104.893 E15.35873
G1 X123.287 Y105.508 E15.39089
G1 X123.018 Y106.094 E15.42306
G1 X122.68 Y106.643 E15.45522
G1 X122.276 Y107.145 E15.48737
G1 X121.813 Y107.594 E15.51955
G1 X121.298 Y107.982 E15.55171
G1 X120.739 Y108.303 E15.58387
G1 X120.144 Y108.552 E15.61605
G1 X119.524 Y108.726 E15.64818
G1 X118.886 Y108.822 E15.68037
G1 X118.44 Y108.842 E15.70264
G1 X112.013 Y108.851 E16.02329
G1 X111.883 Y108.85 E16.02977
G1 X108.809 Y108.777 E16.18318
G1 X96.334 Y108.841 E16.80557
G1 X95.691 Y108.804 E16.8377
G1 X95.057 Y108.688 E16.86985
G1 X94.442 Y108.495 E16.90201
G1 X93.856 Y108.226 E16.93418
G1 X93.307 Y107.888 E16.96635
G1 X92.805 Y107.484 E16.99849
G1 X92.356 Y107.021 E17.03067
G1 X91.968 Y106.506 E17.06284
G1 X91.647 Y105.947 E17.095
G1 X91.398 Y105.352 E17.12718
G1 X91.224 Y104.732 E17.15931
G1 X91.128 Y104.094 E17.19149
G1 X91.108 Y103.648 E17.21377
G1 X91.099 Y97.221 E17.53441
G1 X91.1 Y97.091 E17.5409
G1 X91.173 Y94.017 E17.6943
G1 X91.109 Y81.542 E18.31669
G1 X91.146 Y80.899 E18.34882
G1 X91.262 Y80.265 E18.38098
G1 X91.455 Y79.65 E18.41314
G1 X91.724 Y79.064 E18.44531
G1 X92.062 Y78.515 E18.47747
G1 X92.466 Y78.013 E18.50962
G1 F2400 E16.00962
;MESH:llAMA_lEG.stl(3)
G0 F2400 X95.634 Y82.121
G0 X96.913 Y82.121
G0 X102.443 Y87.651
;TYPE:WALL-INNER
G1 F2400 E18.50962
G1 F1200 X97.299 Y87.651 E18.76625
G1 X97.299 Y82.507 E19.02289
G1 X102.443 Y82.507 E19.27953
G1 X102.443 Y87.651 E19.53616
G0 F2400 X102.843 Y88.051
G1 F1200 X96.899 Y88.051 E19.83271
G1 X96.899 Y82.107 E20.12926
G1 X102.843 Y82.107 E20.4258
G1 X102.843 Y88.051 E20.72235
G0 F2400 X103.243 Y88.451
;TYPE:WALL-OUTER
G1 F1200 X96.499 Y88.451 E21.05881
G1 X96.499 Y81.707 E21.39527
G1 X103.243 Y81.707 E21.73173
G1 X103.243 Y88.451 E22.06819
G0 F2400 X103.043 Y88.451
G0 X102.773 Y87.981
G0 X102.053 Y87.261
;TYPE:SKIN
G1 F1200 X97.689 Y87.261 E22.28591
G1 X97.689 Y82.897 E22.50363
G1 X102.053 Y82.897 E22.72135
G1 X102.053 Y87.261 E22.93907
G0 F2400 X101.872 Y83.204
G1 F1200 X101.744 Y83.077 E22.94807
G0 F2400 X101.179 Y83.077
G1 F1200 X101.872 Y83.77 E22.99696
G0 F2400 X101.872 Y84.335
G1 F1200 X100.613 Y83.077 E23.08576
G0 F2400 X100.047 Y83.077
G1 F1200 X101.872 Y84.901 E23.21448
G0 F2400 X101.872 Y85.467
G1 F1200 X99.482 Y83.077 E23.38311
G0 F2400 X98.916 Y83.077
G1 F1200 X101.872 Y86.032 E23.59164
G0 F2400 X101.872 Y86.598
G1 F1200 X98.35 Y83.077 E23.8401
G0 F2400 X97.868 Y83.16
G1 F1200 X101.788 Y87.08 E24.11668
G0 F2400 X101.223 Y87.08
G1 F1200 X97.868 Y83.726 E24.35335
G0 F2400 X97.868 Y84.292
G1 F1200 X100.657 Y87.08 E24.5501
G0 F2400 X100.091 Y87.08
G1 F1200 X97.868 Y84.857 E24.70694
G0 F2400 X97.868 Y85.423
G1 F1200 X99.525 Y87.08 E24.82385
G0 F2400 X98.96 Y87.08
G1 F1200 X97.868 Y85.989 E24.90086
G0 F2400 X97.868 Y86.554
G1 F1200 X98.394 Y87.08 E24.93798
G1 F2400 E22.43798
;MESH:llAMA_lEG.stl
G0 F2400 X102.443 Y88.031
G0 X102.443 Y89.316
G0 X102.443 Y95.842
G0 X102.443 Y97.127
G0 X102.443 Y102.651
;TYPE:WALL-INNER
G1 F2400 E24.93798
G1 F1200 X97.299 Y102.651 E25.19461
G1 X97.299 Y97.507 E25.45125
G1 X102.443 Y97.507 E25.70788
G1 X102.443 Y102.651 E25.96452
G0 F2400 X102.843 Y103.051
G1 F1200 X96.899 Y103.051 E26.26106
G1 X96.899 Y97.107 E26.55761
G1 X102.843 Y97.107 E26.85416
G1 X102.843 Y103.051 E27.15071
G0 F2400 X103.243 Y103.451
;TYPE:WALL-OUTER
G1 F1200 X96.499 Y103.451 E27.48717
G1 X96.499 Y96.707 E27.82363
G1 X103.243 Y96.707 E28.16009
G1 X103.243 Y103.451 E28.49654
G0 F2400 X103.043 Y103.451
G0 X102.773 Y102.981
G0 X102.053 Y102.261
;TYPE:SKIN
G1 F1200 X97.689 Y102.261 E28.71427
G1 X97.689 Y97.897 E28.93199
G1 X102.053 Y97.897 E29.14971
G1 X102.053 Y102.261 E29.36743
G0 F2400 X101.872 Y98.478
G1 F1200 X101.471 Y98.077 E29.39572
G0 F2400 X100.905 Y98.077
G1 F1200 X101.872 Y99.044 E29.46395
G0 F2400 X101.872 Y99.61
G1 F1200 X100.339 Y98.077 E29.57211
G0 F2400 X99.774 Y98.077
G1 F1200 X101.872 Y100.175 E29.72013
G0 F2400 X101.872 Y100.741
G1 F1200 X99.208 Y98.077 E29.90809
G0 F2400 X98.642 Y98.077
G1 F1200 X101.872 Y101.307 E30.13599
G0 F2400 X101.872 Y101.872
G1 F1200 X98.077 Y98.077 E30.40375
G0 F2400 X97.868 Y98.434
G1 F1200 X101.515 Y102.08 E30.66103
G0 F2400 X100.949 Y102.08
G1 F1200 X97.868 Y98.999 E30.87841
G0 F2400 X97.868 Y99.565
G1 F1200 X100.383 Y102.08 E31.05585
G0 F2400 X99.818 Y102.08
G1 F1200 X97.868 Y100.131 E31.1934
G0 F2400 X97.868 Y100.696
G1 F1200 X99.252 Y102.08 E31.29105
G0 F2400 X98.686 Y102.08
G1 F1200 X97.868 Y101.262 E31.34876
G0 F2400 X97.868 Y101.828
G1 F1200 X98.12 Y102.08 E31.36654
G1 F2400 E28.86654
;MESH:llAMA_lEG.stl(2)
G0 F2400 X102.823 Y102.651
G0 X104.108 Y102.651
G0 X110.634 Y102.651
G0 X111.919 Y102.651
G0 X117.443 Y102.651
;TYPE:WALL-INNER
G1 F2400 E31.36654
G1 F1200 X112.299 Y102.651 E31.62318
G1 X112.299 Y97.507 E31.87982
G1 X117.443 Y97.507 E32.13645
G1 X117.443 Y102.651 E32.39309
G0 F2400 X117.843 Y103.051
G1 F1200 X111.899 Y103.051 E32.68963
G1 X111.899 Y97.107 E32.98618
G1 X117.843 Y97.107 E33.28273
G1 X117.843 Y103.051 E33.57928
G0 F2400 X118.243 Y103.451
;TYPE:WALL-OUTER
G1 F1200 X111.499 Y103.451 E33.91573
G1 X111.499 Y96.707 E34.25219
G1 X118.243 Y96.707 E34.58865
G1 X118.243 Y103.451 E34.92511
G0 F2400 X118.043 Y103.451
G0 X117.773 Y102.981
G0 X117.053 Y102.261
;TYPE:SKIN
G1 F1200 X112.689 Y102.261 E35.14283
G1 X112.689 Y97.897 E35.36055
G1 X117.053 Y97.897 E35.57828
G1 X117.053 Y102.261 E35.796
G0 F2400 X116.872 Y98.204
G1 F1200 X116.744 Y98.077 E35.80499
G0 F2400 X116.179 Y98.077
G1 F1200 X116.872 Y98.77 E35.85389
G0 F2400 X116.872 Y99.335
G1 F1200 X115.613 Y98.077 E35.94268
G0 F2400 X115.047 Y98.077
G1 F1200 X116.872 Y99.901 E36.07141
G0 F2400 X116.872 Y100.467
G1 F1200 X114.482 Y98.077 E36.24004
G0 F2400 X113.916 Y98.077
G1 F1200 X116.872 Y101.032 E36.44856
G0 F2400 X116.872 Y101.598
G1 F1200 X113.35 Y98.077 E36.69702
G0 F2400 X112.868 Y98.16
G1 F1200 X116.788 Y102.08 E36.9736
G0 F2400 X116.222 Y102.08
G1 F1200 X112.868 Y98.726 E37.21024
G0 F2400 X112.868 Y99.291
G1 F1200 X115.657 Y102.08 E37.40702
G0 F2400 X115.091 Y102.08
G1 F1200 X112.868 Y99.857 E37.56387
G0 F2400 X112.868 Y100.423
G1 F1200 X114.525 Y102.08 E37.68078
G0 F2400 X113.96 Y102.08
G1 F1200 X112.868 Y100.988 E37.75782
G0 F2400 X112.868 Y101.554
G1 F1200 X113.394 Y102.08 E37.79494
G1 F2400 E35.29494
;MESH:llAMA_lEG.stl(1)
G0 F2400 X117.443 Y97.127
G0 X117.443 Y95.842
G0 X117.443 Y89.316
G0 X117.443 Y88.031
G0 X117.443 Y87.651
;TYPE:WALL-INNER
G1 F2400 E37.79494
G1 F1200 X112.299 Y87.651 E38.05157
G1 X112.299 Y82.507 E38.30821
G1 X117.443 Y82.507 E38.56484
G1 X117.443 Y87.651 E38.82148
G0 F2400 X117.843 Y88.051
G1 F1200 X111.899 Y88.051 E39.11803
G1 X111.899 Y82.107 E39.41457
G1 X117.843 Y82.107 E39.71112
G1 X117.843 Y88.051 E40.00767
G0 F2400 X118.243 Y88.451
;TYPE:WALL-OUTER
G1 F1200 X111.499 Y88.451 E40.34413
G1 X111.499 Y81.707 E40.68059
G1 X118.243 Y81.707 E41.01705
G1 X118.243 Y88.451 E41.35351
G0 F2400 X118.043 Y88.451
G0 X117.773 Y87.981
G0 X117.053 Y87.261
;TYPE:SKIN
G1 F1200 X112.689 Y87.261 E41.57123
G1 X112.689 Y82.897 E41.78895
G1 X117.053 Y82.897 E42.00667
G1 X117.053 Y87.261 E42.22439
G0 F2400 X116.872 Y83.497
G1 F1200 X116.452 Y83.077 E42.25402
G0 F2400 X115.887 Y83.077
G1 F1200 X116.872 Y84.062 E42.32352
G0 F2400 X116.872 Y84.628
G1 F1200 X115.321 Y83.077 E42.43295
G0 F2400 X114.755 Y83.077
G1 F1200 X116.872 Y85.194 E42.58232
G0 F2400 X116.872 Y85.76
G1 F1200 X114.189 Y83.077 E42.77162
G0 F2400 X113.624 Y83.077
G1 F1200 X116.872 Y86.325 E43.00078
G0 F2400 X116.872 Y86.891
G1 F1200 X113.058 Y83.077 E43.26988
G0 F2400 X112.868 Y83.452
G1 F1200 X116.496 Y87.08 E43.52585
G0 F2400 X115.93 Y87.08
G1 F1200 X112.868 Y84.018 E43.74189
G0 F2400 X112.868 Y84.584
G1 F1200 X115.365 Y87.08 E43.91804
G0 F2400 X114.799 Y87.08
G1 F1200 X112.868 Y85.149 E44.05428
G0 F2400 X112.868 Y85.715
G1 F1200 X114.233 Y87.08 E44.15059
G0 F2400 X113.668 Y87.08
G1 F1200 X112.868 Y86.281 E44.207
G0 F2400 X112.868 Y86.846
G1 F1200 X113.102 Y87.08 E44.22351
G1 F2400 E41.72351
;MESH:NONMESH
G0 F2400 X111.919 Y87.774
G0 X110.634 Y87.774
G0 X104.108 Y87.774
G0 X102.823 Y87.774
G0 X102.566 Y87.774
;TIME_ELAPSED:57.022994
;LAYER:1
M140 S65
M106 S255
;MESH:llAMA_lEG.stl(3)
G0 F3600 X102.566 Y87.774 Z0.46
;TYPE:WALL-INNER
G1 F2400 E44.22351
G1 F2220 X97.176 Y87.774 E44.36692
G1 X97.176 Y82.384 E44.51034
G1 X102.566 Y82.384 E44.65376
G1 X102.566 Y87.774 E44.79718
G0 F3600 X102.966 Y88.174
G1 F2220 X96.776 Y88.174 E44.96188
G1 X96.776 Y81.984 E45.12658
G1 X102.966 Y81.984 E45.29129
G1 X102.966 Y88.174 E45.45599
G0 F3600 X103.366 Y88.574
;TYPE:WALL-OUTER
G1 F1410 X96.376 Y88.574 E45.64198
G1 X96.376 Y81.584 E45.82797
G1 X103.366 Y81.584 E46.01397
G1 X103.366 Y88.574 E46.19996
G0 F3600 X103.166 Y88.574
G0 X102.896 Y88.104
G0 X102.176 Y87.384
;TYPE:SKIN
G1 F1200 X97.566 Y87.384 E46.32262
G1 X97.566 Y82.774 E46.44528
G1 X102.176 Y82.774 E46.56795
G1 X102.176 Y87.384 E46.69061
G0 F3600 X101.995 Y86.943
G1 F1200 X101.734 Y87.203 E46.70041
G0 F3600 X101.169 Y87.203
G1 F1200 X101.995 Y86.378 E46.73148
G0 F3600 X101.995 Y85.812
G1 F1200 X100.603 Y87.203 E46.78384
G0 F3600 X100.037 Y87.203
G1 F1200 X101.995 Y85.246 E46.8575
G0 F3600 X101.995 Y84.68
G1 F1200 X99.472 Y87.203 E46.95244
G0 F3600 X98.906 Y87.203
G1 F1200 X101.995 Y84.115 E47.06865
G0 F3600 X101.995 Y83.549
G1 F1200 X98.34 Y87.203 E47.20617
G0 F3600 X97.775 Y87.203
G1 F1200 X101.995 Y82.983 E47.36497
G0 F3600 X101.459 Y82.954
G1 F1200 X97.745 Y86.667 E47.50471
G0 F3600 X97.745 Y86.102
G1 F1200 X100.893 Y82.954 E47.62316
G0 F3600 X100.327 Y82.954
G1 F1200 X97.745 Y85.536 E47.72032
G0 F3600 X97.745 Y84.97
G1 F1200 X99.762 Y82.954 E47.7962
G0 F3600 X99.196 Y82.954
G1 F1200 X97.745 Y84.405 E47.8508
G0 F3600 X97.745 Y83.839
G1 F1200 X98.63 Y82.954 E47.88411
G0 F3600 X98.065 Y82.954
G1 F1200 X97.745 Y83.273 E47.89613
G1 F2400 E45.39613
;MESH:llAMA_lEG.stl
G0 F3600 X102.566 Y88.154
G0 X102.566 Y89.439
G0 X102.566 Y95.719
G0 X102.566 Y97.004
G0 X102.566 Y102.774
;TYPE:WALL-INNER
G1 F2400 E47.89613
G1 F2220 X97.176 Y102.774 E48.03955
G1 X97.176 Y97.384 E48.18296
G1 X102.566 Y97.384 E48.32638
G1 X102.566 Y102.774 E48.4698
G0 F3600 X102.966 Y103.174
G1 F2220 X96.776 Y103.174 E48.6345
G1 X96.776 Y96.984 E48.79921
G1 X102.966 Y96.984 E48.96391
G1 X102.966 Y103.174 E49.12862
G0 F3600 X103.366 Y103.574
;TYPE:WALL-OUTER
G1 F1410 X96.376 Y103.574 E49.31461
G1 X96.376 Y96.584 E49.5006
G1 X103.366 Y96.584 E49.68659
