;FLAVOR:Marlin
;TIME:2274
;Filament used: 1.56565m
;Layer height: 0.16
;Generated with Cura_SteamEngine 3.6.0
M140 S60
M105
M190 S60
M104 S200
M105
M109 S200
M82 ;absolute extrusion mode
G21 ;metric values
G90 ;absolute positioning
M82 ;set extruder to absolute mode
M107 ;start with the fan off
G28 X0 Y0 ;move X/Y to min endstops
G28 Z0 ;move Z to min endstops
G1 Z15.0 F120 ;move the platform down 15mm
G92 E0 ;zero the extruded length
G1 F200 E6 ;extrude 6 mm of feed stock
G92 E0 ;zero the extruded length again
M117 Printing...
G1 F120
G92 E0
G1 F2400 E-2.5
;LAYER_COUNT:21
;LAYER:0
M107
G0 F3600 X57.162 Y81.555 Z0.2
;TYPE:SKIRT
G1 F2400 E0
G1 F1200 X57.582 Y81.278 E0.01673
G1 X63.732 Y77.81 E0.25156
G1 X64.217 Y77.582 E0.26939
G1 X64.731 Y77.429 E0.28723
G1 X65.526 Y77.346 E0.31381
G1 X71.354 Y77.388 E0.50766
G1 X74.209 Y77.309 E0.60265
G1 X74.563 Y77.317 E0.61443
G1 X81.485 Y77.806 E0.84523
G1 X86.93 Y77.852 E1.02634
G1 X92.412 Y77.589 E1.20888
G1 X95.392 Y77.319 E1.3084
G1 X95.822 Y77.306 E1.32271
G1 X98.582 Y77.386 E1.41454
G1 X104.3 Y77.31 E1.60474
G1 X104.65 Y77.323 E1.61639
G1 X108.723 Y77.666 E1.75234
G1 X114.218 Y77.868 E1.93523
G1 X119.658 Y77.761 E2.1162
G1 X125.47 Y77.316 E2.31007
G1 X125.798 Y77.305 E2.32099
G1 X131.378 Y77.388 E2.5066
G1 X134.23 Y77.31 E2.60149
G1 X134.765 Y77.336 E2.61931
G1 X135.291 Y77.44 E2.63714
G1 X135.796 Y77.622 E2.65499
G1 X136.069 Y77.758 E2.66514
G1 X141.852 Y80.953 E2.88489
G1 X142.046 Y81.068 E2.89239
G1 X143.052 Y81.709 E2.93206
G1 X143.481 Y82.03 E2.94988
G1 X143.827 Y82.375 E2.96613
G1 X144.523 Y83.171 E3.0013
G1 X144.974 Y83.818 E3.02753
G1 X145.197 Y84.227 E3.04303
G1 X145.479 Y84.898 E3.06724
G1 X145.726 Y85.706 E3.09534
G1 X145.844 Y86.229 E3.11317
G1 X145.883 Y86.727 E3.12978
G1 X145.94 Y93.295 E3.34824
G1 X145.938 Y93.447 E3.3533
G1 X145.739 Y99.399 E3.55138
G1 X145.929 Y106.822 E3.79835
G1 X145.924 Y107.122 E3.80833
G1 X145.839 Y108.594 E3.85737
G1 X145.787 Y109.03 E3.87197
G1 X145.513 Y110.536 E3.92288
G1 X145.374 Y111.067 E3.94114
G1 X144.707 Y112.999 E4.00912
G1 X144.498 Y113.485 E4.02671
G1 X143.835 Y114.76 E4.07451
G1 X143.599 Y115.151 E4.0897
G1 X142.636 Y116.539 E4.14589
G1 X142.349 Y116.901 E4.16126
G1 X141.439 Y117.908 E4.2064
G1 X141.14 Y118.202 E4.22034
G1 X139.973 Y119.224 E4.27194
G1 X139.676 Y119.458 E4.28452
G1 X138.831 Y120.054 E4.31891
G1 X138.516 Y120.253 E4.3313
G1 X137.256 Y120.959 E4.37934
G1 X136.8 Y121.174 E4.39611
G1 X134.857 Y121.929 E4.46544
G1 X134.44 Y122.062 E4.48
G1 X133.472 Y122.308 E4.51321
G1 X133.173 Y122.371 E4.52338
G1 X132.159 Y122.539 E4.55756
G1 X131.802 Y122.58 E4.56952
G1 X130.233 Y122.681 E4.62181
G1 X129.84 Y122.684 E4.63488
G1 X128.708 Y122.633 E4.67257
G1 X128.485 Y122.616 E4.68001
G1 X122.554 Y121.978 E4.87841
G1 X117.121 Y121.706 E5.05934
G1 X111.66 Y121.74 E5.24098
G1 X106.193 Y122.085 E5.42317
G1 X101.45 Y122.62 E5.58193
G1 X101.191 Y122.64 E5.59057
G1 X100.067 Y122.685 E5.62798
G1 X99.696 Y122.681 E5.64032
G1 X98.301 Y122.593 E5.68681
G1 X98.093 Y122.574 E5.69376
G1 X95.289 Y122.232 E5.78771
G1 X89.831 Y121.804 E5.9698
G1 X84.389 Y121.684 E6.15085
G1 X78.944 Y121.873 E6.33206
G1 X70.335 Y122.673 E6.61963
G1 X69.84 Y122.684 E6.63609
G1 X68.708 Y122.633 E6.67378
G1 X68.273 Y122.587 E6.68833
G1 X66.369 Y122.267 E6.75255
G1 X65.799 Y122.123 E6.7721
G1 X63.779 Y121.431 E6.84312
G1 X63.31 Y121.232 E6.86006
G1 X62.083 Y120.606 E6.90588
G1 X61.716 Y120.39 E6.92004
G1 X60.381 Y119.496 E6.97348
G1 X60.076 Y119.268 E6.98615
G1 X59.311 Y118.629 E7.0193
G1 X59.036 Y118.373 E7.0318
G1 X58.014 Y117.32 E7.0806
G1 X57.734 Y116.996 E7.09485
G1 X56.796 Y115.766 E7.14629
G1 X56.535 Y115.373 E7.16199
G1 X55.789 Y114.071 E7.21189
G1 X55.594 Y113.676 E7.22655
G1 X54.993 Y112.246 E7.27814
G1 X54.837 Y111.793 E7.29407
G1 X54.445 Y110.347 E7.3439
G1 X54.356 Y109.913 E7.35864
G1 X54.141 Y108.405 E7.4093
G1 X54.105 Y107.923 E7.42538
G1 X54.093 Y106.265 E7.48052
G1 X54.097 Y106.064 E7.48721
G1 X54.211 Y103.735 E7.56477
G1 X54.246 Y98.24 E7.74753
G1 X54.064 Y93.713 E7.89823
G1 X54.061 Y93.563 E7.90322
G1 X54.069 Y87.505 E8.10471
G1 X54.088 Y87.137 E8.11696
G1 X54.194 Y86.12 E8.15097
G1 X54.29 Y85.592 E8.16882
G1 X54.446 Y85.122 E8.18529
G1 X54.792 Y84.282 E8.21551
G1 X55.033 Y83.803 E8.23334
G1 X55.3 Y83.416 E8.24898
G1 X55.902 Y82.657 E8.2812
G1 X56.266 Y82.263 E8.29904
G1 X56.535 Y82.035 E8.31077
G1 X57.162 Y81.555 E8.33703
G0 F3600 X57.405 Y81.873
G1 F1200 X57.778 Y81.627 E8.35189
G1 X63.928 Y78.159 E8.58672
G1 X64.387 Y77.946 E8.60355
G1 X64.873 Y77.808 E8.62036
G1 X65.523 Y77.746 E8.64207
G1 X71.362 Y77.789 E8.83629
G1 X74.22 Y77.709 E8.93138
G1 X74.534 Y77.716 E8.94183
G1 X81.468 Y78.206 E9.17303
G1 X86.946 Y78.252 E9.35523
G1 X92.42 Y77.99 E9.53751
G1 X95.428 Y77.717 E9.63797
G1 X95.81 Y77.705 E9.65068
G1 X98.599 Y77.786 E9.74348
G1 X104.305 Y77.71 E9.93328
G1 X104.616 Y77.721 E9.94363
G1 X108.715 Y78.066 E10.08044
G1 X114.211 Y78.268 E10.26336
G1 X119.662 Y78.161 E10.4447
G1 X125.501 Y77.714 E10.63947
G1 X125.793 Y77.705 E10.64919
G1 X131.383 Y77.788 E10.83514
G1 X134.241 Y77.71 E10.93023
G1 X134.746 Y77.736 E10.94705
G1 X135.24 Y77.842 E10.96385
G1 X135.875 Y78.108 E10.98675
G1 X141.658 Y81.303 E11.2065
G1 X141.831 Y81.405 E11.21318
G1 X142.837 Y82.046 E11.25285
G1 X143.24 Y82.351 E11.26966
G1 X143.526 Y82.639 E11.28316
G1 X144.222 Y83.435 E11.31833
G1 X144.623 Y84.009 E11.34162
G1 X144.846 Y84.418 E11.35711
G1 X145.096 Y85.015 E11.37864
G1 X145.343 Y85.823 E11.40674
G1 X145.452 Y86.316 E11.42353
G1 X145.483 Y86.73 E11.43734
G1 X145.54 Y93.298 E11.6558
G1 X145.538 Y93.433 E11.66029
G1 X145.338 Y99.395 E11.8587
G1 X145.529 Y106.832 E12.10614
G1 X145.525 Y107.098 E12.11499
G1 X145.44 Y108.57 E12.16403
G1 X145.393 Y108.959 E12.17706
G1 X145.119 Y110.465 E12.22797
G1 X144.996 Y110.936 E12.24416
G1 X144.329 Y112.868 E12.31214
G1 X144.143 Y113.3 E12.32779
G1 X143.48 Y114.575 E12.37558
G1 X143.27 Y114.923 E12.3891
G1 X142.307 Y116.311 E12.44529
G1 X142.052 Y116.633 E12.45895
G1 X141.142 Y117.64 E12.50409
G1 X140.876 Y117.901 E12.51649
G1 X139.709 Y118.923 E12.56808
G1 X139.445 Y119.131 E12.57926
G1 X138.6 Y119.727 E12.61365
G1 X138.32 Y119.904 E12.62467
G1 X137.06 Y120.61 E12.67271
G1 X136.655 Y120.801 E12.6876
G1 X134.712 Y121.556 E12.75694
G1 X134.341 Y121.674 E12.76988
G1 X133.373 Y121.92 E12.8031
G1 X133.108 Y121.976 E12.81211
G1 X132.094 Y122.144 E12.8463
G1 X131.777 Y122.18 E12.85691
G1 X130.208 Y122.281 E12.9092
G1 X129.858 Y122.285 E12.92084
G1 X128.726 Y122.234 E12.95853
G1 X128.528 Y122.219 E12.96514
G1 X122.582 Y121.579 E13.16404
G1 X117.121 Y121.306 E13.3459
G1 X111.649 Y121.34 E13.52791
G1 X106.167 Y121.686 E13.7106
G1 X101.406 Y122.223 E13.86996
G1 X101.175 Y122.24 E13.87766
G1 X100.051 Y122.285 E13.91508
G1 X99.722 Y122.282 E13.92602
G1 X98.327 Y122.194 E13.97251
G1 X98.141 Y122.177 E13.97872
G1 X95.322 Y121.834 E14.07317
G1 X89.853 Y121.404 E14.25563
G1 X84.384 Y121.284 E14.43758
G1 X78.91 Y121.474 E14.61975
G1 X70.298 Y122.274 E14.90742
G1 X69.858 Y122.285 E14.92206
G1 X68.726 Y122.234 E14.95975
G1 X68.34 Y122.193 E14.97266
G1 X66.436 Y121.873 E15.03688
G1 X65.929 Y121.744 E15.05428
G1 X63.909 Y121.052 E15.12529
G1 X63.492 Y120.875 E15.14036
G1 X62.265 Y120.249 E15.18618
G1 X61.938 Y120.058 E15.19877
G1 X60.603 Y119.164 E15.25221
G1 X60.333 Y118.961 E15.26345
G1 X59.568 Y118.322 E15.2966
G1 X59.323 Y118.095 E15.30771
G1 X58.301 Y117.042 E15.35651
G1 X58.052 Y116.753 E15.3692
G1 X57.114 Y115.523 E15.42065
G1 X56.882 Y115.174 E15.43459
G1 X56.136 Y113.872 E15.4845
G1 X55.963 Y113.521 E15.49751
G1 X55.362 Y112.091 E15.54911
G1 X55.223 Y111.688 E15.56328
G1 X54.831 Y110.242 E15.61311
G1 X54.752 Y109.857 E15.62619
G1 X54.537 Y108.349 E15.67685
G1 X54.505 Y107.92 E15.69116
G1 X54.493 Y106.262 E15.7463
G1 X54.497 Y106.083 E15.75226
G1 X54.61 Y103.757 E15.82971
G1 X54.647 Y98.227 E16.01365
G1 X54.464 Y93.697 E16.16444
G1 X54.461 Y93.564 E16.16886
G1 X54.469 Y87.506 E16.37035
G1 X54.486 Y87.178 E16.38128
G1 X54.592 Y86.161 E16.41529
G1 X54.684 Y85.664 E16.4321
G1 X54.816 Y85.274 E16.44579
G1 X55.162 Y84.434 E16.47601
G1 X55.391 Y83.983 E16.49283
G1 X55.614 Y83.664 E16.50578
G1 X56.216 Y82.905 E16.538
G1 X56.56 Y82.535 E16.5548
G1 X56.778 Y82.353 E16.56424
G1 X57.405 Y81.873 E16.59051
G1 F2400 E14.09051
;MESH:SplitRoundedFidgetWidget_V2.stl(1)
G0 F3600 X58.92 Y83.892
G0 X59.665 Y84.936
G0 X65.299 Y83.016
;TYPE:WALL-INNER
G1 F2400 E16.59051
G1 F1200 X65.502 Y83.011 E16.59726
G1 X65.774 Y83.003 E16.60631
G1 X65.775 Y83.002 E16.60636
G1 X65.979 Y82.998 E16.61315
G1 X65.979 Y83.202 E16.61751
G1 X65.979 Y83.203 E16.61754
G1 X65.984 Y87.796 E16.77031
G1 X65.29 Y87.799 E16.79339
G1 X65.29 Y94.361 E17.01164
G1 X65.333 Y94.954 E17.03142
G1 X65.471 Y95.571 E17.05245
G1 X65.694 Y96.164 E17.07352
G1 X66.004 Y96.717 E17.09461
G1 X66.387 Y97.22 E17.11563
G1 X66.84 Y97.666 E17.13678
G1 X67.353 Y98.041 E17.15791
G1 X67.913 Y98.341 E17.17904
G1 X68.51 Y98.559 E17.20018
G1 X69.133 Y98.693 E17.22138
G1 X69.733 Y98.734 E17.24138
G1 X70.267 Y98.734 E17.25914
G1 X70.867 Y98.693 E17.27914
G1 X71.49 Y98.559 E17.30034
G1 X72.087 Y98.341 E17.32148
G1 X72.647 Y98.041 E17.34261
G1 X73.16 Y97.666 E17.36374
G1 X73.613 Y97.22 E17.38488
G1 X73.996 Y96.717 E17.40591
G1 X74.306 Y96.164 E17.427
G1 X74.529 Y95.571 E17.44807
G1 X74.667 Y94.954 E17.4691
G1 X74.71 Y94.361 E17.48887
G1 X74.71 Y87.972 E17.70137
G1 X74.71 Y87.971 E17.70141
G1 X74.71 Y87.767 E17.70819
G1 X74.506 Y87.771 E17.71256
G1 X74.505 Y87.772 E17.7126
G1 X74.225 Y87.78 E17.72192
G1 X74.224 Y87.781 E17.72197
G1 X74.02 Y87.785 E17.72875
G1 X74.02 Y87.581 E17.73312
G1 X74.02 Y87.58 E17.73315
G1 X74.016 Y82.987 E17.88592
G1 X74.71 Y82.984 E17.909
G1 X74.71 Y82.537 E17.92387
G1 X74.71 Y82.536 E17.9239
G1 X74.71 Y82.195 E17.93524
G1 X75.008 Y82.362 E17.94171
G1 X77.812 Y83.943 E18.04877
G1 X80.029 Y85.205 E18.13362
G1 X80.084 Y85.252 E18.13602
G1 X80.222 Y85.319 E18.14113
G1 X80.482 Y85.508 E18.15182
G1 X80.748 Y85.765 E18.16412
G1 X80.961 Y86.047 E18.17587
G1 X81.129 Y86.353 E18.18748
G1 X81.245 Y86.657 E18.19831
G1 X81.319 Y86.993 E18.20975
G1 X81.34 Y87.327 E18.22088
G1 X81.34 Y93.999 E18.44279
G1 X81.31 Y94.388 E18.45577
G1 X81.225 Y94.746 E18.46801
G1 X81.092 Y95.076 E18.47984
G1 X80.9 Y95.399 E18.49234
G1 X80.33 Y96.077 E18.5218
G1 X80.027 Y96.515 E18.53951
G1 X79.77 Y96.987 E18.55739
G1 X79.563 Y97.485 E18.57532
G1 X79.413 Y98 E18.59317
G1 X79.318 Y98.527 E18.61098
G1 X79.279 Y99.061 E18.62878
G1 X79.296 Y99.601 E18.64675
G1 X79.373 Y100.132 E18.6646
G1 X79.504 Y100.649 E18.68234
G1 X79.691 Y101.157 E18.70034
G1 X80.356 Y102.473 E18.74938
G1 X80.693 Y103.301 E18.77912
G1 X80.972 Y104.193 E18.8102
G1 X81.177 Y105.116 E18.84165
G1 X81.291 Y105.963 E18.87008
G1 X81.338 Y106.922 E18.90201
G1 X81.305 Y107.844 E18.9327
G1 X81.198 Y108.748 E18.96297
G1 X81.006 Y109.672 E18.99436
G1 X80.746 Y110.546 E19.02469
G1 X80.415 Y111.388 E19.05478
G1 X80 Y112.231 E19.08603
G1 X79.528 Y113.017 E19.11653
G1 X78.979 Y113.774 E19.14763
G1 X78.374 Y114.481 E19.17858
G1 X77.712 Y115.135 E19.20953
G1 X77.002 Y115.727 E19.24028
G1 X76.228 Y116.273 E19.27178
G1 X75.421 Y116.747 E19.30291
G1 X74.587 Y117.149 E19.3337
G1 X73.708 Y117.487 E19.36502
G1 X72.8 Y117.753 E19.39649
G1 X71.874 Y117.945 E19.42795
G1 X70.949 Y118.056 E19.45893
G1 X70 Y118.096 E19.49053
G1 X69.051 Y118.056 E19.52212
G1 X68.126 Y117.945 E19.5531
G1 X67.2 Y117.753 E19.58456
G1 X66.292 Y117.487 E19.61603
G1 X65.413 Y117.149 E19.64735
G1 X64.579 Y116.747 E19.67814
G1 X63.772 Y116.273 E19.70927
G1 X62.998 Y115.727 E19.74078
G1 X62.288 Y115.135 E19.77152
G1 X61.626 Y114.481 E19.80247
G1 X61.021 Y113.774 E19.83342
G1 X60.472 Y113.017 E19.86452
G1 X60 Y112.231 E19.89502
G1 X59.585 Y111.388 E19.92627
G1 X59.254 Y110.546 E19.95636
G1 X58.994 Y109.672 E19.98669
G1 X58.802 Y108.748 E20.01808
G1 X58.695 Y107.844 E20.04836
G1 X58.662 Y106.922 E20.07904
G1 X58.709 Y105.963 E20.11098
G1 X58.823 Y105.116 E20.1394
G1 X59.028 Y104.193 E20.17085
G1 X59.303 Y103.311 E20.20158
G1 X59.651 Y102.461 E20.23213
G1 X60.311 Y101.156 E20.28076
G1 X60.496 Y100.648 E20.29875
G1 X60.628 Y100.132 E20.31646
G1 X60.703 Y99.597 E20.33443
G1 X60.72 Y99.062 E20.35223
G1 X60.682 Y98.528 E20.37004
G1 X60.587 Y98 E20.38788
G1 X60.436 Y97.485 E20.40573
G1 X60.231 Y96.99 E20.42355
G1 X59.973 Y96.515 E20.44153
G1 X59.67 Y96.077 E20.45924
G1 X59.1 Y95.399 E20.48871
G1 X58.908 Y95.076 E20.5012
G1 X58.773 Y94.744 E20.51312
G1 X58.691 Y94.392 E20.52514
G1 X58.661 Y93.999 E20.53825
G1 X58.664 Y87.237 E20.76316
G1 X58.681 Y86.993 E20.77129
G1 X58.754 Y86.657 E20.78273
G1 X58.88 Y86.33 E20.79439
G1 X59.047 Y86.029 E20.80583
G1 X59.258 Y85.758 E20.81726
G1 X59.504 Y85.519 E20.82867
G1 X59.872 Y85.257 E20.84369
G1 X64.997 Y82.365 E21.03942
G1 X65.291 Y82.199 E21.05064
G1 X65.293 Y82.536 E21.05702
G1 X65.294 Y82.537 E21.05707
G1 X65.298 Y82.813 E21.06625
G1 X65.299 Y83.016 E21.0706
G0 F3600 X65.285 Y106.996
G1 F1200 X65.358 Y107.805 E21.09762
G1 X65.573 Y108.59 E21.12469
G1 X65.922 Y109.325 E21.15175
G1 X66.395 Y109.987 E21.17881
G1 X66.977 Y110.558 E21.20593
G1 X67.65 Y111.02 E21.23308
G1 X68.394 Y111.36 E21.26029
G1 X69.186 Y111.569 E21.28753
G1 X70 Y111.637 E21.3147
G1 X70.814 Y111.569 E21.34187
G1 X71.606 Y111.36 E21.36911
G1 X72.35 Y111.02 E21.39632
G1 X73.023 Y110.558 E21.42347
G1 X73.605 Y109.987 E21.45059
G1 X74.078 Y109.325 E21.47765
G1 X74.427 Y108.59 E21.50471
G1 X74.642 Y107.805 E21.53178
G1 X74.715 Y106.996 E21.5588
G1 X74.642 Y106.187 E21.58581
G1 X74.427 Y105.401 E21.61292
G1 X74.078 Y104.666 E21.63998
G1 X73.605 Y104.005 E21.66701
G1 X73.023 Y103.433 E21.69415
G1 X72.35 Y102.972 E21.72128
G1 X71.607 Y102.632 E21.74846
G1 X70.816 Y102.422 E21.77568
G1 X70 Y102.354 E21.80292
G1 X69.184 Y102.422 E21.83015
G1 X68.393 Y102.632 E21.85737
G1 X67.65 Y102.972 E21.88455
G1 X66.977 Y103.433 E21.91168
G1 X66.395 Y104.005 E21.93882
G1 X65.922 Y104.666 E21.96585
G1 X65.573 Y105.401 E21.99292
G1 X65.358 Y106.187 E22.02002
G1 X65.285 Y106.996 E22.04704
G0 F3600 X65.687 Y106.996
G1 F1200 X65.753 Y107.734 E22.07168
G1 X65.949 Y108.45 E22.09637
G1 X66.268 Y109.121 E22.12108
G1 X66.7 Y109.726 E22.14581
G1 X67.232 Y110.248 E22.1706
G1 X67.848 Y110.671 E22.19545
G1 X68.529 Y110.982 E22.22035
G1 X69.254 Y111.173 E22.24529
G1 X70 Y111.236 E22.27019
G1 X70.746 Y111.173 E22.29509
G1 X71.471 Y110.982 E22.32002
G1 X72.152 Y110.671 E22.34492
G1 X72.768 Y110.248 E22.36978
G1 X73.3 Y109.726 E22.39457
G1 X73.732 Y109.121 E22.41929
G1 X74.051 Y108.45 E22.44401
G1 X74.247 Y107.734 E22.4687
G1 X74.313 Y106.996 E22.49334
G1 X74.247 Y106.258 E22.51798
G1 X74.051 Y105.541 E22.54271
G1 X73.732 Y104.87 E22.56742
G1 X73.3 Y104.266 E22.59212
G1 X72.768 Y103.743 E22.61693
G1 X72.152 Y103.321 E22.64176
G1 X71.472 Y103.01 E22.66663
G1 X70.747 Y102.818 E22.69158
G1 X70 Y102.755 E22.71651
G1 X69.253 Y102.818 E22.74145
G1 X68.528 Y103.01 E22.76639
G1 X67.848 Y103.321 E22.79126
G1 X67.232 Y103.743 E22.8161
G1 X66.7 Y104.266 E22.84091
G1 X66.268 Y104.87 E22.86561
G1 X65.949 Y105.541 E22.89032
G1 X65.753 Y106.258 E22.91504
G1 X65.687 Y106.996 E22.93968
G0 F3600 X65.587 Y106.996
G0 X65.626 Y82.676
G0 X65.695 Y82.605
G1 F1200 X65.898 Y82.6 E22.94644
G1 X66.174 Y82.592 E22.95562
G1 X66.175 Y82.591 E22.95567
G1 X66.379 Y82.587 E22.96246
G1 X66.379 Y82.791 E22.96682
G1 X66.379 Y82.792 E22.96685
G1 X66.384 Y88.194 E23.14653
G1 X65.69 Y88.197 E23.16961
G1 X65.69 Y94.346 E23.37412
G1 X65.73 Y94.896 E23.39247
G1 X65.855 Y95.456 E23.41155
G1 X66.058 Y95.995 E23.43071
G1 X66.339 Y96.497 E23.44984
G1 X66.688 Y96.955 E23.46899
G1 X67.1 Y97.36 E23.48821
G1 X67.567 Y97.702 E23.50746
G1 X68.077 Y97.975 E23.5267
G1 X68.621 Y98.174 E23.54597
G1 X69.189 Y98.296 E23.56529
G1 X69.747 Y98.334 E23.58389
G1 X70.253 Y98.334 E23.60072
G1 X70.811 Y98.296 E23.61932
G1 X71.379 Y98.174 E23.63865
G1 X71.923 Y97.975 E23.65791
G1 X72.433 Y97.702 E23.67715
G1 X72.9 Y97.36 E23.6964
G1 X73.312 Y96.955 E23.71562
G1 X73.661 Y96.497 E23.73477
G1 X73.942 Y95.995 E23.75391
G1 X74.145 Y95.456 E23.77306
G1 X74.27 Y94.896 E23.79215
G1 X74.31 Y94.346 E23.81049
