;FLAVOR:Marlin
;TIME:758
;Filament used: 0.525196m
;Layer height: 0.16
;Generated with Cura_SteamEngine 3.6.0
M140 S60
M105
M190 S60
M104 S200
M105
M109 S200
M82 ;absolute extrusion mode
G21 ;metric values
G90 ;absolute positioning
M82 ;set extruder to absolute mode
M107 ;start with the fan off
G28 X0 Y0 ;move X/Y to min endstops
G28 Z0 ;move Z to min endstops
G1 Z15.0 F120 ;move the platform down 15mm
G92 E0 ;zero the extruded length
G1 F200 E6 ;extrude 6 mm of feed stock
G92 E0 ;zero the extruded length again
M117 Printing...
G1 F120
G92 E0
G1 F2400 E-2.5
;LAYER_COUNT:21
;LAYER:0
M107
G0 F3600 X86.266 Y82.263 Z0.2
;TYPE:SKIRT
G1 F2400 E0
G1 F1200 X86.535 Y82.035 E0.01173
G1 X87.162 Y81.555 E0.03799
G1 X87.582 Y81.278 E0.05473
G1 X93.732 Y77.81 E0.28956
G1 X94.217 Y77.582 E0.30738
G1 X94.731 Y77.429 E0.32522
G1 X95.526 Y77.346 E0.3518
G1 X101.385 Y77.389 E0.54668
G1 X104.319 Y77.327 E0.64429
G1 X104.855 Y77.355 E0.66214
G1 X105.38 Y77.463 E0.67997
G1 X105.884 Y77.648 E0.69782
G1 X106.151 Y77.783 E0.70777
G1 X112.482 Y81.321 E0.94899
G1 X113.045 Y81.71 E0.97175
G1 X113.805 Y82.35 E1.0048
G1 X114.188 Y82.725 E1.02263
G1 X114.525 Y83.174 E1.0413
G1 X115.101 Y84.081 E1.07704
G1 X115.354 Y84.554 E1.09488
G1 X115.515 Y84.992 E1.1104
G1 X115.738 Y85.748 E1.13661
G1 X115.851 Y86.273 E1.15448
G1 X115.885 Y86.745 E1.17022
G1 X115.93 Y94.009 E1.41182
G1 X115.926 Y94.207 E1.41841
G1 X115.805 Y96.669 E1.50039
G1 X115.749 Y102.175 E1.68353
G1 X115.927 Y106.8 E1.83748
G1 X115.919 Y107.224 E1.85158
G1 X115.761 Y109.213 E1.91794
G1 X115.678 Y109.745 E1.93585
G1 X115.335 Y111.217 E1.98612
G1 X115.233 Y111.573 E1.99844
G1 X114.916 Y112.493 E2.0308
G1 X114.777 Y112.836 E2.04311
G1 X114.133 Y114.223 E2.09398
G1 X113.906 Y114.639 E2.10974
G1 X113.081 Y115.936 E2.16086
G1 X112.827 Y116.287 E2.17527
G1 X111.884 Y117.437 E2.22474
G1 X111.63 Y117.715 E2.23726
G1 X110.904 Y118.432 E2.2712
G1 X110.629 Y118.677 E2.28345
G1 X109.505 Y119.58 E2.3314
G1 X109.149 Y119.832 E2.34591
G1 X107.79 Y120.676 E2.39912
G1 X107.391 Y120.891 E2.41419
G1 X106.049 Y121.506 E2.46329
G1 X105.578 Y121.683 E2.48003
G1 X103.614 Y122.269 E2.5482
G1 X103.173 Y122.371 E2.56325
G1 X102.159 Y122.539 E2.59744
G1 X101.802 Y122.58 E2.60939
G1 X100.233 Y122.681 E2.66168
G1 X99.84 Y122.684 E2.67475
G1 X98.708 Y122.633 E2.71244
G1 X98.273 Y122.587 E2.72699
G1 X96.369 Y122.267 E2.79121
G1 X95.799 Y122.123 E2.81076
G1 X93.779 Y121.431 E2.88178
G1 X93.31 Y121.232 E2.89872
G1 X92.083 Y120.606 E2.94454
G1 X91.716 Y120.39 E2.9587
G1 X90.381 Y119.496 E3.01214
G1 X90.076 Y119.268 E3.02481
G1 X89.311 Y118.629 E3.05796
G1 X89.036 Y118.373 E3.07046
G1 X88.014 Y117.32 E3.11926
G1 X87.734 Y116.996 E3.13351
G1 X86.796 Y115.766 E3.18495
G1 X86.535 Y115.373 E3.20065
G1 X85.789 Y114.071 E3.25055
G1 X85.594 Y113.676 E3.26521
G1 X84.993 Y112.246 E3.3168
G1 X84.837 Y111.793 E3.33273
G1 X84.445 Y110.347 E3.38256
G1 X84.356 Y109.913 E3.3973
G1 X84.141 Y108.405 E3.44796
G1 X84.105 Y107.923 E3.46404
G1 X84.093 Y106.265 E3.51918
G1 X84.097 Y106.064 E3.52587
G1 X84.211 Y103.735 E3.60343
G1 X84.246 Y98.24 E3.78619
G1 X84.064 Y93.713 E3.93689
G1 X84.061 Y93.563 E3.94188
G1 X84.069 Y87.505 E4.14337
G1 X84.088 Y87.137 E4.15562
G1 X84.194 Y86.12 E4.18963
G1 X84.29 Y85.592 E4.20748
G1 X84.446 Y85.122 E4.22395
G1 X84.792 Y84.282 E4.25417
G1 X85.033 Y83.803 E4.272
G1 X85.3 Y83.416 E4.28764
G1 X85.902 Y82.657 E4.31986
G1 X86.266 Y82.263 E4.3377
G0 F3600 X86.56 Y82.535
G1 F1200 X86.778 Y82.353 E4.34715
G1 X87.405 Y81.873 E4.37341
G1 X87.778 Y81.627 E4.38827
G1 X93.928 Y78.159 E4.6231
G1 X94.387 Y77.946 E4.63993
G1 X94.873 Y77.808 E4.65673
G1 X95.523 Y77.746 E4.67845
G1 X101.39 Y77.789 E4.87359
G1 X104.328 Y77.727 E4.97133
G1 X104.832 Y77.756 E4.98812
G1 X105.326 Y77.864 E5.00494
G1 X105.956 Y78.133 E5.02773
G1 X112.287 Y81.671 E5.26895
G1 X112.787 Y82.016 E5.28915
G1 X113.547 Y82.656 E5.3222
G1 X113.907 Y83.011 E5.33901
G1 X114.187 Y83.389 E5.35466
G1 X114.763 Y84.296 E5.3904
G1 X115 Y84.742 E5.40719
G1 X115.131 Y85.106 E5.42006
G1 X115.354 Y85.862 E5.44628
G1 X115.459 Y86.356 E5.46307
G1 X115.485 Y86.747 E5.47611
G1 X115.53 Y94.011 E5.71771
G1 X115.526 Y94.188 E5.7236
G1 X115.405 Y96.646 E5.80546
G1 X115.349 Y102.167 E5.98909
G1 X115.528 Y106.816 E6.14384
G1 X115.52 Y107.192 E6.15634
G1 X115.362 Y109.181 E6.22271
G1 X115.289 Y109.654 E6.23862
G1 X114.946 Y111.126 E6.2889
G1 X114.854 Y111.442 E6.29984
G1 X114.537 Y112.362 E6.33221
G1 X114.414 Y112.668 E6.34318
G1 X113.77 Y114.055 E6.39404
G1 X113.568 Y114.424 E6.40803
G1 X112.743 Y115.721 E6.45916
G1 X112.517 Y116.033 E6.47197
G1 X111.574 Y117.183 E6.52143
G1 X111.349 Y117.431 E6.53257
G1 X110.623 Y118.148 E6.56651
G1 X110.378 Y118.366 E6.57742
G1 X109.254 Y119.269 E6.62537
G1 X108.938 Y119.492 E6.63823
G1 X107.579 Y120.336 E6.69144
G1 X107.224 Y120.527 E6.70485
G1 X105.882 Y121.142 E6.75395
G1 X105.464 Y121.299 E6.7688
G1 X103.5 Y121.885 E6.83697
G1 X103.108 Y121.976 E6.85035
G1 X102.094 Y122.144 E6.88454
G1 X101.777 Y122.18 E6.89515
G1 X100.208 Y122.281 E6.94744
G1 X99.858 Y122.285 E6.95909
G1 X98.726 Y122.234 E6.99677
G1 X98.34 Y122.193 E7.00968
G1 X96.436 Y121.873 E7.0739
G1 X95.929 Y121.744 E7.0913
G1 X93.909 Y121.052 E7.16232
G1 X93.492 Y120.875 E7.17739
G1 X92.265 Y120.249 E7.2232
G1 X91.938 Y120.058 E7.2358
G1 X90.603 Y119.164 E7.28923
G1 X90.333 Y118.961 E7.30047
G1 X89.568 Y118.322 E7.33362
G1 X89.323 Y118.095 E7.34473
G1 X88.301 Y117.042 E7.39354
G1 X88.052 Y116.753 E7.40623
G1 X87.114 Y115.523 E7.45767
G1 X86.882 Y115.174 E7.47161
G1 X86.136 Y113.872 E7.52152
G1 X85.963 Y113.521 E7.53454
G1 X85.362 Y112.091 E7.58613
G1 X85.223 Y111.688 E7.60031
G1 X84.831 Y110.242 E7.65014
G1 X84.752 Y109.857 E7.66321
G1 X84.537 Y108.349 E7.71387
G1 X84.505 Y107.92 E7.72818
G1 X84.493 Y106.262 E7.78333
G1 X84.497 Y106.083 E7.78928
G1 X84.61 Y103.757 E7.86674
G1 X84.647 Y98.227 E8.05067
G1 X84.464 Y93.697 E8.20146
G1 X84.461 Y93.564 E8.20589
G1 X84.469 Y87.506 E8.40738
G1 X84.486 Y87.178 E8.4183
G1 X84.592 Y86.161 E8.45231
G1 X84.684 Y85.664 E8.46912
G1 X84.816 Y85.274 E8.48281
G1 X85.162 Y84.434 E8.51303
G1 X85.391 Y83.983 E8.52985
G1 X85.614 Y83.664 E8.5428
G1 X86.216 Y82.905 E8.57502
G1 X86.56 Y82.535 E8.59182
G1 F2400 E6.09182
;MESH:SplitRoundedFidgetWidget_V2.stl
G0 F3600 X88.92 Y83.892
G0 X89.665 Y84.936
G0 X95.299 Y83.016
;TYPE:WALL-INNER
G1 F2400 E8.59182
G1 F1200 X95.502 Y83.011 E8.59858
G1 X95.774 Y83.003 E8.60763
G1 X95.775 Y83.002 E8.60767
G1 X95.979 Y82.998 E8.61446
G1 X95.979 Y83.202 E8.61883
G1 X95.979 Y83.203 E8.61886
G1 X95.984 Y87.796 E8.77162
G1 X95.29 Y87.799 E8.79471
G1 X95.29 Y94.361 E9.01296
G1 X95.333 Y94.954 E9.03273
G1 X95.471 Y95.571 E9.05376
G1 X95.694 Y96.164 E9.07483
G1 X96.004 Y96.717 E9.09592
G1 X96.387 Y97.22 E9.11695
G1 X96.84 Y97.666 E9.13809
G1 X97.353 Y98.041 E9.15923
G1 X97.913 Y98.341 E9.18036
G1 X98.51 Y98.559 E9.2015
G1 X99.133 Y98.693 E9.22269
G1 X99.733 Y98.734 E9.24269
G1 X100.267 Y98.734 E9.26045
G1 X100.867 Y98.693 E9.28046
G1 X101.49 Y98.559 E9.30165
G1 X102.087 Y98.341 E9.32279
G1 X102.647 Y98.041 E9.34392
G1 X103.16 Y97.666 E9.36506
G1 X103.613 Y97.22 E9.3862
G1 X103.996 Y96.717 E9.40723
G1 X104.306 Y96.164 E9.42831
G1 X104.529 Y95.571 E9.44938
G1 X104.667 Y94.954 E9.47041
G1 X104.71 Y94.361 E9.49019
G1 X104.71 Y87.972 E9.70269
G1 X104.71 Y87.971 E9.70272
G1 X104.71 Y87.767 E9.7095
G1 X104.506 Y87.771 E9.71387
G1 X104.505 Y87.772 E9.71392
G1 X104.225 Y87.78 E9.72323
G1 X104.224 Y87.781 E9.72328
G1 X104.02 Y87.785 E9.73007
G1 X104.02 Y87.581 E9.73443
G1 X104.02 Y87.58 E9.73447
G1 X104.016 Y82.987 E9.88723
G1 X104.71 Y82.984 E9.91031
G1 X104.71 Y82.537 E9.92518
G1 X104.71 Y82.536 E9.92521
G1 X104.71 Y82.195 E9.93656
G1 X105.008 Y82.362 E9.94302
G1 X107.812 Y83.943 E10.05008
G1 X110.029 Y85.205 E10.13493
G1 X110.084 Y85.252 E10.13734
G1 X110.222 Y85.319 E10.14244
G1 X110.482 Y85.508 E10.15313
G1 X110.748 Y85.765 E10.16543
G1 X110.961 Y86.047 E10.17719
G1 X111.129 Y86.353 E10.1888
G1 X111.245 Y86.657 E10.19962
G1 X111.319 Y86.993 E10.21106
G1 X111.34 Y87.327 E10.22219
G1 X111.34 Y93.999 E10.44411
G1 X111.31 Y94.388 E10.45708
G1 X111.225 Y94.746 E10.46932
G1 X111.092 Y95.076 E10.48115
G1 X110.9 Y95.399 E10.49365
G1 X110.33 Y96.077 E10.52311
G1 X110.027 Y96.515 E10.54083
G1 X109.77 Y96.987 E10.5587
G1 X109.563 Y97.485 E10.57664
G1 X109.413 Y98 E10.59448
G1 X109.318 Y98.527 E10.61229
G1 X109.279 Y99.061 E10.6301
G1 X109.296 Y99.601 E10.64807
G1 X109.373 Y100.132 E10.66591
G1 X109.504 Y100.649 E10.68365
G1 X109.691 Y101.157 E10.70166
G1 X110.356 Y102.473 E10.7507
G1 X110.693 Y103.301 E10.78043
G1 X110.972 Y104.193 E10.81152
G1 X111.177 Y105.116 E10.84296
G1 X111.291 Y105.963 E10.87139
G1 X111.338 Y106.922 E10.90332
G1 X111.305 Y107.844 E10.93401
G1 X111.198 Y108.748 E10.96429
G1 X111.006 Y109.672 E10.99568
G1 X110.746 Y110.546 E11.026
G1 X110.415 Y111.388 E11.0561
G1 X110 Y112.231 E11.08735
G1 X109.528 Y113.017 E11.11784
G1 X108.979 Y113.774 E11.14894
G1 X108.374 Y114.481 E11.17989
G1 X107.712 Y115.135 E11.21084
G1 X107.002 Y115.727 E11.24159
G1 X106.228 Y116.273 E11.27309
G1 X105.421 Y116.747 E11.30422
G1 X104.587 Y117.149 E11.33502
G1 X103.708 Y117.487 E11.36634
G1 X102.8 Y117.753 E11.39781
G1 X101.874 Y117.945 E11.42926
G1 X100.949 Y118.056 E11.46025
G1 X100 Y118.096 E11.49184
G1 X99.051 Y118.056 E11.52343
G1 X98.126 Y117.945 E11.55442
G1 X97.2 Y117.753 E11.58587
G1 X96.292 Y117.487 E11.61734
G1 X95.413 Y117.149 E11.64866
G1 X94.579 Y116.747 E11.67946
G1 X93.772 Y116.273 E11.71059
G1 X92.998 Y115.727 E11.74209
G1 X92.288 Y115.135 E11.77284
G1 X91.626 Y114.481 E11.80379
G1 X91.021 Y113.774 E11.83474
G1 X90.472 Y113.017 E11.86584
G1 X90 Y112.231 E11.89633
G1 X89.585 Y111.388 E11.92758
G1 X89.254 Y110.546 E11.95768
G1 X88.994 Y109.672 E11.988
G1 X88.802 Y108.748 E12.01939
G1 X88.695 Y107.844 E12.04967
G1 X88.662 Y106.922 E12.08036
G1 X88.709 Y105.963 E12.11229
G1 X88.823 Y105.116 E12.14072
G1 X89.028 Y104.193 E12.17216
G1 X89.303 Y103.311 E12.20289
G1 X89.651 Y102.461 E12.23344
G1 X90.311 Y101.156 E12.28208
G1 X90.496 Y100.648 E12.30006
G1 X90.628 Y100.132 E12.31778
G1 X90.703 Y99.597 E12.33574
G1 X90.72 Y99.062 E12.35355
G1 X90.682 Y98.528 E12.37135
G1 X90.587 Y98 E12.3892
G1 X90.436 Y97.485 E12.40705
G1 X90.231 Y96.99 E12.42487
G1 X89.973 Y96.515 E12.44284
G1 X89.67 Y96.077 E12.46056
G1 X89.1 Y95.399 E12.49002
G1 X88.908 Y95.076 E12.50252
G1 X88.773 Y94.744 E12.51444
G1 X88.691 Y94.392 E12.52646
G1 X88.661 Y93.999 E12.53957
G1 X88.664 Y87.237 E12.76447
G1 X88.681 Y86.993 E12.77261
G1 X88.754 Y86.657 E12.78404
G1 X88.88 Y86.33 E12.7957
G1 X89.047 Y86.029 E12.80715
G1 X89.258 Y85.758 E12.81857
G1 X89.504 Y85.519 E12.82998
G1 X89.872 Y85.257 E12.845
G1 X94.997 Y82.365 E13.04073
G1 X95.291 Y82.199 E13.05196
G1 X95.293 Y82.536 E13.05834
G1 X95.294 Y82.537 E13.05838
G1 X95.298 Y82.813 E13.06756
G1 X95.299 Y83.016 E13.07191
G0 F3600 X95.285 Y106.996
G1 F1200 X95.358 Y107.805 E13.09893
G1 X95.573 Y108.59 E13.126
G1 X95.922 Y109.325 E13.15306
G1 X96.395 Y109.987 E13.18012
G1 X96.977 Y110.558 E13.20724
G1 X97.65 Y111.02 E13.23439
G1 X98.394 Y111.36 E13.2616
G1 X99.186 Y111.569 E13.28884
G1 X100 Y111.637 E13.31601
G1 X100.814 Y111.569 E13.34318
G1 X101.606 Y111.36 E13.37042
G1 X102.35 Y111.02 E13.39763
G1 X103.023 Y110.558 E13.42478
G1 X103.605 Y109.987 E13.4519
G1 X104.078 Y109.325 E13.47896
G1 X104.427 Y108.59 E13.50602
G1 X104.642 Y107.805 E13.53309
G1 X104.715 Y106.996 E13.56011
G1 X104.642 Y106.187 E13.58713
G1 X104.427 Y105.401 E13.61423
G1 X104.078 Y104.666 E13.64129
G1 X103.605 Y104.005 E13.66833
G1 X103.023 Y103.433 E13.69547
G1 X102.35 Y102.972 E13.7226
G1 X101.607 Y102.632 E13.74978
G1 X100.816 Y102.422 E13.777
G1 X100 Y102.354 E13.80423
G1 X99.184 Y102.422 E13.83146
G1 X98.393 Y102.632 E13.85869
G1 X97.65 Y102.972 E13.88586
G1 X96.977 Y103.433 E13.91299
G1 X96.395 Y104.005 E13.94014
G1 X95.922 Y104.666 E13.96717
G1 X95.573 Y105.401 E13.99423
G1 X95.358 Y106.187 E14.02133
G1 X95.285 Y106.996 E14.04835
G0 F3600 X95.687 Y106.996
G1 F1200 X95.753 Y107.734 E14.07299
G1 X95.949 Y108.45 E14.09769
G1 X96.268 Y109.121 E14.1224
G1 X96.7 Y109.726 E14.14712
G1 X97.232 Y110.248 E14.17191
G1 X97.848 Y110.671 E14.19677
G1 X98.529 Y110.982 E14.22167
G1 X99.254 Y111.173 E14.2466
G1 X100 Y111.236 E14.2715
G1 X100.746 Y111.173 E14.2964
G1 X101.471 Y110.982 E14.32134
G1 X102.152 Y110.671 E14.34624
G1 X102.768 Y110.248 E14.37109
G1 X103.3 Y109.726 E14.39588
G1 X103.732 Y109.121 E14.42061
G1 X104.051 Y108.45 E14.44532
G1 X104.247 Y107.734 E14.47001
G1 X104.313 Y106.996 E14.49465
G1 X104.247 Y106.258 E14.5193
G1 X104.051 Y105.541 E14.54402
G1 X103.732 Y104.87 E14.56873
G1 X103.3 Y104.266 E14.59343
G1 X102.768 Y103.743 E14.61824
G1 X102.152 Y103.321 E14.64308
G1 X101.472 Y103.01 E14.66795
G1 X100.747 Y102.818 E14.69289
G1 X100 Y102.755 E14.71783
G1 X99.253 Y102.818 E14.74276
G1 X98.528 Y103.01 E14.7677
G1 X97.848 Y103.321 E14.79257
G1 X97.232 Y103.743 E14.81741
G1 X96.7 Y104.266 E14.84222
G1 X96.268 Y104.87 E14.86692
G1 X95.949 Y105.541 E14.89163
G1 X95.753 Y106.258 E14.91636
G1 X95.687 Y106.996 E14.941
G0 F3600 X95.587 Y106.996
G0 X95.626 Y82.676
G0 X95.695 Y82.605
G1 F1200 X95.898 Y82.6 E14.94775
G1 X96.174 Y82.592 E14.95694
G1 X96.175 Y82.591 E14.95698
G1 X96.379 Y82.587 E14.96377
G1 X96.379 Y82.791 E14.96814
G1 X96.379 Y82.792 E14.96817
G1 X96.384 Y88.194 E15.14784
G1 X95.69 Y88.197 E15.17092
G1 X95.69 Y94.346 E15.37544
G1 X95.73 Y94.896 E15.39378
G1 X95.855 Y95.456 E15.41286
G1 X96.058 Y95.995 E15.43202
G1 X96.339 Y96.497 E15.45116
G1 X96.688 Y96.955 E15.47031
G1 X97.1 Y97.36 E15.48952
G1 X97.567 Y97.702 E15.50877
G1 X98.077 Y97.975 E15.52801
G1 X98.621 Y98.174 E15.54728
G1 X99.189 Y98.296 E15.5666
G1 X99.747 Y98.334 E15.58521
G1 X100.253 Y98.334 E15.60204
G1 X100.811 Y98.296 E15.62064
G1 X101.379 Y98.174 E15.63996
G1 X101.923 Y97.975 E15.65923
G1 X102.433 Y97.702 E15.67847
G1 X102.9 Y97.36 E15.69772
G1 X103.312 Y96.955 E15.71693
G1 X103.661 Y96.497 E15.73609
G1 X103.942 Y95.995 E15.75522
G1 X104.145 Y95.456 E15.77438
G1 X104.27 Y94.896 E15.79346
G1 X104.31 Y94.346 E15.8118
G1 X104.31 Y88.383 E16.01013
G1 X104.31 Y88.382 E16.01017
G1 X104.31 Y88.178 E16.01695
G1 X104.106 Y88.182 E16.02132
G1 X104.105 Y88.183 E16.02136
G1 X103.825 Y88.191 E16.03068
G1 X103.824 Y88.192 E16.03073
G1 X103.62 Y88.196 E16.03751
G1 X103.62 Y87.992 E16.04188
G1 X103.62 Y87.991 E16.04191
G1 X103.616 Y82.589 E16.22158
G1 X104.31 Y82.586 E16.24467
G1 X104.31 Y81.853 E16.26905
G1 X104.31 Y81.851 E16.26911
G1 X104.31 Y81.511 E16.28042
G1 X104.607 Y81.678 E16.28686
G1 X108.01 Y83.596 E16.41679
G1 X110.258 Y84.875 E16.50281
G1 X110.304 Y84.914 E16.50482
G1 X110.425 Y84.973 E16.50929
G1 X110.743 Y85.203 E16.52235
G1 X111.045 Y85.495 E16.53632
G1 X111.263 Y85.777 E16.54817
G1 X111.309 Y85.848 E16.55099
G1 X111.492 Y86.181 E16.56362
G1 X111.63 Y86.544 E16.57654
G1 X111.716 Y86.934 E16.58982
G1 X111.74 Y87.318 E16.60262
G1 X111.74 Y94.016 E16.8254
G1 X111.707 Y94.449 E16.83984
G1 X111.607 Y94.869 E16.8542
G1 X111.451 Y95.256 E16.86808
G1 X111.23 Y95.627 E16.88244
G1 X110.648 Y96.32 E16.91254
G1 X110.368 Y96.725 E16.92892
G1 X110.131 Y97.16 E16.94539
G1 X109.941 Y97.618 E16.96189
G1 X109.803 Y98.092 E16.97831
G1 X109.715 Y98.577 E16.9947
G1 X109.679 Y99.069 E17.01111
G1 X109.695 Y99.566 E17.02765
G1 X109.766 Y100.054 E17.04405
G1 X109.887 Y100.531 E17.06042
G1 X110.058 Y100.997 E17.07693
G1 X110.717 Y102.3 E17.12549
G1 X111.072 Y103.171 E17.15677
G1 X111.361 Y104.095 E17.18897
G1 X111.568 Y105.029 E17.22079
G1 X111.691 Y105.943 E17.25147
G1 X111.739 Y106.922 E17.28407
G1 X111.705 Y107.869 E17.31559
G1 X111.592 Y108.818 E17.34737
G1 X111.396 Y109.762 E17.37944
G1 X111.124 Y110.676 E17.41116
G1 X110.778 Y111.557 E17.44264
G1 X110.353 Y112.421 E17.47466
G1 X109.861 Y113.239 E17.50641
G1 X109.295 Y114.02 E17.53849
G1 X108.665 Y114.756 E17.57072
G1 X107.986 Y115.427 E17.60247
G1 X107.24 Y116.049 E17.63477
G1 X106.451 Y116.606 E17.66689
G1 X105.609 Y117.1 E17.69936
G1 X104.746 Y117.516 E17.73123
G1 X103.831 Y117.868 E17.76383
G1 X102.897 Y118.142 E17.79621
