;FLAVOR:Marlin
;TIME:1608
;Filament used: 0.968816m
;Layer height: 0.16
;Generated with Cura_SteamEngine 3.6.0
M140 S60
M105
M190 S60
M104 S200
M105
M109 S200
M82 ;absolute extrusion mode
G21 ;metric values
G90 ;absolute positioning
M82 ;set extruder to absolute mode
M107 ;start with the fan off
G28 X0 Y0 ;move X/Y to min endstops
G28 Z0 ;move Z to min endstops
G1 Z15.0 F120 ;move the platform down 15mm
G92 E0 ;zero the extruded length
G1 F200 E6 ;extrude 6 mm of feed stock
G92 E0 ;zero the extruded length again
M117 Printing...
G1 F120
G92 E0
G1 F2400 E-2.5
;LAYER_COUNT:50
;LAYER:0
M107
G0 F3600 X65.317 Y84.59 Z0.2
;TYPE:SKIRT
G1 F2400 E0
G1 F1200 X66.001 Y84.113 E0.02774
G1 X66.509 Y83.817 E0.04729
G1 X66.993 Y83.586 E0.06513
G1 X67.441 Y83.408 E0.08116
G1 X70.662 Y82.371 E0.19371
G1 X75.792 Y80.462 E0.37576
G1 X80.801 Y78.268 E0.55764
G1 X85.323 Y76.051 E0.72515
G1 X85.598 Y75.931 E0.73513
G1 X86.44 Y75.602 E0.7652
G1 X86.792 Y75.485 E0.77753
G1 X88.622 Y74.98 E0.84067
G1 X89.097 Y74.883 E0.8568
G1 X90.979 Y74.628 E0.91997
G1 X91.445 Y74.595 E0.9355
G1 X93.315 Y74.586 E0.9977
G1 X93.755 Y74.611 E1.01236
G1 X95.201 Y74.782 E1.06079
G1 X95.599 Y74.852 E1.07423
G1 X97.367 Y75.266 E1.13462
G1 X97.827 Y75.407 E1.15063
G1 X99.594 Y76.08 E1.21352
G1 X100.035 Y76.282 E1.22965
G1 X101.675 Y77.175 E1.29176
G1 X102.09 Y77.44 E1.30813
G1 X103.556 Y78.521 E1.36872
G1 X103.893 Y78.803 E1.38333
G1 X123.521 Y97.377 E2.28213
G1 X123.882 Y97.774 E2.29997
G1 X124.18 Y98.22 E2.31781
G1 X124.409 Y98.705 E2.33565
G1 X124.563 Y99.218 E2.35347
G1 X124.639 Y99.749 E2.37131
G1 X124.635 Y100.286 E2.38917
G1 X124.552 Y100.815 E2.40698
G1 X124.39 Y101.327 E2.42484
G1 X124.155 Y101.809 E2.44268
G1 X123.851 Y102.25 E2.46049
G1 X123.525 Y102.603 E2.47647
G1 X104.612 Y120.552 E3.34371
G1 X104.505 Y120.65 E3.34853
G1 X103.495 Y121.534 E3.39318
G1 X103.176 Y121.783 E3.40664
G1 X101.68 Y122.821 E3.4672
G1 X101.252 Y123.076 E3.48377
G1 X99.507 Y123.958 E3.5488
G1 X99.058 Y124.148 E3.56501
G1 X97.338 Y124.742 E3.62554
G1 X96.881 Y124.867 E3.6413
G1 X95.058 Y125.238 E3.70317
G1 X94.582 Y125.302 E3.71915
G1 X92.682 Y125.43 E3.78248
G1 X92.2 Y125.43 E3.79851
G1 X90.285 Y125.302 E3.86235
G1 X89.816 Y125.239 E3.87809
G1 X88.039 Y124.882 E3.93837
G1 X87.58 Y124.758 E3.95419
G1 X85.801 Y124.148 E4.01674
G1 X85.387 Y123.977 E4.03164
G1 X81.06 Y121.859 E4.19187
G1 X76.058 Y119.654 E4.37368
G1 X70.893 Y117.717 E4.55716
G1 X67.076 Y116.434 E4.69109
G1 X66.582 Y116.226 E4.70892
G1 X66.297 Y116.064 E4.71982
G1 X65.643 Y115.65 E4.74556
G1 X65.067 Y115.196 E4.76996
G1 X64.404 Y114.555 E4.80063
G1 X64.047 Y114.155 E4.81846
G1 X63.777 Y113.747 E4.83473
G1 X63.119 Y112.59 E4.879
G1 X62.889 Y112.105 E4.89686
G1 X62.726 Y111.553 E4.916
G1 X62.511 Y110.534 E4.95064
G1 X62.439 Y110.003 E4.96846
G1 X62.44 Y109.573 E4.98276
G1 X62.688 Y105.481 E5.11911
G1 X62.841 Y99.962 E5.30275
G1 X62.683 Y94.474 E5.48535
G1 X62.421 Y90.766 E5.60899
G1 X62.431 Y90.14 E5.62981
G1 X62.511 Y89.37 E5.65556
G1 X62.606 Y88.842 E5.67341
G1 X62.708 Y88.513 E5.68486
G1 X63.1 Y87.434 E5.72304
G1 X63.321 Y86.945 E5.74089
G1 X63.524 Y86.614 E5.75381
G1 X64.026 Y85.889 E5.78314
G1 X64.424 Y85.409 E5.80388
G1 X64.814 Y85.014 E5.82234
G1 X65.317 Y84.59 E5.84422
G0 F3600 X65.546 Y84.918
G1 F1200 X66.23 Y84.441 E5.87195
G1 X66.682 Y84.178 E5.88935
G1 X67.166 Y83.947 E5.90719
G1 X67.563 Y83.789 E5.9214
G1 X70.797 Y82.748 E6.0344
G1 X75.943 Y80.833 E6.21702
G1 X80.987 Y78.623 E6.40018
G1 X85.5 Y76.411 E6.56734
G1 X85.743 Y76.303 E6.57619
G1 X86.585 Y75.974 E6.60626
G1 X86.899 Y75.87 E6.61726
G1 X88.729 Y75.365 E6.6804
G1 X89.15 Y75.279 E6.69469
G1 X91.032 Y75.024 E6.75786
G1 X91.447 Y74.995 E6.77169
G1 X93.317 Y74.986 E6.83389
G1 X93.708 Y75.008 E6.84692
G1 X95.154 Y75.179 E6.89535
G1 X95.508 Y75.241 E6.9073
G1 X97.276 Y75.655 E6.96769
G1 X97.685 Y75.781 E6.98193
G1 X99.452 Y76.454 E7.04482
G1 X99.843 Y76.634 E7.05913
G1 X101.483 Y77.527 E7.12124
G1 X101.852 Y77.761 E7.13577
G1 X103.318 Y78.842 E7.19636
G1 X103.618 Y79.094 E7.20939
G1 X123.246 Y97.668 E8.10818
G1 X123.585 Y98.043 E8.125
G1 X123.86 Y98.467 E8.1418
G1 X124.065 Y98.929 E8.15862
G1 X124.195 Y99.418 E8.17544
G1 X124.246 Y99.921 E8.19226
G1 X124.217 Y100.426 E8.20908
G1 X124.11 Y100.92 E8.2259
G1 X123.925 Y101.39 E8.2427
G1 X123.669 Y101.826 E8.25951
G1 X123.25 Y102.313 E8.28088
G1 X104.337 Y120.262 E9.14811
G1 X104.242 Y120.349 E9.1524
G1 X103.232 Y121.233 E9.19704
G1 X102.948 Y121.454 E9.20901
G1 X101.452 Y122.492 E9.26957
G1 X101.072 Y122.719 E9.28429
G1 X99.327 Y123.601 E9.34932
G1 X98.928 Y123.77 E9.36374
G1 X97.208 Y124.364 E9.42426
G1 X96.801 Y124.475 E9.43829
G1 X94.978 Y124.846 E9.50017
G1 X94.555 Y124.903 E9.51436
G1 X92.655 Y125.031 E9.5777
G1 X92.227 Y125.031 E9.59194
G1 X90.312 Y124.903 E9.65577
G1 X89.895 Y124.847 E9.66976
G1 X88.118 Y124.49 E9.73005
G1 X87.71 Y124.38 E9.7441
G1 X85.931 Y123.77 E9.80666
G1 X85.562 Y123.617 E9.81994
G1 X81.238 Y121.501 E9.98006
G1 X76.202 Y119.281 E10.16311
G1 X71.042 Y117.346 E10.3464
G1 X67.203 Y116.055 E10.48111
G1 X66.738 Y115.857 E10.49792
G1 X66.511 Y115.726 E10.50664
G1 X65.857 Y115.312 E10.53238
G1 X65.345 Y114.909 E10.55405
G1 X64.682 Y114.268 E10.58473
G1 X64.347 Y113.889 E10.60155
G1 X64.124 Y113.549 E10.61507
G1 X63.466 Y112.392 E10.65934
G1 X63.252 Y111.934 E10.67616
G1 X63.117 Y111.471 E10.6922
G1 X62.902 Y110.452 E10.72684
G1 X62.837 Y109.95 E10.74367
G1 X62.839 Y109.597 E10.75541
G1 X63.088 Y105.485 E10.89243
G1 X63.241 Y99.965 E11.0761
G1 X63.083 Y94.457 E11.25937
G1 X62.82 Y90.737 E11.3834
G1 X62.829 Y90.181 E11.4019
G1 X62.909 Y89.411 E11.42765
G1 X63.001 Y88.914 E11.44446
G1 X63.084 Y88.649 E11.4537
G1 X63.476 Y87.57 E11.49188
G1 X63.686 Y87.11 E11.5087
G1 X63.853 Y86.841 E11.51923
G1 X64.355 Y86.116 E11.54856
G1 X64.709 Y85.69 E11.56698
G1 X65.099 Y85.295 E11.58544
G1 X65.546 Y84.918 E11.60489
G1 F2400 E9.10489
;MESH:connector.stl
G0 F3600 X67.092 Y86.905
G0 X67.914 Y87.89
G0 X71.561 Y93.507
G0 X71.65 Y93.552
;TYPE:WALL-INNER
G1 F2400 E11.60489
G1 F1200 X71.65 Y106.448 E12.03381
G1 X72.102 Y106.778 E12.05243
G1 X72.272 Y106.92 E12.05979
G1 X72.442 Y107.084 E12.06765
G1 X72.606 Y107.266 E12.0758
G1 X72.75 Y107.452 E12.08362
G1 X72.887 Y107.654 E12.09174
G1 X72.995 Y107.84 E12.0989
G1 X73.109 Y108.074 E12.10755
G1 X73.195 Y108.287 E12.11519
G1 X73.266 Y108.504 E12.12279
G1 X73.327 Y108.749 E12.13118
G1 X73.365 Y108.966 E12.13851
G1 X73.39 Y109.205 E12.1465
G1 X73.399 Y109.451 E12.15469
G1 X73.391 Y109.68 E12.16231
G1 X73.365 Y109.933 E12.17077
G1 X73.328 Y110.149 E12.17806
G1 X73.267 Y110.394 E12.18646
G1 X73.196 Y110.61 E12.19402
G1 X73.109 Y110.826 E12.20177
G1 X72.997 Y111.055 E12.21024
G1 X72.887 Y111.246 E12.21757
G1 X72.75 Y111.448 E12.22569
G1 X72.612 Y111.625 E12.23316
G1 X72.436 Y111.821 E12.24192
G1 X72.281 Y111.972 E12.24912
G1 X72.098 Y112.125 E12.25705
G1 X71.902 Y112.268 E12.26512
G1 X71.697 Y112.396 E12.27316
G1 X71.505 Y112.498 E12.28039
G1 X71.268 Y112.603 E12.28901
G1 X71.043 Y112.686 E12.29699
G1 X70.824 Y112.748 E12.30456
G1 X70.587 Y112.798 E12.31261
G1 X70.349 Y112.832 E12.32061
G1 X70.125 Y112.848 E12.32808
G1 X69.875 Y112.848 E12.33639
G1 X69.651 Y112.832 E12.34386
G1 X69.413 Y112.798 E12.35186
G1 X69.176 Y112.748 E12.35992
G1 X68.957 Y112.686 E12.36749
G1 X68.732 Y112.603 E12.37546
G1 X68.495 Y112.498 E12.38408
G1 X68.303 Y112.396 E12.39132
G1 X68.098 Y112.268 E12.39935
G1 X67.902 Y112.125 E12.40742
G1 X67.719 Y111.972 E12.41536
G1 X67.564 Y111.821 E12.42255
G1 X67.388 Y111.625 E12.43132
G1 X67.25 Y111.448 E12.43878
G1 X67.113 Y111.246 E12.4469
G1 X67.003 Y111.055 E12.45423
G1 X66.891 Y110.826 E12.46271
G1 X66.804 Y110.61 E12.47045
G1 X66.733 Y110.394 E12.47802
G1 X66.672 Y110.149 E12.48641
G1 X66.635 Y109.933 E12.4937
G1 X66.609 Y109.68 E12.50216
G1 X66.6 Y109.45 E12.50982
G1 X66.609 Y109.219 E12.51751
G1 X66.635 Y108.966 E12.52596
G1 X66.673 Y108.749 E12.53329
G1 X66.734 Y108.504 E12.54169
G1 X66.805 Y108.287 E12.54928
G1 X66.891 Y108.074 E12.55692
G1 X67.005 Y107.84 E12.56558
G1 X67.113 Y107.654 E12.57273
G1 X67.25 Y107.452 E12.58085
G1 X67.394 Y107.266 E12.58868
G1 X67.558 Y107.084 E12.59682
G1 X67.728 Y106.92 E12.60468
G1 X67.898 Y106.778 E12.61205
G1 X68.35 Y106.448 E12.63066
G1 X68.35 Y93.552 E13.05959
G1 X67.898 Y93.222 E13.0782
G1 X67.728 Y93.08 E13.08557
G1 X67.564 Y92.921 E13.09316
G1 X67.388 Y92.725 E13.10193
G1 X67.25 Y92.548 E13.10939
G1 X67.113 Y92.346 E13.11751
G1 X67.003 Y92.155 E13.12484
G1 X66.891 Y91.926 E13.13332
G1 X66.807 Y91.718 E13.14078
G1 X66.729 Y91.477 E13.1492
G1 X66.672 Y91.249 E13.15702
G1 X66.635 Y91.033 E13.16431
G1 X66.609 Y90.78 E13.17277
G1 X66.6 Y90.55 E13.18042
G1 X66.609 Y90.319 E13.18811
G1 X66.635 Y90.066 E13.19657
G1 X66.672 Y89.853 E13.20376
G1 X66.733 Y89.61 E13.2121
G1 X66.808 Y89.379 E13.22017
G1 X66.891 Y89.174 E13.22753
G1 X67.005 Y88.94 E13.23619
G1 X67.113 Y88.754 E13.24334
G1 X67.25 Y88.552 E13.25146
G1 X67.394 Y88.366 E13.25928
G1 X67.558 Y88.184 E13.26743
G1 X67.719 Y88.028 E13.27489
G1 X67.902 Y87.875 E13.28282
G1 X68.098 Y87.732 E13.29089
G1 X68.303 Y87.604 E13.29893
G1 X68.505 Y87.497 E13.30653
G1 X68.728 Y87.397 E13.31466
G1 X68.952 Y87.316 E13.32258
G1 X69.176 Y87.252 E13.33033
G1 X69.413 Y87.202 E13.33839
G1 X69.651 Y87.168 E13.34638
G1 X69.875 Y87.152 E13.35385
G1 X70.125 Y87.152 E13.36217
G1 X70.349 Y87.168 E13.36964
G1 X70.587 Y87.202 E13.37763
G1 X70.824 Y87.252 E13.38569
G1 X71.048 Y87.316 E13.39344
G1 X71.272 Y87.397 E13.40136
G1 X71.495 Y87.497 E13.40949
G1 X71.697 Y87.604 E13.41709
G1 X71.902 Y87.732 E13.42513
G1 X72.098 Y87.875 E13.4332
G1 X72.281 Y88.028 E13.44113
G1 X72.442 Y88.184 E13.44859
G1 X72.606 Y88.366 E13.45674
G1 X72.75 Y88.552 E13.46456
G1 X72.887 Y88.754 E13.47268
G1 X72.995 Y88.94 E13.47983
G1 X73.109 Y89.174 E13.48849
G1 X73.192 Y89.379 E13.49585
G1 X73.267 Y89.61 E13.50392
G1 X73.328 Y89.853 E13.51226
G1 X73.365 Y90.066 E13.51945
G1 X73.39 Y90.305 E13.52744
G1 X73.399 Y90.551 E13.53563
G1 X73.391 Y90.78 E13.54325
G1 X73.365 Y91.033 E13.55171
G1 X73.328 Y91.249 E13.559
G1 X73.271 Y91.477 E13.56681
G1 X73.193 Y91.718 E13.57524
G1 X73.109 Y91.926 E13.5827
G1 X72.997 Y92.155 E13.59118
G1 X72.887 Y92.346 E13.59851
G1 X72.75 Y92.548 E13.60663
G1 X72.612 Y92.725 E13.61409
G1 X72.436 Y92.921 E13.62285
G1 X72.272 Y93.08 E13.63045
G1 X72.102 Y93.222 E13.63782
G1 X71.65 Y93.552 E13.65643
G0 F3600 X71.561 Y93.507
G0 X71.615 Y106.466
G0 X71.755 Y106.647
G0 X72.05 Y106.245
;TYPE:WALL-OUTER
G1 F1200 X72.345 Y106.46 E13.66857
G1 X72.538 Y106.621 E13.67693
G1 X72.728 Y106.805 E13.68573
G1 X72.915 Y107.013 E13.69503
G1 X73.074 Y107.217 E13.70364
G1 X73.226 Y107.442 E13.71267
G1 X73.355 Y107.665 E13.72123
G1 X73.474 Y107.91 E13.73029
G1 X73.569 Y108.144 E13.73869
G1 X73.651 Y108.396 E13.74751
G1 X73.719 Y108.667 E13.7568
G1 X73.762 Y108.914 E13.76514
G1 X73.79 Y109.178 E13.77397
G1 X73.8 Y109.45 E13.78302
G1 X73.791 Y109.708 E13.79161
G1 X73.762 Y109.982 E13.80077
G1 X73.719 Y110.233 E13.80924
G1 X73.652 Y110.501 E13.81843
G1 X73.57 Y110.753 E13.82725
G1 X73.474 Y110.99 E13.83575
G1 X73.355 Y111.235 E13.84481
G1 X73.226 Y111.458 E13.85338
G1 X73.074 Y111.683 E13.86241
G1 X72.915 Y111.887 E13.87101
G1 X72.73 Y112.093 E13.88022
G1 X72.538 Y112.279 E13.88911
G1 X72.346 Y112.44 E13.89745
G1 X72.131 Y112.596 E13.90628
G1 X71.901 Y112.74 E13.91531
G1 X71.667 Y112.864 E13.92411
G1 X71.415 Y112.976 E13.93329
G1 X71.172 Y113.065 E13.94189
G1 X70.926 Y113.135 E13.9504
G1 X70.653 Y113.193 E13.95968
G1 X70.39 Y113.23 E13.96852
G1 X70.14 Y113.248 E13.97685
G1 X69.86 Y113.248 E13.98617
G1 X69.61 Y113.23 E13.9945
G1 X69.347 Y113.193 E14.00334
G1 X69.074 Y113.135 E14.01262
G1 X68.828 Y113.065 E14.02113
G1 X68.585 Y112.976 E14.02973
G1 X68.333 Y112.864 E14.0389
G1 X68.099 Y112.74 E14.04771
G1 X67.869 Y112.596 E14.05674
G1 X67.654 Y112.44 E14.06557
G1 X67.462 Y112.279 E14.07391
G1 X67.27 Y112.093 E14.0828
G1 X67.085 Y111.887 E14.09201
G1 X66.926 Y111.683 E14.10061
G1 X66.774 Y111.458 E14.10964
G1 X66.645 Y111.235 E14.11821
G1 X66.526 Y110.99 E14.12727
G1 X66.43 Y110.753 E14.13577
G1 X66.348 Y110.501 E14.14459
G1 X66.281 Y110.233 E14.15378
G1 X66.238 Y109.982 E14.16225
G1 X66.209 Y109.708 E14.17141
G1 X66.2 Y109.45 E14.18
G1 X66.209 Y109.192 E14.18858
G1 X66.238 Y108.914 E14.19788
G1 X66.281 Y108.667 E14.20622
G1 X66.349 Y108.396 E14.21551
G1 X66.431 Y108.144 E14.22432
G1 X66.526 Y107.91 E14.23272
G1 X66.645 Y107.665 E14.24178
G1 X66.774 Y107.442 E14.25035
G1 X66.926 Y107.217 E14.25938
G1 X67.085 Y107.013 E14.26799
G1 X67.272 Y106.805 E14.27729
G1 X67.462 Y106.621 E14.28609
G1 X67.655 Y106.46 E14.29445
G1 X67.95 Y106.245 E14.30659
G1 X67.95 Y93.755 E14.72201
G1 X67.655 Y93.54 E14.73415
G1 X67.462 Y93.379 E14.74251
G1 X67.27 Y93.193 E14.7514
G1 X67.085 Y92.987 E14.76061
G1 X66.926 Y92.783 E14.76921
G1 X66.774 Y92.558 E14.77824
G1 X66.645 Y92.335 E14.78681
G1 X66.526 Y92.09 E14.79587
G1 X66.43 Y91.853 E14.80437
G1 X66.348 Y91.6 E14.81322
G1 X66.281 Y91.333 E14.82237
G1 X66.238 Y91.082 E14.83084
G1 X66.209 Y90.808 E14.84001
G1 X66.2 Y90.55 E14.84859
G1 X66.209 Y90.292 E14.85718
G1 X66.238 Y90.014 E14.86648
G1 X66.281 Y89.767 E14.87482
G1 X66.349 Y89.497 E14.88408
G1 X66.431 Y89.244 E14.89292
G1 X66.526 Y89.01 E14.90132
G1 X66.645 Y88.765 E14.91038
G1 X66.774 Y88.542 E14.91895
G1 X66.926 Y88.317 E14.92798
G1 X67.085 Y88.113 E14.93658
G1 X67.272 Y87.905 E14.94589
G1 X67.462 Y87.721 E14.95468
G1 X67.654 Y87.56 E14.96302
G1 X67.869 Y87.404 E14.97185
G1 X68.099 Y87.26 E14.98088
G1 X68.333 Y87.136 E14.98969
G1 X68.584 Y87.024 E14.99883
G1 X68.828 Y86.935 E15.00747
G1 X69.074 Y86.865 E15.01597
G1 X69.347 Y86.807 E15.02526
G1 X69.61 Y86.77 E15.03409
G1 X69.86 Y86.752 E15.04243
G1 X70.14 Y86.752 E15.05174
G1 X70.39 Y86.77 E15.06008
G1 X70.653 Y86.807 E15.06891
G1 X70.926 Y86.865 E15.07819
G1 X71.172 Y86.935 E15.0867
G1 X71.416 Y87.024 E15.09534
G1 X71.667 Y87.136 E15.10448
G1 X71.901 Y87.26 E15.11329
G1 X72.131 Y87.404 E15.12231
G1 X72.346 Y87.56 E15.13115
G1 X72.538 Y87.721 E15.13948
G1 X72.728 Y87.905 E15.14828
G1 X72.915 Y88.113 E15.15758
G1 X73.074 Y88.317 E15.16618
G1 X73.226 Y88.542 E15.17521
G1 X73.355 Y88.765 E15.18378
G1 X73.474 Y89.01 E15.19284
G1 X73.569 Y89.244 E15.20124
G1 X73.651 Y89.497 E15.21009
G1 X73.719 Y89.767 E15.21935
G1 X73.762 Y90.014 E15.22769
G1 X73.79 Y90.278 E15.23652
G1 X73.8 Y90.55 E15.24557
G1 X73.791 Y90.808 E15.25416
G1 X73.762 Y91.082 E15.26332
G1 X73.719 Y91.333 E15.27179
G1 X73.652 Y91.6 E15.28095
G1 X73.57 Y91.853 E15.28979
G1 X73.474 Y92.09 E15.2983
G1 X73.355 Y92.335 E15.30736
G1 X73.226 Y92.558 E15.31592
G1 X73.074 Y92.783 E15.32496
G1 X72.915 Y92.987 E15.33356
G1 X72.73 Y93.193 E15.34277
G1 X72.538 Y93.379 E15.35166
G1 X72.345 Y93.54 E15.36002
G1 X72.05 Y93.755 E15.37216
G1 X72.05 Y106.245 E15.78758
G0 F3600 X72.211 Y106.362
G0 X71.916 Y106.765
G0 X71.862 Y107.086
;TYPE:SKIN
G1 F1200 X72.006 Y107.206 E15.79381
G1 X72.161 Y107.355 E15.80096
G1 X72.316 Y107.527 E15.80866
G1 X72.427 Y107.671 E15.81471
G1 X72.564 Y107.873 E15.82283
G1 X72.644 Y108.011 E15.82813
G1 X72.753 Y108.234 E15.83639
G1 X72.824 Y108.408 E15.84264
G1 X72.893 Y108.618 E15.84999
G1 X72.943 Y108.816 E15.85679
G1 X72.977 Y109.007 E15.86324
G1 X73 Y109.219 E15.87033
G1 X73.009 Y109.458 E15.87829
G1 X73.001 Y109.658 E15.88494
G1 X72.978 Y109.885 E15.89253
G1 X72.946 Y110.071 E15.89881
G1 X72.893 Y110.284 E15.90611
G1 X72.834 Y110.464 E15.91241
G1 X72.754 Y110.663 E15.91954
G1 X72.648 Y110.879 E15.92755
G1 X72.557 Y111.038 E15.93364
G1 X72.438 Y111.213 E15.94068
G1 X72.313 Y111.374 E15.94746
G1 X72.15 Y111.556 E15.95558
G1 X72.019 Y111.683 E15.96165
G1 X71.868 Y111.809 E15.96819
G1 X71.678 Y111.947 E15.976
G1 X71.503 Y112.057 E15.98288
G1 X71.333 Y112.148 E15.98929
G1 X71.118 Y112.243 E15.99711
G1 X70.922 Y112.315 E16.00405
G1 X70.737 Y112.367 E16.01045
G1 X70.51 Y112.416 E16.01817
G1 X70.307 Y112.444 E16.02499
G1 X70.111 Y112.458 E16.03152
G1 X69.889 Y112.458 E16.0389
G1 X69.693 Y112.444 E16.04544
G1 X69.49 Y112.416 E16.05226
G1 X69.263 Y112.367 E16.05998
G1 X69.078 Y112.315 E16.06637
