;FLAVOR:Marlin
;TIME:1573
;Filament used: 0.846629m
;Layer height: 0.16
;Generated with Cura_SteamEngine 3.6.0
M140 S60
M105
M190 S60
M104 S200
M105
M109 S200
M82 ;absolute extrusion mode
G21 ;metric values
G90 ;absolute positioning
M82 ;set extruder to absolute mode
M107 ;start with the fan off
G28 X0 Y0 ;move X/Y to min endstops
G28 Z0 ;move Z to min endstops
G1 Z15.0 F120 ;move the platform down 15mm
G92 E0 ;zero the extruded length
G1 F200 E6 ;extrude 6 mm of feed stock
G92 E0 ;zero the extruded length again
M117 Printing...
G1 F120
G92 E0
G1 F2400 E-2.5
;LAYER_COUNT:38
;LAYER:0
M107
G0 F3600 X88.329 Y86.045 Z0.2
;TYPE:SKIRT
G1 F2400 E0
G1 F1200 X88.722 Y85.68 E0.01784
G1 X89.215 Y85.349 E0.03759
G1 X93.213 Y83.121 E0.18982
G1 X93.699 Y82.896 E0.20763
G1 X94.271 Y82.734 E0.2274
G1 X98.764 Y81.851 E0.3797
G1 X99.296 Y81.787 E0.39752
G1 X99.892 Y81.809 E0.41736
G1 X104.45 Y82.363 E0.57007
G1 X104.976 Y82.467 E0.58791
G1 X105.529 Y82.67 E0.6075
G1 X109.643 Y84.575 E0.75829
G1 X110.111 Y84.836 E0.77611
G1 X110.575 Y85.2 E0.79573
G1 X113.951 Y88.325 E0.94874
G1 X114.317 Y88.718 E0.9666
G1 X114.651 Y89.215 E0.98651
G1 X116.879 Y93.213 E1.13874
G1 X117.104 Y93.699 E1.15655
G1 X117.266 Y94.271 E1.17633
G1 X118.149 Y98.764 E1.32862
G1 X118.213 Y99.296 E1.34645
G1 X118.193 Y99.87 E1.36555
G1 X117.205 Y108.446 E1.65267
G1 X116.867 Y113.897 E1.83432
G1 X116.838 Y119.358 E2.01596
G1 X117.116 Y124.795 E2.19703
G1 X117.707 Y130.264 E2.37999
G1 X118.217 Y133.858 E2.50072
G1 X118.242 Y134.079 E2.50812
G1 X118.342 Y135.337 E2.55009
G1 X118.351 Y135.74 E2.5635
G1 X118.308 Y137.048 E2.60703
G1 X118.287 Y137.332 E2.6165
G1 X118.077 Y139.199 E2.67899
G1 X117.978 Y139.727 E2.69686
G1 X117.461 Y141.66 E2.76341
G1 X117.272 Y142.194 E2.78225
G1 X116.121 Y144.779 E2.87636
G1 X115.769 Y145.396 E2.89999
G1 X114.103 Y147.747 E2.99583
G1 X113.672 Y148.251 E3.01788
G1 X111.832 Y150.035 E3.10313
G1 X111.392 Y150.398 E3.1221
G1 X109.635 Y151.629 E3.19345
G1 X109.125 Y151.927 E3.2131
G1 X106.673 Y153.102 E3.30353
G1 X106.031 Y153.338 E3.32628
G1 X103.293 Y154.057 E3.42044
G1 X102.698 Y154.161 E3.44053
G1 X100.695 Y154.339 E3.50741
G1 X100.258 Y154.351 E3.52195
G1 X98.952 Y154.308 E3.56541
G1 X98.668 Y154.287 E3.57488
G1 X96.801 Y154.077 E3.63737
G1 X96.273 Y153.978 E3.65524
G1 X94.34 Y153.461 E3.72179
G1 X93.922 Y153.321 E3.73645
G1 X92.766 Y152.854 E3.77792
G1 X92.509 Y152.738 E3.7873
G1 X90.805 Y151.889 E3.85062
G1 X90.337 Y151.61 E3.86874
G1 X88.521 Y150.331 E3.94262
G1 X88.098 Y149.982 E3.96085
G1 X86.848 Y148.779 E4.01856
G1 X86.607 Y148.523 E4.03025
G1 X85.481 Y147.205 E4.08791
G1 X85.222 Y146.863 E4.10218
G1 X84.106 Y145.188 E4.16912
G1 X83.816 Y144.663 E4.18907
G1 X82.761 Y142.307 E4.27493
G1 X82.565 Y141.752 E4.2945
G1 X81.982 Y139.536 E4.37071
G1 X81.889 Y139.041 E4.38747
G1 X81.773 Y138.057 E4.42042
G1 X81.753 Y137.833 E4.4279
G1 X81.646 Y135.881 E4.49292
G1 X81.659 Y135.325 E4.51142
G1 X81.903 Y132.887 E4.59291
G1 X81.917 Y132.769 E4.59687
G1 X82.651 Y127.275 E4.78122
G1 X83.068 Y121.813 E4.96342
G1 X83.175 Y116.388 E5.14389
G1 X82.973 Y110.913 E5.32611
G1 X82.464 Y105.484 E5.50747
G1 X81.831 Y100.911 E5.66102
G1 X81.797 Y100.376 E5.67885
G1 X81.823 Y99.986 E5.69185
G1 X82.355 Y95.57 E5.83979
G1 X82.458 Y95.044 E5.85762
G1 X82.663 Y94.486 E5.87739
G1 X84.592 Y90.328 E6.02984
G1 X84.854 Y89.86 E6.04768
G1 X85.22 Y89.394 E6.06739
G1 X88.329 Y86.045 E6.21938
G0 F3600 X88.622 Y86.317
G1 F1200 X88.994 Y85.975 E6.23618
G1 X89.409 Y85.699 E6.25276
G1 X93.407 Y83.471 E6.40499
G1 X93.867 Y83.26 E6.42182
G1 X94.348 Y83.126 E6.43843
G1 X98.841 Y82.243 E6.59072
G1 X99.343 Y82.185 E6.60753
G1 X99.844 Y82.206 E6.62421
G1 X104.402 Y82.76 E6.77693
G1 X104.898 Y82.861 E6.79376
G1 X105.361 Y83.033 E6.81019
G1 X109.475 Y84.938 E6.96098
G1 X109.915 Y85.186 E6.97778
G1 X110.304 Y85.494 E6.99428
G1 X113.68 Y88.619 E7.14729
G1 X114.022 Y88.99 E7.16407
G1 X114.301 Y89.409 E7.18081
G1 X116.529 Y93.407 E7.33304
G1 X116.74 Y93.867 E7.34987
G1 X116.874 Y94.348 E7.36648
G1 X117.757 Y98.841 E7.51878
G1 X117.815 Y99.343 E7.53559
G1 X117.796 Y99.824 E7.5516
G1 X116.807 Y108.413 E7.83915
G1 X116.467 Y113.887 E8.02157
G1 X116.438 Y119.359 E8.20357
G1 X116.718 Y124.84 E8.38611
G1 X117.308 Y130.303 E8.56887
G1 X117.821 Y133.914 E8.69017
G1 X117.843 Y134.11 E8.69673
G1 X117.943 Y135.368 E8.73871
G1 X117.951 Y135.727 E8.75065
G1 X117.908 Y137.035 E8.79418
G1 X117.89 Y137.288 E8.80262
G1 X117.68 Y139.155 E8.8651
G1 X117.591 Y139.624 E8.88098
G1 X117.074 Y141.557 E8.94753
G1 X116.906 Y142.032 E8.96429
G1 X115.755 Y144.617 E9.05841
G1 X115.443 Y145.165 E9.07938
G1 X113.777 Y147.516 E9.17522
G1 X113.394 Y147.963 E9.19479
G1 X111.554 Y149.747 E9.28004
G1 X111.162 Y150.071 E9.29695
G1 X109.405 Y151.302 E9.3683
G1 X108.952 Y151.567 E9.38576
G1 X106.5 Y152.742 E9.47619
G1 X105.93 Y152.951 E9.49639
G1 X103.192 Y153.67 E9.59054
G1 X102.662 Y153.762 E9.60843
G1 X100.659 Y153.94 E9.67531
G1 X100.271 Y153.951 E9.68822
G1 X98.965 Y153.908 E9.73169
G1 X98.712 Y153.89 E9.74012
G1 X96.845 Y153.68 E9.80261
G1 X96.376 Y153.591 E9.81849
G1 X94.443 Y153.074 E9.88504
G1 X94.071 Y152.95 E9.89808
G1 X92.915 Y152.483 E9.93955
G1 X92.687 Y152.38 E9.94787
G1 X90.983 Y151.531 E10.01119
G1 X90.567 Y151.283 E10.0273
G1 X88.751 Y150.004 E10.10118
G1 X88.375 Y149.694 E10.11738
G1 X87.125 Y148.491 E10.17509
G1 X86.911 Y148.264 E10.18546
G1 X85.785 Y146.946 E10.24312
G1 X85.555 Y146.641 E10.25582
G1 X84.439 Y144.966 E10.32277
G1 X84.181 Y144.5 E10.34048
G1 X83.126 Y142.144 E10.42634
G1 X82.952 Y141.65 E10.44376
G1 X82.369 Y139.434 E10.51997
G1 X82.286 Y138.995 E10.53483
G1 X82.17 Y138.011 E10.56779
G1 X82.153 Y137.811 E10.57446
G1 X82.046 Y135.859 E10.63949
G1 X82.057 Y135.365 E10.65592
G1 X82.301 Y132.927 E10.73741
G1 X82.313 Y132.822 E10.74093
G1 X83.05 Y127.307 E10.92599
G1 X83.468 Y121.833 E11.10859
G1 X83.575 Y116.381 E11.28995
G1 X83.373 Y110.896 E11.47251
G1 X82.861 Y105.436 E11.65491
G1 X82.227 Y100.856 E11.80869
G1 X82.198 Y100.351 E11.82551
G1 X82.22 Y100.034 E11.83608
G1 X82.752 Y95.618 E11.98402
G1 X82.852 Y95.123 E12.00082
G1 X83.026 Y94.654 E12.01746
G1 X84.955 Y90.496 E12.16991
G1 X85.203 Y90.056 E12.18671
G1 X85.513 Y89.666 E12.20328
G1 X88.622 Y86.317 E12.35527
G1 F2400 E9.85527
;MESH:buzzsaw.stl
G0 F3600 X91.581 Y87.779
G0 X91.664 Y89.054
G0 X93.58 Y90.398
G0 X97.191 Y98.379
G0 X97.105 Y98.329
;TYPE:WALL-INNER
G1 F2400 E12.35527
G1 F1200 X96.992 Y98.077 E12.36445
G1 X93.558 Y90.431 E12.64323
G1 X92.826 Y90.394 E12.66761
G1 X88.094 Y98.59 E12.98238
G1 X88.493 Y99.206 E13.00679
G1 X96.83 Y98.357 E13.28551
G1 X97.105 Y98.329 E13.29098
G0 F3600 X97.191 Y98.379
G0 X97.139 Y99.938
G0 X97.192 Y100.905
G0 X97.287 Y100.876
G1 F1200 X97.36 Y101.074 E13.298
G1 X97.439 Y101.25 E13.30441
G1 X97.532 Y101.427 E13.31106
G1 X97.638 Y101.596 E13.3177
G1 X97.757 Y101.759 E13.32441
G1 X97.886 Y101.911 E13.33104
G1 X98.021 Y102.051 E13.33751
G1 X98.17 Y102.185 E13.34417
G1 X98.327 Y102.307 E13.35079
G1 X98.491 Y102.418 E13.35737
G1 X98.665 Y102.519 E13.36407
G1 X98.844 Y102.605 E13.37067
G1 X99.025 Y102.679 E13.37717
G1 X99.217 Y102.742 E13.3839
G1 X99.412 Y102.789 E13.39057
G1 X99.607 Y102.822 E13.39715
G1 X99.803 Y102.843 E13.4037
G1 X100.002 Y102.85 E13.41032
G1 X100.201 Y102.843 E13.41695
G1 X100.399 Y102.822 E13.42357
G1 X100.596 Y102.787 E13.43022
G1 X100.788 Y102.739 E13.43681
G1 X100.987 Y102.674 E13.44377
G1 X101.331 Y102.521 E13.45629
G1 X101.512 Y102.416 E13.46325
G1 X101.677 Y102.305 E13.46987
G1 X101.835 Y102.182 E13.47653
G1 X101.983 Y102.047 E13.48319
G1 X102.12 Y101.905 E13.48975
G1 X102.248 Y101.752 E13.49639
G1 X102.365 Y101.591 E13.50301
G1 X102.47 Y101.422 E13.50962
G1 X102.564 Y101.245 E13.51629
G1 X102.645 Y101.064 E13.52288
G1 X102.712 Y100.877 E13.52949
G1 X102.766 Y100.687 E13.53606
G1 X102.808 Y100.49 E13.54276
G1 X102.835 Y100.292 E13.54941
G1 X102.849 Y100.097 E13.55591
G1 X102.849 Y99.898 E13.56253
G1 X102.835 Y99.699 E13.56916
G1 X102.804 Y99.488 E13.57626
G1 X102.713 Y99.124 E13.58874
G1 X102.64 Y98.926 E13.59575
G1 X102.561 Y98.75 E13.60217
G1 X102.468 Y98.573 E13.60882
G1 X102.362 Y98.404 E13.61546
G1 X102.245 Y98.243 E13.62208
G1 X102.115 Y98.089 E13.62878
G1 X101.978 Y97.947 E13.63534
G1 X101.828 Y97.813 E13.64203
G1 X101.673 Y97.693 E13.64855
G1 X101.509 Y97.582 E13.65514
G1 X101.336 Y97.482 E13.66178
G1 X101.156 Y97.394 E13.66845
G1 X100.973 Y97.321 E13.675
G1 X100.783 Y97.258 E13.68166
G1 X100.588 Y97.211 E13.68833
G1 X100.395 Y97.178 E13.69484
G1 X100.197 Y97.156 E13.70147
G1 X99.998 Y97.15 E13.70809
G1 X99.799 Y97.156 E13.71471
G1 X99.599 Y97.178 E13.7214
G1 X99.403 Y97.213 E13.72803
G1 X99.212 Y97.262 E13.73458
G1 X99.024 Y97.323 E13.74116
G1 X98.839 Y97.396 E13.74777
G1 X98.658 Y97.486 E13.7545
G1 X98.488 Y97.584 E13.76102
G1 X98.323 Y97.695 E13.76764
G1 X98.166 Y97.817 E13.77425
G1 X98.016 Y97.952 E13.78096
G1 X97.88 Y98.096 E13.78755
G1 X97.753 Y98.248 E13.79414
G1 X97.635 Y98.409 E13.80078
G1 X97.53 Y98.578 E13.80739
G1 X97.436 Y98.756 E13.81409
G1 X97.357 Y98.934 E13.82057
G1 X97.288 Y99.121 E13.8272
G1 X97.234 Y99.313 E13.83383
G1 X97.192 Y99.51 E13.84053
G1 X97.165 Y99.708 E13.84718
G1 X97.151 Y99.902 E13.85365
G1 X97.151 Y100.101 E13.86026
G1 X97.165 Y100.301 E13.86693
G1 X97.196 Y100.512 E13.87403
G1 X97.287 Y100.876 E13.8865
G0 F3600 X97.192 Y100.905
G0 X97.191 Y101.621
G0 X97.105 Y101.671
G1 F1200 X96.83 Y101.643 E13.8957
G1 X88.493 Y100.794 E14.17442
G1 X88.133 Y101.351 E14.19648
G1 X88.094 Y101.41 E14.19883
G1 X88.162 Y101.528 E14.20336
G1 X92.826 Y109.606 E14.51361
G1 X93.558 Y109.569 E14.53798
G1 X96.992 Y101.923 E14.81676
G1 X97.105 Y101.671 E14.82222
G0 F3600 X97.191 Y101.621
G0 X98.516 Y102.447
G0 X100 Y103.243
G0 X100 Y103.343
G1 F1200 X99.838 Y103.567 E14.83141
G1 X94.933 Y110.363 E15.11017
G1 X95.269 Y111.016 E15.1346
G1 X104.624 Y111.016 E15.44575
G1 X104.731 Y111.016 E15.44931
G1 X104.804 Y110.874 E15.45462
G1 X105.067 Y110.363 E15.47373
G1 X100.162 Y103.567 E15.75249
G1 X100 Y103.343 E15.75796
G0 F3600 X100 Y103.243
G0 X101.377 Y102.51
G0 X102.809 Y101.621
G0 X102.895 Y101.671
G1 F1200 X103.008 Y101.923 E15.76714
G1 X106.442 Y109.569 E16.04592
G1 X107.174 Y109.606 E16.0703
G1 X111.906 Y101.41 E16.38507
G1 X111.507 Y100.794 E16.40948
G1 X103.17 Y101.643 E16.6882
G1 X102.895 Y101.671 E16.69367
G0 F3600 X102.809 Y101.621
G0 X102.861 Y100.062
G0 X102.809 Y98.379
G0 X102.895 Y98.329
G1 F1200 X103.17 Y98.357 E16.70286
G1 X111.507 Y99.206 E16.98158
G1 X111.867 Y98.649 E17.00364
G1 X111.906 Y98.59 E17.00599
G1 X111.838 Y98.472 E17.01052
G1 X107.174 Y90.394 E17.32077
G1 X106.442 Y90.431 E17.34514
G1 X103.008 Y98.077 E17.62392
G1 X102.895 Y98.329 E17.62938
G0 F3600 X102.809 Y98.379
G0 X101.484 Y97.553
G0 X100 Y96.757
G0 X100 Y96.657
G1 F1200 X100.162 Y96.433 E17.63857
G1 X105.067 Y89.637 E17.91733
G1 X104.731 Y88.984 E17.94176
G1 X95.376 Y88.984 E18.25291
G1 X95.269 Y88.984 E18.25647
G1 X95.196 Y89.126 E18.26178
G1 X94.933 Y89.637 E18.28089
G1 X99.838 Y96.433 E18.55965
G1 X100 Y96.657 E18.56512
G0 F3600 X100 Y96.757
G0 X102.984 Y98.062
G0 X102.861 Y98.349
G0 X111.524 Y99.242
G0 X112.051 Y98.868
G0 X112.142 Y98.828
G1 F1200 X113.583 Y99.585 E18.61926
G1 X113.774 Y99.685 E18.62643
G1 X113.659 Y99.867 E18.63096
G1 X111.911 Y102.637 E18.7399
G1 X113.046 Y103.802 E18.79399
G1 X113.196 Y103.956 E18.80114
G1 X113.031 Y104.093 E18.80565
G1 X113.03 Y104.094 E18.8057
G1 X110.513 Y106.188 E18.9146
G1 X111.233 Y107.648 E18.96874
G1 X111.328 Y107.841 E18.9759
G1 X111.128 Y107.921 E18.98044
G1 X108.086 Y109.134 E19.08936
G1 X108.32 Y110.745 E19.14351
G1 X108.351 Y110.958 E19.15066
G1 X108.136 Y110.972 E19.1552
G1 X105.027 Y111.176 E19.25883
G1 X104.868 Y111.186 E19.26412
G1 X104.85 Y111.291 E19.26767
G1 X104.592 Y112.79 E19.31826
G1 X104.556 Y113.002 E19.32541
G1 X104.347 Y112.949 E19.32995
G1 X101.172 Y112.143 E19.4389
G1 X100.415 Y113.583 E19.49301
G1 X100.315 Y113.774 E19.50018
G1 X100.133 Y113.659 E19.50471
G1 X97.363 Y111.912 E19.61363
G1 X96.197 Y113.046 E19.66773
G1 X96.043 Y113.196 E19.67488
G1 X95.906 Y113.031 E19.67939
G1 X95.905 Y113.03 E19.67943
G1 X93.812 Y110.513 E19.78831
G1 X92.352 Y111.233 E19.84245
G1 X92.159 Y111.328 E19.84961
G1 X92.079 Y111.128 E19.85415
G1 X90.866 Y108.086 E19.96307
G1 X89.255 Y108.32 E20.01722
G1 X89.042 Y108.351 E20.02438
G1 X89.028 Y108.136 E20.02891
G1 X88.814 Y104.868 E20.13784
G1 X87.21 Y104.592 E20.19197
G1 X86.998 Y104.556 E20.19912
G1 X87.051 Y104.347 E20.20366
G1 X87.781 Y101.471 E20.30235
G1 X87.814 Y101.339 E20.30629
G1 X87.857 Y101.172 E20.3111
G1 X86.417 Y100.414 E20.36523
G1 X86.226 Y100.314 E20.3724
G1 X86.341 Y100.132 E20.37693
G1 X88.089 Y97.363 E20.48584
G1 X86.953 Y96.197 E20.53998
G1 X86.803 Y96.043 E20.54713
G1 X86.968 Y95.906 E20.55164
G1 X86.969 Y95.905 E20.55169
G1 X89.487 Y93.811 E20.66061
G1 X88.767 Y92.351 E20.71476
G1 X88.672 Y92.158 E20.72191
G1 X88.872 Y92.079 E20.72644
G1 X91.914 Y90.866 E20.83536
G1 X91.68 Y89.255 E20.8895
G1 X91.649 Y89.042 E20.89666
G1 X91.864 Y89.028 E20.9012
G1 X94.973 Y88.824 E21.00482
G1 X95.132 Y88.814 E21.01012
G1 X95.15 Y88.709 E21.01367
G1 X95.408 Y87.209 E21.06429
G1 X95.444 Y86.997 E21.07144
G1 X95.653 Y87.05 E21.07598
G1 X98.828 Y87.858 E21.18494
G1 X99.585 Y86.417 E21.23908
G1 X99.685 Y86.226 E21.24625
G1 X99.867 Y86.341 E21.25078
G1 X102.637 Y88.088 E21.35971
G1 X103.803 Y86.954 E21.4138
G1 X103.957 Y86.804 E21.42095
G1 X104.094 Y86.969 E21.42546
G1 X104.095 Y86.97 E21.42551
G1 X106.188 Y89.487 E21.53439
G1 X107.648 Y88.767 E21.58853
G1 X107.841 Y88.672 E21.59569
G1 X107.921 Y88.872 E21.60023
G1 X109.134 Y91.914 E21.70915
G1 X110.745 Y91.68 E21.7633
G1 X110.958 Y91.649 E21.77045
G1 X110.972 Y91.864 E21.77499
G1 X111.186 Y95.132 E21.88391
G1 X112.791 Y95.408 E21.93808
G1 X113.003 Y95.444 E21.94523
G1 X112.95 Y95.653 E21.94977
G1 X112.218 Y98.53 E22.04851
G1 X112.185 Y98.662 E22.05245
G1 X112.142 Y98.828 E22.05723
G0 F3600 X112.608 Y98.621
;TYPE:WALL-OUTER
G1 F1200 X114.152 Y99.432 E22.11524
G1 X114.343 Y99.532 E22.12241
G1 X114.228 Y99.714 E22.12694
G1 X112.418 Y102.584 E22.23979
G1 X113.635 Y103.833 E22.29779
G1 X113.785 Y103.987 E22.30494
G1 X113.62 Y104.124 E22.30945
G1 X113.619 Y104.125 E22.3095
G1 X111.011 Y106.294 E22.42232
G1 X111.784 Y107.86 E22.48041
G1 X111.879 Y108.053 E22.48756
G1 X111.679 Y108.132 E22.49209
G1 X108.527 Y109.389 E22.60495
G1 X108.778 Y111.116 E22.66299
G1 X108.809 Y111.329 E22.67015
G1 X108.594 Y111.343 E22.67469
G1 X105.209 Y111.565 E22.78751
G1 X104.913 Y113.285 E22.84556
G1 X104.877 Y113.497 E22.85271
G1 X104.668 Y113.444 E22.85725
G1 X101.379 Y112.608 E22.97012
G1 X100.568 Y114.152 E23.02813
G1 X100.468 Y114.343 E23.0353
G1 X100.286 Y114.228 E23.03983
G1 X97.416 Y112.418 E23.15268
G1 X96.166 Y113.635 E23.21071
G1 X96.012 Y113.785 E23.21786
G1 X95.875 Y113.62 E23.22237
G1 X95.874 Y113.619 E23.22241
G1 X93.706 Y111.011 E23.33521
G1 X92.14 Y111.784 E23.3933
G1 X91.947 Y111.879 E23.40045
G1 X91.868 Y111.679 E23.40498
G1 X90.611 Y108.527 E23.51784
G1 X88.884 Y108.778 E23.57589
G1 X88.671 Y108.809 E23.58304
G1 X88.657 Y108.594 E23.58758
G1 X88.435 Y105.209 E23.70041
G1 X86.715 Y104.913 E23.75845
G1 X86.503 Y104.877 E23.76561
G1 X86.556 Y104.668 E23.77014
G1 X87.392 Y101.379 E23.88301
G1 X85.848 Y100.567 E23.94104
G1 X85.657 Y100.467 E23.94821
G1 X85.772 Y100.285 E23.95274
G1 X87.582 Y97.416 E24.06556
G1 X86.364 Y96.166 E24.12361
G1 X86.214 Y96.012 E24.13076
G1 X86.379 Y95.875 E24.13527
G1 X86.38 Y95.874 E24.13532
G1 X88.989 Y93.705 E24.24816
G1 X88.216 Y92.14 E24.30622
G1 X88.121 Y91.947 E24.31337
G1 X88.321 Y91.868 E24.3179
G1 X91.473 Y90.611 E24.43076
G1 X91.222 Y88.884 E24.48881
G1 X91.191 Y88.671 E24.49596
G1 X91.406 Y88.657 E24.5005
G1 X94.791 Y88.435 E24.61332
G1 X95.087 Y86.714 E24.67141
G1 X95.123 Y86.502 E24.67856
G1 X95.332 Y86.555 E24.68309
G1 X98.621 Y87.392 E24.79597
G1 X99.432 Y85.848 E24.85398
G1 X99.532 Y85.657 E24.86115
G1 X99.714 Y85.772 E24.86568
G1 X102.584 Y87.582 E24.97853
G1 X103.834 Y86.365 E25.03656
G1 X103.988 Y86.215 E25.04371
G1 X104.125 Y86.38 E25.04822
G1 X104.126 Y86.381 E25.04827
