;FLAVOR:Marlin
;TIME:408
;Filament used: 0.149488m
;Layer height: 0.12
;Generated with Cura_SteamEngine 3.6.0
M140 S60
M105
M190 S60
M104 S205
M105
M109 S205
M82 ;absolute extrusion mode
G21 ;metric values
G90 ;absolute positioning
M82 ;set extruder to absolute mode
M107 ;start with the fan off
G28 X0 Y0 ;move X/Y to min endstops
G28 Z0 ;move Z to min endstops
G1 Z15.0 F120 ;move the platform down 15mm
G92 E0 ;zero the extruded length
G1 F200 E6 ;extrude 6 mm of feed stock
G92 E0 ;zero the extruded length again
M117 Printing...
G1 F120
G92 E0
G1 F2400 E-2.5
;LAYER_COUNT:29
;LAYER:0
M107
G0 F3600 X89.8 Y88.981 Z0.2
;TYPE:SKIRT
G1 F2400 E0
G1 F900 X90.128 Y88.682 E0.01476
G1 X90.944 Y88.017 E0.04977
G1 X91.298 Y87.76 E0.06432
G1 X92.395 Y87.05 E0.10778
G1 X92.812 Y86.814 E0.12372
G1 X94.024 Y86.222 E0.16858
G1 X94.498 Y86.027 E0.18563
G1 X95.89 Y85.556 E0.23451
G1 X96.391 Y85.422 E0.25176
G1 X97.732 Y85.155 E0.29723
G1 X98.188 Y85.091 E0.31255
G1 X99.377 Y84.994 E0.35223
G1 X99.846 Y84.984 E0.36783
G1 X101.29 Y85.036 E0.41589
G1 X101.769 Y85.082 E0.43189
G1 X102.872 Y85.256 E0.46903
G1 X103.413 Y85.38 E0.48749
G1 X105.284 Y85.949 E0.55254
G1 X105.808 Y86.149 E0.57119
G1 X106.861 Y86.639 E0.60982
G1 X107.265 Y86.857 E0.62509
G1 X108.414 Y87.562 E0.66993
G1 X108.828 Y87.853 E0.68676
G1 X109.975 Y88.775 E0.7357
G1 X110.354 Y89.122 E0.75279
G1 X111.28 Y90.086 E0.79725
G1 X111.596 Y90.459 E0.81351
G1 X112.42 Y91.559 E0.85923
G1 X112.697 Y91.981 E0.87602
G1 X113.39 Y93.201 E0.92268
G1 X113.606 Y93.643 E0.93904
G1 X114.113 Y94.864 E0.98302
G1 X114.275 Y95.334 E0.99955
G1 X114.649 Y96.689 E1.0463
G1 X114.752 Y97.179 E1.06296
G1 X114.943 Y98.497 E1.10725
G1 X114.983 Y98.994 E1.12384
G1 X115.012 Y100.496 E1.1738
G1 X114.98 Y101.086 E1.19345
G1 X114.769 Y102.718 E1.24819
G1 X114.68 Y103.187 E1.26406
G1 X114.412 Y104.245 E1.30037
G1 X114.294 Y104.629 E1.31373
G1 X113.939 Y105.606 E1.3483
G1 X113.741 Y106.06 E1.36477
G1 X112.986 Y107.538 E1.41997
G1 X112.703 Y108.009 E1.43825
G1 X111.885 Y109.18 E1.48576
G1 X111.565 Y109.581 E1.50282
G1 X110.628 Y110.611 E1.54914
G1 X110.266 Y110.962 E1.56591
G1 X109.236 Y111.841 E1.61094
G1 X108.844 Y112.135 E1.62724
G1 X107.68 Y112.904 E1.67364
G1 X107.131 Y113.208 E1.69451
G1 X105.257 Y114.06 E1.76298
G1 X104.666 Y114.275 E1.7839
G1 X103.312 Y114.649 E1.83062
G1 X102.816 Y114.752 E1.84747
G1 X101.473 Y114.945 E1.8926
G1 X100.982 Y114.985 E1.90898
G1 X99.593 Y115.012 E1.95519
G1 X99.091 Y114.99 E1.9719
G1 X97.722 Y114.844 E2.01769
G1 X97.114 Y114.732 E2.03826
G1 X95.121 Y114.2 E2.10686
G1 X94.502 Y113.978 E2.12874
G1 X93.178 Y113.378 E2.17708
G1 X92.729 Y113.14 E2.19398
G1 X91.529 Y112.4 E2.24088
G1 X91.118 Y112.108 E2.25764
G1 X90.037 Y111.236 E2.30384
G1 X89.672 Y110.903 E2.32027
G1 X88.752 Y109.951 E2.3643
G1 X88.442 Y109.59 E2.38013
G1 X87.653 Y108.551 E2.42352
G1 X87.379 Y108.139 E2.43998
G1 X86.672 Y106.92 E2.48685
G1 X86.393 Y106.334 E2.50844
G1 X85.62 Y104.3 E2.58081
G1 X85.44 Y103.68 E2.60228
G1 X85.166 Y102.339 E2.6478
G1 X85.099 Y101.871 E2.66353
G1 X84.993 Y100.603 E2.70585
G1 X84.981 Y100.14 E2.72125
G1 X85.022 Y98.879 E2.76322
G1 X85.064 Y98.419 E2.77858
G1 X85.259 Y97.112 E2.82253
G1 X85.351 Y96.669 E2.83758
G1 X85.615 Y95.681 E2.8716
G1 X85.759 Y95.243 E2.88693
G1 X86.364 Y93.713 E2.94165
G1 X86.62 Y93.184 E2.9612
G1 X87.42 Y91.798 E3.01443
G1 X87.701 Y91.376 E3.03129
G1 X88.414 Y90.439 E3.07045
G1 X88.742 Y90.059 E3.08715
G1 X89.8 Y88.981 E3.13738
G0 F3600 X90.086 Y89.261
G1 F900 X90.381 Y88.992 E3.15066
G1 X91.197 Y88.327 E3.18567
G1 X91.515 Y88.096 E3.19875
G1 X92.612 Y87.386 E3.24221
G1 X92.988 Y87.173 E3.25658
G1 X94.2 Y86.581 E3.30144
G1 X94.626 Y86.406 E3.31676
G1 X96.018 Y85.935 E3.36564
G1 X96.469 Y85.814 E3.38117
G1 X97.81 Y85.547 E3.42665
G1 X98.22 Y85.49 E3.44041
G1 X99.409 Y85.393 E3.48009
G1 X99.832 Y85.383 E3.49416
G1 X101.276 Y85.435 E3.54222
G1 X101.707 Y85.477 E3.55663
G1 X102.81 Y85.651 E3.59377
G1 X103.296 Y85.763 E3.61035
G1 X105.167 Y86.332 E3.6754
G1 X105.639 Y86.512 E3.6922
G1 X106.692 Y87.002 E3.73083
G1 X107.056 Y87.198 E3.74458
G1 X108.205 Y87.903 E3.78942
G1 X108.577 Y88.165 E3.80455
G1 X109.724 Y89.087 E3.8535
G1 X110.065 Y89.399 E3.86887
G1 X110.991 Y90.363 E3.91333
G1 X111.276 Y90.699 E3.92798
G1 X112.1 Y91.799 E3.97369
G1 X112.349 Y92.179 E3.9888
G1 X113.042 Y93.399 E4.03547
G1 X113.237 Y93.796 E4.05018
G1 X113.744 Y95.017 E4.09415
G1 X113.889 Y95.44 E4.10903
G1 X114.263 Y96.795 E4.15578
G1 X114.356 Y97.237 E4.1708
G1 X114.547 Y98.555 E4.2151
G1 X114.583 Y99.002 E4.23001
G1 X114.612 Y100.504 E4.27998
G1 X114.583 Y101.035 E4.29767
G1 X114.372 Y102.667 E4.3524
G1 X114.292 Y103.089 E4.36668
G1 X114.024 Y104.147 E4.40299
G1 X113.918 Y104.492 E4.41499
G1 X113.563 Y105.469 E4.44956
G1 X113.385 Y105.878 E4.4644
G1 X112.63 Y107.356 E4.5196
G1 X112.375 Y107.78 E4.53606
G1 X111.557 Y108.951 E4.58357
G1 X111.269 Y109.312 E4.59893
G1 X110.332 Y110.342 E4.64524
G1 X110.006 Y110.657 E4.66032
G1 X108.976 Y111.536 E4.70535
G1 X108.623 Y111.802 E4.72005
G1 X107.459 Y112.571 E4.76645
G1 X106.965 Y112.844 E4.78523
G1 X105.091 Y113.696 E4.8537
G1 X104.559 Y113.889 E4.87252
G1 X103.205 Y114.263 E4.91924
G1 X102.759 Y114.356 E4.93439
G1 X101.416 Y114.549 E4.97952
G1 X100.974 Y114.585 E4.99427
G1 X99.585 Y114.612 E5.04048
G1 X99.133 Y114.593 E5.05552
G1 X97.764 Y114.447 E5.10131
G1 X97.218 Y114.345 E5.11979
G1 X95.225 Y113.813 E5.1884
G1 X94.667 Y113.614 E5.2081
G1 X93.343 Y113.014 E5.25645
G1 X92.939 Y112.799 E5.27167
G1 X91.739 Y112.059 E5.31856
G1 X91.369 Y111.797 E5.33364
G1 X90.288 Y110.925 E5.37983
G1 X89.959 Y110.625 E5.39464
G1 X89.039 Y109.673 E5.43867
G1 X88.761 Y109.348 E5.4529
G1 X87.972 Y108.309 E5.49629
G1 X87.725 Y107.938 E5.51112
G1 X87.018 Y106.719 E5.55799
G1 X86.767 Y106.192 E5.5774
G1 X85.994 Y104.158 E5.64977
G1 X85.832 Y103.6 E5.6691
G1 X85.558 Y102.259 E5.71462
G1 X85.498 Y101.838 E5.72876
G1 X85.392 Y100.57 E5.77109
G1 X85.381 Y100.153 E5.78496
G1 X85.422 Y98.892 E5.82692
G1 X85.459 Y98.478 E5.84075
G1 X85.654 Y97.171 E5.8847
G1 X85.737 Y96.773 E5.89822
G1 X86.001 Y95.785 E5.93224
G1 X86.131 Y95.39 E5.94607
G1 X86.736 Y93.86 E6.00079
G1 X86.966 Y93.384 E6.01837
G1 X87.766 Y91.998 E6.0716
G1 X88.019 Y91.618 E6.08678
G1 X88.732 Y90.681 E6.12594
G1 X89.028 Y90.339 E6.14099
G1 X90.086 Y89.261 E6.19123
G0 F3600 X90.371 Y89.542
G1 F900 X90.633 Y89.302 E6.20304
G1 X91.449 Y88.637 E6.23805
G1 X91.732 Y88.432 E6.24968
G1 X92.829 Y87.722 E6.29314
G1 X93.164 Y87.533 E6.30593
G1 X94.376 Y86.941 E6.35079
G1 X94.754 Y86.785 E6.3644
G1 X96.146 Y86.314 E6.41327
G1 X96.547 Y86.207 E6.42708
G1 X97.888 Y85.94 E6.47255
G1 X98.253 Y85.889 E6.48481
G1 X99.442 Y85.792 E6.52449
G1 X99.817 Y85.783 E6.53697
G1 X101.261 Y85.835 E6.58502
G1 X101.645 Y85.872 E6.59786
G1 X102.748 Y86.046 E6.63499
G1 X103.18 Y86.145 E6.64974
G1 X105.051 Y86.714 E6.71478
G1 X105.47 Y86.875 E6.72971
G1 X106.523 Y87.365 E6.76834
G1 X106.847 Y87.538 E6.78055
G1 X107.996 Y88.243 E6.82539
G1 X108.327 Y88.477 E6.83887
G1 X109.474 Y89.399 E6.88782
G1 X109.777 Y89.676 E6.90147
G1 X110.703 Y90.64 E6.94593
G1 X110.956 Y90.938 E6.95893
G1 X111.78 Y92.038 E7.00465
G1 X112.001 Y92.376 E7.01808
G1 X112.694 Y93.596 E7.06475
G1 X112.867 Y93.95 E7.07785
G1 X113.374 Y95.171 E7.12182
G1 X113.504 Y95.547 E7.13506
G1 X113.878 Y96.902 E7.18181
G1 X113.96 Y97.294 E7.19513
G1 X114.151 Y98.612 E7.23942
G1 X114.183 Y99.009 E7.25267
G1 X114.212 Y100.511 E7.30264
G1 X114.187 Y100.983 E7.31836
G1 X113.976 Y102.615 E7.37309
G1 X113.904 Y102.991 E7.38582
G1 X113.636 Y104.049 E7.42212
G1 X113.542 Y104.356 E7.4328
G1 X113.187 Y105.333 E7.46738
G1 X113.029 Y105.696 E7.48054
G1 X112.274 Y107.174 E7.53574
G1 X112.047 Y107.551 E7.55038
G1 X111.229 Y108.722 E7.59789
G1 X110.973 Y109.042 E7.61152
G1 X110.036 Y110.072 E7.65783
G1 X109.746 Y110.353 E7.67126
G1 X108.716 Y111.232 E7.7163
G1 X108.403 Y111.468 E7.72934
G1 X107.239 Y112.237 E7.77574
G1 X106.799 Y112.48 E7.79246
G1 X104.925 Y113.332 E7.86093
G1 X104.453 Y113.503 E7.87762
G1 X103.099 Y113.877 E7.92434
G1 X102.702 Y113.96 E7.93783
G1 X101.359 Y114.153 E7.98296
G1 X100.966 Y114.185 E7.99607
G1 X99.577 Y114.212 E8.04228
G1 X99.176 Y114.195 E8.05563
G1 X97.807 Y114.049 E8.10142
G1 X97.321 Y113.959 E8.11786
G1 X95.328 Y113.427 E8.18647
G1 X94.832 Y113.25 E8.20399
G1 X93.508 Y112.65 E8.25233
G1 X93.149 Y112.459 E8.26586
G1 X91.949 Y111.719 E8.31275
G1 X91.62 Y111.486 E8.32616
G1 X90.539 Y110.614 E8.37235
G1 X90.247 Y110.347 E8.38551
G1 X89.327 Y109.395 E8.42955
G1 X89.08 Y109.106 E8.44219
G1 X88.291 Y108.067 E8.48558
G1 X88.071 Y107.737 E8.49877
G1 X87.364 Y106.518 E8.54564
G1 X87.141 Y106.05 E8.56289
G1 X86.368 Y104.016 E8.63526
G1 X86.224 Y103.52 E8.65244
G1 X85.95 Y102.179 E8.69796
G1 X85.896 Y101.805 E8.71053
G1 X85.79 Y100.537 E8.75285
G1 X85.781 Y100.166 E8.76519
G1 X85.822 Y98.905 E8.80715
G1 X85.855 Y98.537 E8.81944
G1 X86.05 Y97.23 E8.8634
G1 X86.123 Y96.876 E8.87542
G1 X86.387 Y95.888 E8.90943
G1 X86.503 Y95.537 E8.92173
G1 X87.108 Y94.007 E8.97645
G1 X87.313 Y93.584 E8.99208
G1 X88.113 Y92.198 E9.04531
G1 X88.337 Y91.86 E9.0588
G1 X89.05 Y90.923 E9.09796
G1 X89.313 Y90.62 E9.1113
G1 X90.371 Y89.542 E9.16154
G1 F2400 E6.66154
;MESH:cust_fidget_ring_v1_5_Spinner20190112-49-1dgyux4.stl
G0 F3600 X94.338 Y89.763
G0 X94.787 Y90.524
G0 X98.462 Y90.286
G0 X98.477 Y90.384
;TYPE:WALL-OUTER
G1 F2400 E9.16154
G1 F900 X97.876 Y90.5 E9.1819
G1 X97.284 Y90.652 E9.20223
G1 X96.704 Y90.84 E9.22251
G1 X96.415 Y90.95 E9.23279
G1 X95.855 Y91.191 E9.25307
G1 X95.31 Y91.469 E9.27342
G1 X94.784 Y91.78 E9.29374
G1 X94.278 Y92.124 E9.31409
G1 X93.795 Y92.499 E9.33443
G1 X93.336 Y92.903 E9.35477
G1 X92.903 Y93.336 E9.37513
G1 X92.499 Y93.795 E9.39547
G1 X92.125 Y94.277 E9.41576
G1 X91.949 Y94.527 E9.42593
G1 X91.779 Y94.785 E9.43621
G1 X91.469 Y95.308 E9.45643
G1 X91.191 Y95.855 E9.47684
G1 X91.065 Y96.135 E9.48705
G1 X90.841 Y96.701 E9.5073
G1 X90.742 Y96.991 E9.51749
G1 X90.652 Y97.284 E9.52768
G1 X90.571 Y97.579 E9.53786
G1 X90.5 Y97.876 E9.54801
G1 X90.438 Y98.175 E9.55817
G1 X90.384 Y98.477 E9.56837
G1 X90.308 Y99.084 E9.58872
G1 X90.284 Y99.389 E9.5989
G1 X90.27 Y99.694 E9.60905
G1 X90.265 Y100.002 E9.6193
G1 X90.284 Y100.61 E9.63953
G1 X90.308 Y100.917 E9.64977
G1 X90.384 Y101.523 E9.67008
G1 X90.5 Y102.124 E9.69044
G1 X90.652 Y102.716 E9.71077
G1 X90.841 Y103.298 E9.73112
G1 X91.065 Y103.866 E9.75143
G1 X91.325 Y104.418 E9.77173
G1 X91.469 Y104.692 E9.78202
G1 X91.78 Y105.216 E9.80229
G1 X92.124 Y105.723 E9.82267
G1 X92.499 Y106.206 E9.843
G1 X92.903 Y106.664 E9.86332
G1 X93.336 Y107.097 E9.88368
G1 X93.795 Y107.501 E9.90402
G1 X94.278 Y107.876 E9.92436
G1 X94.784 Y108.22 E9.94471
G1 X95.308 Y108.531 E9.96498
G1 X95.855 Y108.809 E9.98538
G1 X96.135 Y108.935 E9.9956
G1 X96.701 Y109.159 E10.01584
G1 X96.992 Y109.258 E10.02607
G1 X97.284 Y109.348 E10.03623
G1 X97.579 Y109.429 E10.0464
G1 X97.876 Y109.5 E10.05656
G1 X98.175 Y109.562 E10.06672
G1 X98.477 Y109.616 E10.07692
G1 X99.084 Y109.692 E10.09727
G1 X99.389 Y109.716 E10.10744
G1 X99.695 Y109.73 E10.11763
G1 X100.001 Y109.735 E10.12781
G1 X100.61 Y109.716 E10.14807
G1 X100.917 Y109.692 E10.15832
G1 X101.523 Y109.616 E10.17863
G1 X102.124 Y109.5 E10.19899
G1 X102.716 Y109.348 E10.21932
G1 X103.298 Y109.159 E10.23967
G1 X103.866 Y108.935 E10.25998
G1 X104.418 Y108.675 E10.28027
G1 X104.692 Y108.531 E10.29057
G1 X105.215 Y108.221 E10.31079
G1 X105.474 Y108.051 E10.32109
G1 X105.965 Y107.693 E10.3413
G1 X106.207 Y107.5 E10.3516
G1 X106.664 Y107.097 E10.37186
G1 X107.097 Y106.664 E10.39223
G1 X107.501 Y106.206 E10.41254
G1 X107.876 Y105.723 E10.43288
G1 X108.22 Y105.216 E10.45326
G1 X108.531 Y104.692 E10.47353
G1 X108.675 Y104.418 E10.48382
G1 X108.935 Y103.866 E10.50412
G1 X109.159 Y103.299 E10.52439
G1 X109.258 Y103.008 E10.53462
G1 X109.348 Y102.716 E10.54478
G1 X109.429 Y102.421 E10.55495
G1 X109.5 Y102.124 E10.56511
G1 X109.562 Y101.825 E10.57527
G1 X109.616 Y101.523 E10.58547
G1 X109.692 Y100.916 E10.60582
G1 X109.716 Y100.611 E10.61599
G1 X109.73 Y100.305 E10.62618
G1 X109.735 Y99.999 E10.63636
G1 X109.716 Y99.39 E10.65663
G1 X109.692 Y99.083 E10.66687
G1 X109.616 Y98.477 E10.68718
G1 X109.5 Y97.876 E10.70754
G1 X109.348 Y97.284 E10.72787
G1 X109.159 Y96.702 E10.74822
G1 X108.935 Y96.134 E10.76853
G1 X108.675 Y95.582 E10.78882
G1 X108.531 Y95.308 E10.79912
G1 X108.221 Y94.785 E10.81934
G1 X108.051 Y94.526 E10.82964
G1 X107.693 Y94.035 E10.84985
G1 X107.5 Y93.793 E10.86015
G1 X107.097 Y93.336 E10.88042
G1 X106.664 Y92.903 E10.90078
G1 X106.205 Y92.499 E10.92112
G1 X105.723 Y92.125 E10.94141
G1 X105.473 Y91.949 E10.95158
G1 X105.215 Y91.779 E10.96186
G1 X104.692 Y91.469 E10.98208
G1 X104.145 Y91.191 E11.00249
G1 X103.865 Y91.065 E11.0127
G1 X103.299 Y90.841 E11.03294
G1 X103.009 Y90.742 E11.04314
G1 X102.716 Y90.652 E11.05333
G1 X102.421 Y90.571 E11.06351
G1 X102.124 Y90.5 E11.07366
G1 X101.825 Y90.438 E11.08382
G1 X101.523 Y90.384 E11.09402
G1 X100.916 Y90.308 E11.11437
G1 X100.611 Y90.284 E11.12454
G1 X100.305 Y90.27 E11.13473
G1 X99.999 Y90.265 E11.14491
G1 X99.39 Y90.284 E11.16518
G1 X99.083 Y90.308 E11.17542
G1 X98.477 Y90.384 E11.19573
G0 F3600 X98.281 Y90.421
G0 X98.264 Y90.323
G0 X100.306 Y90.231
G0 X101.832 Y90.399
G0 X103.312 Y90.804
G0 X104.711 Y91.434
G0 X105.746 Y92.093
G0 X106.691 Y92.874
G0 X107.724 Y94.011
G0 X108.565 Y95.289
G0 X109.196 Y96.689
G0 X109.655 Y98.471
G0 X109.775 Y99.999
G0 X109.655 Y101.529
G0 X109.296 Y103.02
G0 X108.71 Y104.435
G0 X108.257 Y105.177
G0 X105.468 Y109.238
G0 X105.518 Y109.324
G1 F900 X105.222 Y109.493 E11.20707
G1 X104.922 Y109.652 E11.21836
G1 X104.61 Y109.805 E11.22992
G1 X104.305 Y109.943 E11.24105
G1 X103.985 Y110.075 E11.25257
G1 X103.666 Y110.196 E11.26391
G1 X103.351 Y110.304 E11.27499
G1 X103.023 Y110.405 E11.28641
G1 X102.692 Y110.495 E11.29781
G1 X102.366 Y110.573 E11.30896
G1 X102.027 Y110.644 E11.32048
G1 X101.698 Y110.701 E11.33159
G1 X101.361 Y110.749 E11.34291
G1 X101.016 Y110.787 E11.35445
G1 X100.683 Y110.813 E11.36556
G1 X100.337 Y110.83 E11.37709
G1 X100 Y110.835 E11.3883
G1 X99.663 Y110.83 E11.39951
G1 X99.317 Y110.814 E11.41103
G1 X98.648 Y110.75 E11.43338
G1 X97.963 Y110.642 E11.45644
G1 X97.641 Y110.574 E11.46739
G1 X96.971 Y110.403 E11.49039
G1 X96.649 Y110.304 E11.50159
G1 X96.334 Y110.196 E11.51267
G1 X96.018 Y110.076 E11.52391
G1 X95.386 Y109.803 E11.54681
G1 X95.078 Y109.652 E11.55822
G1 X94.778 Y109.493 E11.56951
G1 X94.482 Y109.324 E11.58085
G1 X94.191 Y109.146 E11.59219
G1 X93.907 Y108.96 E11.60348
G1 X93.357 Y108.559 E11.62612
G1 X93.091 Y108.347 E11.63744
G1 X92.837 Y108.129 E11.64857
G1 X92.581 Y107.896 E11.66008
G1 X92.336 Y107.659 E11.67142
G1 X92.1 Y107.415 E11.68271
G1 X91.87 Y107.163 E11.69406
G1 X91.649 Y106.904 E11.70538
G1 X91.437 Y106.638 E11.7167
G1 X91.04 Y106.093 E11.73912
G1 X90.85 Y105.803 E11.75065
G1 X90.673 Y105.513 E11.76195
G1 X90.504 Y105.217 E11.77329
G1 X90.345 Y104.916 E11.78461
G1 X90.194 Y104.61 E11.79596
G1 X90.057 Y104.305 E11.80708
G1 X89.925 Y103.985 E11.81859
G1 X89.804 Y103.667 E11.82991
G1 X89.694 Y103.345 E11.84123
G1 X89.594 Y103.02 E11.85254
G1 X89.505 Y102.692 E11.86384
G1 X89.427 Y102.367 E11.87496
G1 X89.357 Y102.028 E11.88647
G1 X89.294 Y101.666 E11.89869
G1 X89.245 Y101.31 E11.91065
G1 X89.21 Y100.983 E11.92158
G1 X89.186 Y100.683 E11.93159
G1 X89.17 Y100.342 E11.94295
G1 X89.165 Y100.009 E11.95402
G1 X89.17 Y99.671 E11.96527
G1 X89.19 Y99.284 E11.97816
G1 X89.25 Y98.644 E11.99954
G1 X89.291 Y98.349 E12.00944
G1 X89.361 Y97.952 E12.02285
G1 X89.494 Y97.351 E12.04332
G1 X89.595 Y96.975 E12.05627
G1 X89.699 Y96.641 E12.06791
G1 X89.913 Y96.044 E12.089
G1 X90.058 Y95.695 E12.10157
G1 X90.345 Y95.083 E12.12405
G1 X90.499 Y94.792 E12.135
G1 X90.673 Y94.487 E12.14668
G1 X90.85 Y94.197 E12.15798
G1 X91.036 Y93.913 E12.16927
G1 X91.254 Y93.606 E12.1818
G1 X91.649 Y93.096 E12.20325
G1 X91.874 Y92.832 E12.21479
G1 X92.115 Y92.569 E12.22665
G1 X92.37 Y92.308 E12.23879
G1 X92.861 Y91.85 E12.26112
G1 X93.11 Y91.637 E12.27202
G1 X93.611 Y91.25 E12.29308
G1 X93.907 Y91.04 E12.30515
