;FLAVOR:Marlin
;TIME:1402
;Filament used: 0.39547m
;Layer height: 0.12
;Generated with Cura_SteamEngine 3.6.0
M140 S60
M105
M190 S60
M104 S200
M105
M109 S200
M82 ;absolute extrusion mode
G21 ;metric values
G90 ;absolute positioning
M82 ;set extruder to absolute mode
M107 ;start with the fan off
G28 X0 Y0 ;move X/Y to min endstops
G28 Z0 ;move Z to min endstops
G1 Z15.0 F120 ;move the platform down 15mm
G92 E0 ;zero the extruded length
G1 F200 E6 ;extrude 6 mm of feed stock
G92 E0 ;zero the extruded length again
M117 Printing...
G1 F120
G92 E0
G1 F2400 E-2.5
;LAYER_COUNT:50
;LAYER:0
M107
G0 F3600 X78.059 Y82.631 Z0.2
;TYPE:SKIRT
G1 F2400 E0
G1 F900 X78.726 Y82.03 E0.02986
G1 X79.071 Y81.755 E0.04454
G1 X80.196 Y80.967 E0.09022
G1 X80.689 Y80.677 E0.10924
G1 X82.405 Y79.844 E0.17269
G1 X82.982 Y79.623 E0.19324
G1 X84.397 Y79.216 E0.24221
G1 X84.913 Y79.108 E0.25974
G1 X86.447 Y78.902 E0.31122
G1 X87.143 Y78.877 E0.33439
G1 X89.428 Y79.015 E0.41052
G1 X90.037 Y79.104 E0.43099
G1 X91.098 Y79.354 E0.46725
G1 X91.56 Y79.496 E0.48333
G1 X93.032 Y80.06 E0.53575
G1 X93.397 Y80.224 E0.54906
G1 X94.105 Y80.59 E0.57557
G1 X94.452 Y80.795 E0.58898
G1 X95.621 Y81.576 E0.63574
G1 X95.823 Y81.721 E0.64401
G1 X98.418 Y83.727 E0.7531
G1 X102.911 Y86.887 E0.9358
G1 X107.527 Y89.76 E1.11663
G1 X112.339 Y92.388 E1.29899
G1 X114.748 Y93.576 E1.38833
G1 X118.696 Y95.368 E1.53254
G1 X119.047 Y95.551 E1.5457
G1 X119.885 Y96.049 E1.57812
G1 X120.202 Y96.261 E1.59081
G1 X121.134 Y96.958 E1.62952
G1 X121.424 Y97.2 E1.64208
G1 X122.17 Y97.891 E1.6759
G1 X122.466 Y98.2 E1.69013
G1 X123.314 Y99.197 E1.73366
G1 X123.599 Y99.58 E1.74954
G1 X124.359 Y100.76 E1.79623
G1 X124.576 Y101.148 E1.81101
G1 X125.041 Y102.114 E1.84667
G1 X125.226 Y102.577 E1.86325
G1 X125.721 Y104.123 E1.91724
G1 X125.837 Y104.596 E1.93344
G1 X126.033 Y105.707 E1.97096
G1 X126.083 Y106.14 E1.98546
G1 X126.153 Y107.449 E2.02906
G1 X126.146 Y107.931 E2.04509
G1 X126.036 Y109.29 E2.09044
G1 X125.973 Y109.732 E2.10529
G1 X125.742 Y110.844 E2.14307
G1 X125.628 Y111.264 E2.15754
G1 X125.219 Y112.475 E2.20006
G1 X125.045 Y112.898 E2.21527
G1 X124.461 Y114.098 E2.25966
G1 X124.2 Y114.549 E2.27699
G1 X123.39 Y115.739 E2.32487
G1 X123.015 Y116.202 E2.34468
G1 X121.668 Y117.61 E2.40949
G1 X121.278 Y117.962 E2.42697
G1 X120.516 Y118.555 E2.45908
G1 X120.171 Y118.793 E2.47302
G1 X118.978 Y119.516 E2.51942
G1 X118.583 Y119.723 E2.53425
G1 X117.573 Y120.175 E2.57105
G1 X117.212 Y120.313 E2.58391
G1 X116.333 Y120.598 E2.61464
G1 X115.948 Y120.7 E2.62789
G1 X114.6 Y120.977 E2.67366
G1 X114.091 Y121.044 E2.69074
G1 X112.612 Y121.133 E2.74002
G1 X112.117 Y121.129 E2.75648
G1 X110.844 Y121.03 E2.79895
G1 X110.397 Y120.967 E2.81396
G1 X109.183 Y120.717 E2.85519
G1 X108.789 Y120.612 E2.86875
G1 X107.836 Y120.3 E2.9021
G1 X107.381 Y120.116 E2.91843
G1 X105.825 Y119.359 E2.97598
G1 X105.258 Y119.016 E2.99802
G1 X99.635 Y114.854 E3.2307
G1 X95.085 Y111.82 E3.41259
G1 X90.391 Y109.058 E3.59374
G1 X85.526 Y106.555 E3.77571
G1 X81.3 Y104.63 E3.93016
G1 X80.953 Y104.449 E3.94318
G1 X80.115 Y103.951 E3.9756
G1 X79.798 Y103.739 E3.98828
G1 X78.866 Y103.042 E4.02699
G1 X78.576 Y102.8 E4.03955
G1 X77.83 Y102.109 E4.07337
G1 X77.534 Y101.8 E4.08761
G1 X76.686 Y100.803 E4.13114
G1 X76.401 Y100.42 E4.14702
G1 X75.64 Y99.238 E4.19377
G1 X75.423 Y98.851 E4.20853
G1 X74.957 Y97.883 E4.24426
G1 X74.809 Y97.527 E4.25709
G1 X74.495 Y96.644 E4.28826
G1 X74.389 Y96.288 E4.30061
G1 X74.1 Y95.098 E4.34134
G1 X74.022 Y94.659 E4.35617
G1 X73.879 Y93.414 E4.39785
G1 X73.859 Y92.841 E4.41692
G1 X73.948 Y90.863 E4.48278
G1 X74.048 Y90.166 E4.5062
G1 X74.492 Y88.36 E4.56805
G1 X74.709 Y87.733 E4.59012
G1 X75.502 Y85.983 E4.65402
G1 X75.806 Y85.443 E4.67463
G1 X76.611 Y84.261 E4.7222
G1 X76.909 Y83.88 E4.73829
G1 X77.792 Y82.898 E4.78221
G1 X78.059 Y82.631 E4.79477
G0 F3600 X78.327 Y82.928
G1 F900 X78.994 Y82.327 E4.82463
G1 X79.3 Y82.083 E4.83765
G1 X80.425 Y81.295 E4.88333
G1 X80.864 Y81.037 E4.90027
G1 X82.58 Y80.204 E4.96371
G1 X83.092 Y80.008 E4.98195
G1 X84.507 Y79.601 E5.03092
G1 X84.966 Y79.504 E5.04652
G1 X86.5 Y79.298 E5.098
G1 X87.119 Y79.276 E5.1186
G1 X89.404 Y79.414 E5.19474
G1 X89.945 Y79.493 E5.21292
G1 X91.006 Y79.743 E5.24918
G1 X91.417 Y79.87 E5.26349
G1 X92.889 Y80.434 E5.31592
G1 X93.213 Y80.579 E5.32772
G1 X93.921 Y80.945 E5.35423
G1 X94.23 Y81.127 E5.36616
G1 X95.399 Y81.908 E5.41292
G1 X95.578 Y82.037 E5.42026
G1 X98.194 Y84.059 E5.53023
G1 X102.671 Y87.208 E5.71228
G1 X107.337 Y90.112 E5.89507
G1 X112.158 Y92.746 E6.07779
G1 X114.56 Y93.929 E6.16684
G1 X118.531 Y95.732 E6.3119
G1 X118.843 Y95.895 E6.32361
G1 X119.681 Y96.393 E6.35603
G1 X119.962 Y96.581 E6.36727
G1 X120.894 Y97.278 E6.40598
G1 X121.153 Y97.493 E6.41718
G1 X121.899 Y98.184 E6.451
G1 X122.162 Y98.459 E6.46365
G1 X123.01 Y99.456 E6.50719
G1 X123.262 Y99.796 E6.52126
G1 X124.022 Y100.976 E6.56794
G1 X124.215 Y101.321 E6.58109
G1 X124.68 Y102.287 E6.61675
G1 X124.845 Y102.699 E6.63151
G1 X125.34 Y104.245 E6.6855
G1 X125.443 Y104.665 E6.69989
G1 X125.639 Y105.776 E6.73741
G1 X125.683 Y106.161 E6.7503
G1 X125.753 Y107.47 E6.7939
G1 X125.748 Y107.899 E6.80817
G1 X125.638 Y109.258 E6.85352
G1 X125.581 Y109.651 E6.86672
G1 X125.35 Y110.763 E6.9045
G1 X125.249 Y111.136 E6.91735
G1 X124.84 Y112.347 E6.95986
G1 X124.685 Y112.723 E6.97339
G1 X124.101 Y113.923 E7.01778
G1 X123.869 Y114.324 E7.03319
G1 X123.059 Y115.514 E7.08107
G1 X122.726 Y115.925 E7.09866
G1 X121.379 Y117.333 E7.16347
G1 X121.032 Y117.646 E7.17901
G1 X120.27 Y118.239 E7.21113
G1 X119.964 Y118.451 E7.22351
G1 X118.771 Y119.174 E7.2699
G1 X118.419 Y119.358 E7.28312
G1 X117.409 Y119.81 E7.31992
G1 X117.089 Y119.933 E7.33132
G1 X116.21 Y120.218 E7.36206
G1 X115.867 Y120.309 E7.37386
G1 X114.519 Y120.586 E7.41963
G1 X114.067 Y120.645 E7.43479
G1 X112.588 Y120.734 E7.48407
G1 X112.148 Y120.73 E7.49871
G1 X110.875 Y120.631 E7.54117
G1 X110.478 Y120.575 E7.55451
G1 X109.264 Y120.325 E7.59573
G1 X108.913 Y120.232 E7.60781
G1 X107.96 Y119.92 E7.64116
G1 X107.556 Y119.757 E7.65565
G1 X106 Y119 E7.71321
G1 X105.496 Y118.694 E7.73282
G1 X99.868 Y114.529 E7.96569
G1 X95.304 Y111.485 E8.14815
G1 X90.576 Y108.703 E8.33061
G1 X85.713 Y106.201 E8.51251
G1 X81.465 Y104.266 E8.66776
G1 X81.157 Y104.105 E8.67932
G1 X80.319 Y103.607 E8.71174
G1 X80.038 Y103.419 E8.72299
G1 X79.106 Y102.722 E8.7617
G1 X78.847 Y102.507 E8.77289
G1 X78.101 Y101.816 E8.80671
G1 X77.838 Y101.541 E8.81937
G1 X76.99 Y100.544 E8.8629
G1 X76.737 Y100.203 E8.87703
G1 X75.976 Y99.021 E8.92378
G1 X75.784 Y98.677 E8.93689
G1 X75.318 Y97.709 E8.97262
G1 X75.186 Y97.393 E8.98401
G1 X74.872 Y96.51 E9.01518
G1 X74.777 Y96.193 E9.02618
G1 X74.488 Y95.003 E9.06691
G1 X74.419 Y94.613 E9.08009
G1 X74.276 Y93.368 E9.12177
G1 X74.258 Y92.859 E9.13871
G1 X74.347 Y90.881 E9.20456
G1 X74.437 Y90.261 E9.2254
G1 X74.881 Y88.455 E9.28726
G1 X75.073 Y87.898 E9.30685
G1 X75.866 Y86.148 E9.37076
G1 X76.136 Y85.668 E9.38907
G1 X76.941 Y84.486 E9.43664
G1 X77.206 Y84.147 E9.45095
G1 X78.089 Y83.165 E9.49487
G1 X78.327 Y82.928 E9.50604
G1 F2400 E7.00604
;MESH:cust_fidget_ring_v1_5_Ring20190112-49-b7bync.stl
G0 F3600 X81.427 Y83.651
G0 X82.18 Y84.69
G0 X86.256 Y84.843
G0 X86.271 Y84.941
;TYPE:WALL-INNER
G1 F2400 E9.50604
G1 F900 X85.798 Y85.032 E9.52206
G1 X85.334 Y85.151 E9.538
G1 X84.879 Y85.298 E9.5539
G1 X84.433 Y85.475 E9.56986
G1 X83.998 Y85.679 E9.58584
G1 X83.578 Y85.911 E9.6018
G1 X83.173 Y86.168 E9.61775
G1 X82.785 Y86.45 E9.63371
G1 X82.416 Y86.755 E9.64963
G1 X82.065 Y87.084 E9.66563
G1 X81.738 Y87.433 E9.68154
G1 X81.432 Y87.802 E9.69748
G1 X81.149 Y88.191 E9.71348
G1 X80.893 Y88.596 E9.72942
G1 X80.662 Y89.016 E9.74536
G1 X80.458 Y89.45 E9.76131
G1 X80.281 Y89.895 E9.77724
G1 X80.133 Y90.352 E9.79321
G1 X80.013 Y90.817 E9.80919
G1 X79.924 Y91.288 E9.82513
G1 X79.864 Y91.763 E9.84105
G1 X79.833 Y92.243 E9.85705
G1 X79.833 Y92.722 E9.87298
G1 X79.864 Y93.202 E9.88898
G1 X79.924 Y93.677 E9.90491
G1 X80.013 Y94.148 E9.92085
G1 X80.133 Y94.613 E9.93682
G1 X80.281 Y95.07 E9.9528
G1 X80.458 Y95.515 E9.96873
G1 X80.662 Y95.949 E9.98468
G1 X80.893 Y96.369 E10.00062
G1 X81.149 Y96.774 E10.01656
G1 X81.432 Y97.163 E10.03256
G1 X81.738 Y97.532 E10.0485
G1 X82.065 Y97.881 E10.06441
G1 X82.416 Y98.21 E10.08041
G1 X82.785 Y98.515 E10.09633
G1 X83.173 Y98.797 E10.11228
G1 X83.578 Y99.054 E10.12824
G1 X83.998 Y99.286 E10.1442
G1 X84.433 Y99.49 E10.16018
G1 X84.879 Y99.667 E10.17614
G1 X85.334 Y99.814 E10.19204
G1 X85.798 Y99.933 E10.20797
G1 X86.271 Y100.024 E10.22399
G1 X86.747 Y100.083 E10.23994
G1 X87.225 Y100.114 E10.25588
G1 X87.705 Y100.114 E10.27184
G1 X88.183 Y100.083 E10.28777
G1 X88.659 Y100.024 E10.30373
G1 X89.132 Y99.933 E10.31975
G1 X89.596 Y99.814 E10.33568
G1 X90.051 Y99.667 E10.35158
G1 X90.497 Y99.49 E10.36754
G1 X90.932 Y99.286 E10.38352
G1 X91.352 Y99.054 E10.39948
G1 X91.757 Y98.797 E10.41543
G1 X92.145 Y98.515 E10.43139
G1 X92.514 Y98.21 E10.44731
G1 X92.865 Y97.881 E10.46331
G1 X93.192 Y97.532 E10.47922
G1 X93.498 Y97.163 E10.49516
G1 X93.781 Y96.774 E10.51116
G1 X94.037 Y96.369 E10.5271
G1 X94.268 Y95.949 E10.54304
G1 X94.472 Y95.515 E10.55899
G1 X94.649 Y95.07 E10.57492
G1 X94.797 Y94.613 E10.5909
G1 X94.917 Y94.148 E10.60687
G1 X95.006 Y93.677 E10.62281
G1 X95.066 Y93.202 E10.63874
G1 X95.097 Y92.722 E10.65473
G1 X95.097 Y92.243 E10.67067
G1 X95.066 Y91.763 E10.68666
G1 X95.006 Y91.288 E10.70259
G1 X94.917 Y90.817 E10.71853
G1 X94.797 Y90.352 E10.7345
G1 X94.649 Y89.895 E10.75048
G1 X94.472 Y89.45 E10.76641
G1 X94.268 Y89.016 E10.78236
G1 X94.037 Y88.596 E10.7983
G1 X93.781 Y88.191 E10.81424
G1 X93.498 Y87.802 E10.83024
G1 X93.192 Y87.433 E10.84618
G1 X92.865 Y87.084 E10.86209
G1 X92.514 Y86.755 E10.87809
G1 X92.145 Y86.45 E10.89401
G1 X91.757 Y86.168 E10.90996
G1 X91.352 Y85.911 E10.92592
G1 X90.932 Y85.679 E10.94188
G1 X90.497 Y85.475 E10.95786
G1 X90.051 Y85.298 E10.97382
G1 X89.596 Y85.151 E10.98972
G1 X89.132 Y85.032 E11.00565
G1 X88.659 Y84.941 E11.02167
G1 X88.183 Y84.882 E11.03763
G1 X87.705 Y84.851 E11.05356
G1 X87.225 Y84.851 E11.06952
G1 X86.747 Y84.882 E11.08545
G1 X86.271 Y84.941 E11.10141
G0 F3600 X86.256 Y84.843
G0 X84.418 Y85.439
G0 X83.151 Y86.135
G0 X82.037 Y87.056
G0 X81.116 Y88.169
G0 X80.422 Y89.435
G0 X79.974 Y90.809
G0 X79.794 Y92.242
G0 X79.885 Y93.683
G0 X80.244 Y95.083
G0 X80.859 Y96.389
G0 X81.708 Y97.558
G0 X82.761 Y98.546
G0 X83.451 Y98.984
G0 X88.06 Y101.799
G0 X88.065 Y101.898
G1 F900 X87.473 Y101.917 E11.12111
G1 X86.865 Y101.898 E11.14134
G1 X86.578 Y101.875 E11.15092
G1 X85.989 Y101.802 E11.17066
G1 X85.405 Y101.689 E11.19044
G1 X84.827 Y101.541 E11.21028
G1 X84.26 Y101.357 E11.23011
G1 X84.002 Y101.259 E11.23929
G1 X83.454 Y101.021 E11.25916
G1 X83.186 Y100.891 E11.26907
G1 X82.659 Y100.601 E11.28908
G1 X82.159 Y100.284 E11.30877
G1 X81.671 Y99.93 E11.32882
G1 X81.458 Y99.759 E11.3379
G1 X81 Y99.354 E11.35824
G1 X80.786 Y99.147 E11.36814
G1 X80.59 Y98.944 E11.37753
G1 X80.382 Y98.715 E11.38782
G1 X80.004 Y98.258 E11.40754
G1 X79.666 Y97.793 E11.42666
G1 X79.493 Y97.53 E11.43713
G1 X79.193 Y97.02 E11.45681
G1 X78.927 Y96.499 E11.47627
G1 X78.69 Y95.949 E11.49619
G1 X78.589 Y95.682 E11.50568
G1 X78.401 Y95.105 E11.52586
G1 X78.324 Y94.82 E11.53568
G1 X78.196 Y94.241 E11.55541
G1 X78.145 Y93.949 E11.56527
G1 X78.103 Y93.654 E11.57518
G1 X78.049 Y93.085 E11.59419
G1 X78.03 Y92.499 E11.61369
G1 X78.05 Y91.875 E11.63445
G1 X78.104 Y91.304 E11.65353
G1 X78.201 Y90.696 E11.67401
G1 X78.324 Y90.145 E11.69278
G1 X78.407 Y89.841 E11.70326
G1 X78.584 Y89.297 E11.72229
G1 X78.803 Y88.742 E11.74214
G1 X79.06 Y88.198 E11.76215
G1 X79.352 Y87.665 E11.78236
G1 X79.666 Y87.172 E11.8018
G1 X80.004 Y86.707 E11.82092
G1 X80.197 Y86.466 E11.83119
G1 X80.588 Y86.022 E11.85087
G1 X80.786 Y85.818 E11.86032
G1 X81.003 Y85.608 E11.87037
G1 X81.443 Y85.218 E11.88992
G1 X81.674 Y85.033 E11.89977
G1 X82.169 Y84.674 E11.9201
G1 X82.402 Y84.521 E11.92938
G1 X82.671 Y84.356 E11.93987
G1 X83.172 Y84.08 E11.9589
G1 X83.712 Y83.827 E11.97873
G1 X83.994 Y83.709 E11.9889
G1 X84.541 Y83.512 E12.00823
G1 X84.829 Y83.423 E12.01826
G1 X85.4 Y83.275 E12.03788
G1 X85.987 Y83.164 E12.05775
G1 X86.584 Y83.089 E12.07776
G1 X86.869 Y83.066 E12.08727
G1 X87.178 Y83.052 E12.09756
G1 X87.752 Y83.052 E12.11665
G1 X88.061 Y83.066 E12.12694
G1 X88.354 Y83.09 E12.13672
G1 X88.941 Y83.163 E12.15639
G1 X89.525 Y83.276 E12.17618
G1 X90.103 Y83.424 E12.19602
G1 X90.67 Y83.608 E12.21585
G1 X90.926 Y83.705 E12.22495
G1 X91.475 Y83.943 E12.24485
G1 X91.74 Y84.072 E12.25466
G1 X92.269 Y84.363 E12.27474
G1 X92.771 Y84.681 E12.2945
G1 X93.256 Y85.033 E12.31443
G1 X93.465 Y85.2 E12.32333
G1 X93.93 Y85.611 E12.34397
G1 X94.13 Y85.804 E12.35322
G1 X94.54 Y86.241 E12.37315
G1 X94.737 Y86.471 E12.38322
G1 X94.922 Y86.702 E12.39306
G1 X95.264 Y87.172 E12.4124
G1 X95.427 Y87.419 E12.42224
G1 X95.581 Y87.671 E12.43206
G1 X95.737 Y87.945 E12.44255
G1 X95.999 Y88.458 E12.46171
G1 X96.118 Y88.72 E12.47128
G1 X96.339 Y89.277 E12.49121
G1 X96.439 Y89.57 E12.50151
G1 X96.523 Y89.841 E12.51094
G1 X96.601 Y90.126 E12.52077
G1 X96.67 Y90.416 E12.53069
G1 X96.733 Y90.718 E12.54095
G1 X96.782 Y90.999 E12.55043
G1 X96.826 Y91.304 E12.56068
G1 X96.881 Y91.88 E12.57993
G1 X96.895 Y92.188 E12.59018
G1 X96.9 Y92.467 E12.59946
G1 X96.88 Y93.085 E12.62003
G1 X96.827 Y93.654 E12.63904
G1 X96.732 Y94.253 E12.65921
G1 X96.606 Y94.82 E12.67853
G1 X96.529 Y95.105 E12.68835
G1 X96.346 Y95.669 E12.70807
G1 X96.128 Y96.22 E12.72778
G1 X95.87 Y96.767 E12.74789
G1 X95.582 Y97.294 E12.76787
G1 X95.437 Y97.53 E12.77708
G1 X95.264 Y97.793 E12.78755
G1 X94.926 Y98.258 E12.80667
G1 X94.741 Y98.489 E12.81651
G1 X94.342 Y98.943 E12.83661
G1 X94.144 Y99.147 E12.84607
G1 X93.927 Y99.357 E12.85611
G1 X93.487 Y99.747 E12.87567
G1 X93.259 Y99.93 E12.88539
G1 X92.775 Y100.281 E12.90528
G1 X92.265 Y100.605 E12.92537
G1 X91.746 Y100.891 E12.94508
G1 X91.218 Y101.138 E12.96447
G1 X90.936 Y101.256 E12.97464
G1 X90.389 Y101.453 E12.99398
G1 X90.101 Y101.542 E13.004
G1 X89.53 Y101.69 E13.02362
G1 X88.943 Y101.801 E13.04349
G1 X88.657 Y101.841 E13.0531
G1 X88.344 Y101.876 E13.06357
G1 X88.065 Y101.898 E13.07288
G0 F3600 X88.06 Y101.799
G0 X94.665 Y98.425
G0 X95.045 Y98.749
;TYPE:WALL-OUTER
G1 F900 X94.636 Y99.213 E13.09345
G1 X94.422 Y99.434 E13.10368
G1 X94.199 Y99.65 E13.11401
G1 X93.737 Y100.059 E13.13453
G1 X93.494 Y100.254 E13.1449
G1 X92.996 Y100.615 E13.16535
G1 X92.469 Y100.95 E13.18612
G1 X91.936 Y101.243 E13.20635
G1 X91.373 Y101.507 E13.22703
G1 X91.082 Y101.629 E13.23753
G1 X90.799 Y101.735 E13.24758
G1 X90.507 Y101.835 E13.25785
G1 X90.212 Y101.926 E13.26811
G1 X89.613 Y102.081 E13.28869
G1 X89.304 Y102.144 E13.29918
G1 X89.007 Y102.196 E13.30921
G1 X88.701 Y102.239 E13.31949
G1 X88.387 Y102.274 E13.33
G1 X88.086 Y102.298 E13.34004
G1 X87.771 Y102.312 E13.35053
G1 X87.468 Y102.317 E13.36061
G1 X86.841 Y102.298 E13.38147
G1 X86.54 Y102.274 E13.39151
G1 X85.924 Y102.197 E13.41216
G1 X85.326 Y102.082 E13.43241
G1 X84.715 Y101.925 E13.4534
G1 X84.128 Y101.734 E13.47393
G1 X83.847 Y101.628 E13.48392
G1 X83.28 Y101.382 E13.50447
G1 X82.997 Y101.244 E13.51495
G1 X82.462 Y100.95 E13.53525
G1 X81.931 Y100.613 E13.55617
G1 X81.436 Y100.254 E13.57651
G1 X81.193 Y100.059 E13.58687
G1 X80.735 Y99.654 E13.6072
G1 X80.508 Y99.434 E13.61772
G1 X80.294 Y99.213 E13.62795
G1 X80.086 Y98.984 E13.63824
G1 X79.885 Y98.749 E13.64852
G1 X79.692 Y98.508 E13.65879
G1 X79.332 Y98.013 E13.67915
G1 X79.159 Y97.75 E13.68962
G1 X79.001 Y97.492 E13.69968
G1 X78.845 Y97.218 E13.71017
G1 X78.563 Y96.664 E13.73085
G1 X78.437 Y96.385 E13.74103
G1 X78.32 Y96.101 E13.75124
G1 X78.21 Y95.811 E13.76156
G1 X78.11 Y95.518 E13.77186
G1 X78.019 Y95.223 E13.78212
G1 X77.938 Y94.925 E13.7924
G1 X77.867 Y94.626 E13.80262
G1 X77.804 Y94.322 E13.81294
G1 X77.751 Y94.018 E13.82321
G1 X77.707 Y93.711 E13.83352
G1 X77.649 Y93.103 E13.85384
G1 X77.635 Y92.788 E13.86432
G1 X77.63 Y92.486 E13.87437
G1 X77.65 Y91.862 E13.89513
G1 X77.707 Y91.256 E13.91538
G1 X77.806 Y90.633 E13.93636
G1 X77.938 Y90.04 E13.95657
