;FLAVOR:Marlin
;TIME:307
;Filament used: 0.149568m
;Layer height: 0.14
;Generated with Cura_SteamEngine 3.6.0
M140 S60
M105
M190 S60
M104 S205
M105
M109 S205
M82 ;absolute extrusion mode
G21 ;metric values
G90 ;absolute positioning
M82 ;set extruder to absolute mode
M107 ;start with the fan off
G28 X0 Y0 ;move X/Y to min endstops
G28 Z0 ;move Z to min endstops
G1 Z15.0 F120 ;move the platform down 15mm
G92 E0 ;zero the extruded length
G1 F200 E6 ;extrude 6 mm of feed stock
G92 E0 ;zero the extruded length again
M117 Printing...
G1 F120
G92 E0
G1 F2400 E-2.5
;LAYER_COUNT:25
;LAYER:0
M107
G0 F3600 X89.8 Y88.981 Z0.2
;TYPE:SKIRT
G1 F2400 E0
G1 F900 X90.128 Y88.682 E0.01476
G1 X90.944 Y88.017 E0.04977
G1 X91.298 Y87.76 E0.06432
G1 X92.395 Y87.05 E0.10778
G1 X92.812 Y86.814 E0.12372
G1 X94.024 Y86.222 E0.16858
G1 X94.498 Y86.027 E0.18563
G1 X95.89 Y85.556 E0.23451
G1 X96.391 Y85.422 E0.25176
G1 X97.732 Y85.155 E0.29723
G1 X98.188 Y85.091 E0.31255
G1 X99.377 Y84.994 E0.35223
G1 X99.846 Y84.984 E0.36783
G1 X101.29 Y85.036 E0.41589
G1 X101.769 Y85.082 E0.43189
G1 X102.872 Y85.256 E0.46903
G1 X103.413 Y85.38 E0.48749
G1 X105.284 Y85.949 E0.55254
G1 X105.808 Y86.149 E0.57119
G1 X106.861 Y86.639 E0.60982
G1 X107.265 Y86.857 E0.62509
G1 X108.414 Y87.562 E0.66993
G1 X108.828 Y87.853 E0.68676
G1 X109.975 Y88.775 E0.7357
G1 X110.354 Y89.122 E0.75279
G1 X111.28 Y90.086 E0.79725
G1 X111.596 Y90.459 E0.81351
G1 X112.42 Y91.559 E0.85923
G1 X112.697 Y91.981 E0.87602
G1 X113.39 Y93.201 E0.92268
G1 X113.606 Y93.643 E0.93904
G1 X114.113 Y94.864 E0.98302
G1 X114.275 Y95.334 E0.99955
G1 X114.649 Y96.689 E1.0463
G1 X114.752 Y97.179 E1.06296
G1 X114.943 Y98.497 E1.10725
G1 X114.983 Y98.994 E1.12384
G1 X115.012 Y100.496 E1.1738
G1 X114.98 Y101.086 E1.19345
G1 X114.769 Y102.718 E1.24819
G1 X114.68 Y103.187 E1.26406
G1 X114.412 Y104.245 E1.30037
G1 X114.294 Y104.629 E1.31373
G1 X113.939 Y105.606 E1.3483
G1 X113.741 Y106.06 E1.36477
G1 X112.986 Y107.538 E1.41997
G1 X112.703 Y108.009 E1.43825
G1 X111.885 Y109.18 E1.48576
G1 X111.565 Y109.581 E1.50282
G1 X110.628 Y110.611 E1.54914
G1 X110.266 Y110.962 E1.56591
G1 X109.236 Y111.841 E1.61094
G1 X108.844 Y112.135 E1.62724
G1 X107.68 Y112.904 E1.67364
G1 X107.131 Y113.208 E1.69451
G1 X105.257 Y114.06 E1.76298
G1 X104.666 Y114.275 E1.7839
G1 X103.312 Y114.649 E1.83062
G1 X102.816 Y114.752 E1.84747
G1 X101.473 Y114.945 E1.8926
G1 X100.982 Y114.985 E1.90898
G1 X99.593 Y115.012 E1.95519
G1 X99.091 Y114.99 E1.9719
G1 X97.722 Y114.844 E2.01769
G1 X97.114 Y114.732 E2.03826
G1 X95.121 Y114.2 E2.10686
G1 X94.502 Y113.978 E2.12874
G1 X93.178 Y113.378 E2.17708
G1 X92.729 Y113.14 E2.19398
G1 X91.529 Y112.4 E2.24088
G1 X91.118 Y112.108 E2.25764
G1 X90.037 Y111.236 E2.30384
G1 X89.672 Y110.903 E2.32027
G1 X88.752 Y109.951 E2.3643
G1 X88.442 Y109.59 E2.38013
G1 X87.653 Y108.551 E2.42352
G1 X87.379 Y108.139 E2.43998
G1 X86.672 Y106.92 E2.48685
G1 X86.393 Y106.334 E2.50844
G1 X85.62 Y104.3 E2.58081
G1 X85.44 Y103.68 E2.60228
G1 X85.166 Y102.339 E2.6478
G1 X85.099 Y101.871 E2.66353
G1 X84.993 Y100.603 E2.70585
G1 X84.981 Y100.14 E2.72125
G1 X85.022 Y98.879 E2.76322
G1 X85.064 Y98.419 E2.77858
G1 X85.259 Y97.112 E2.82253
G1 X85.351 Y96.669 E2.83758
G1 X85.615 Y95.681 E2.8716
G1 X85.759 Y95.243 E2.88693
G1 X86.364 Y93.713 E2.94165
G1 X86.62 Y93.184 E2.9612
G1 X87.42 Y91.798 E3.01443
G1 X87.701 Y91.376 E3.03129
G1 X88.414 Y90.439 E3.07045
G1 X88.742 Y90.059 E3.08715
G1 X89.8 Y88.981 E3.13738
G0 F3600 X90.086 Y89.261
G1 F900 X90.381 Y88.992 E3.15066
G1 X91.197 Y88.327 E3.18567
G1 X91.515 Y88.096 E3.19875
G1 X92.612 Y87.386 E3.24221
G1 X92.988 Y87.173 E3.25658
G1 X94.2 Y86.581 E3.30144
G1 X94.626 Y86.406 E3.31676
G1 X96.018 Y85.935 E3.36564
G1 X96.469 Y85.814 E3.38117
G1 X97.81 Y85.547 E3.42665
G1 X98.22 Y85.49 E3.44041
G1 X99.409 Y85.393 E3.48009
G1 X99.832 Y85.383 E3.49416
G1 X101.276 Y85.435 E3.54222
G1 X101.707 Y85.477 E3.55663
G1 X102.81 Y85.651 E3.59377
G1 X103.296 Y85.763 E3.61035
G1 X105.167 Y86.332 E3.6754
G1 X105.639 Y86.512 E3.6922
G1 X106.692 Y87.002 E3.73083
G1 X107.056 Y87.198 E3.74458
G1 X108.205 Y87.903 E3.78942
G1 X108.577 Y88.165 E3.80455
G1 X109.724 Y89.087 E3.8535
G1 X110.065 Y89.399 E3.86887
G1 X110.991 Y90.363 E3.91333
G1 X111.276 Y90.699 E3.92798
G1 X112.1 Y91.799 E3.97369
G1 X112.349 Y92.179 E3.9888
G1 X113.042 Y93.399 E4.03547
G1 X113.237 Y93.796 E4.05018
G1 X113.744 Y95.017 E4.09415
G1 X113.889 Y95.44 E4.10903
G1 X114.263 Y96.795 E4.15578
G1 X114.356 Y97.237 E4.1708
G1 X114.547 Y98.555 E4.2151
G1 X114.583 Y99.002 E4.23001
G1 X114.612 Y100.504 E4.27998
G1 X114.583 Y101.035 E4.29767
G1 X114.372 Y102.667 E4.3524
G1 X114.292 Y103.089 E4.36668
G1 X114.024 Y104.147 E4.40299
G1 X113.918 Y104.492 E4.41499
G1 X113.563 Y105.469 E4.44956
G1 X113.385 Y105.878 E4.4644
G1 X112.63 Y107.356 E4.5196
G1 X112.375 Y107.78 E4.53606
G1 X111.557 Y108.951 E4.58357
G1 X111.269 Y109.312 E4.59893
G1 X110.332 Y110.342 E4.64524
G1 X110.006 Y110.657 E4.66032
G1 X108.976 Y111.536 E4.70535
G1 X108.623 Y111.802 E4.72005
G1 X107.459 Y112.571 E4.76645
G1 X106.965 Y112.844 E4.78523
G1 X105.091 Y113.696 E4.8537
G1 X104.559 Y113.889 E4.87252
G1 X103.205 Y114.263 E4.91924
G1 X102.759 Y114.356 E4.93439
G1 X101.416 Y114.549 E4.97952
G1 X100.974 Y114.585 E4.99427
G1 X99.585 Y114.612 E5.04048
G1 X99.133 Y114.593 E5.05552
G1 X97.764 Y114.447 E5.10131
G1 X97.218 Y114.345 E5.11979
G1 X95.225 Y113.813 E5.1884
G1 X94.667 Y113.614 E5.2081
G1 X93.343 Y113.014 E5.25645
G1 X92.939 Y112.799 E5.27167
G1 X91.739 Y112.059 E5.31856
G1 X91.369 Y111.797 E5.33364
G1 X90.288 Y110.925 E5.37983
G1 X89.959 Y110.625 E5.39464
G1 X89.039 Y109.673 E5.43867
G1 X88.761 Y109.348 E5.4529
G1 X87.972 Y108.309 E5.49629
G1 X87.725 Y107.938 E5.51112
G1 X87.018 Y106.719 E5.55799
G1 X86.767 Y106.192 E5.5774
G1 X85.994 Y104.158 E5.64977
G1 X85.832 Y103.6 E5.6691
G1 X85.558 Y102.259 E5.71462
G1 X85.498 Y101.838 E5.72876
G1 X85.392 Y100.57 E5.77109
G1 X85.381 Y100.153 E5.78496
G1 X85.422 Y98.892 E5.82692
G1 X85.459 Y98.478 E5.84075
G1 X85.654 Y97.171 E5.8847
G1 X85.737 Y96.773 E5.89822
G1 X86.001 Y95.785 E5.93224
G1 X86.131 Y95.39 E5.94607
G1 X86.736 Y93.86 E6.00079
G1 X86.966 Y93.384 E6.01837
G1 X87.766 Y91.998 E6.0716
G1 X88.019 Y91.618 E6.08678
G1 X88.732 Y90.681 E6.12594
G1 X89.028 Y90.339 E6.14099
G1 X90.086 Y89.261 E6.19123
G0 F3600 X90.371 Y89.542
G1 F900 X90.633 Y89.302 E6.20304
G1 X91.449 Y88.637 E6.23805
G1 X91.732 Y88.432 E6.24968
G1 X92.829 Y87.722 E6.29314
G1 X93.164 Y87.533 E6.30593
G1 X94.376 Y86.941 E6.35079
G1 X94.754 Y86.785 E6.3644
G1 X96.146 Y86.314 E6.41327
G1 X96.547 Y86.207 E6.42708
G1 X97.888 Y85.94 E6.47255
G1 X98.253 Y85.889 E6.48481
G1 X99.442 Y85.792 E6.52449
G1 X99.817 Y85.783 E6.53697
G1 X101.261 Y85.835 E6.58502
G1 X101.645 Y85.872 E6.59786
G1 X102.748 Y86.046 E6.63499
G1 X103.18 Y86.145 E6.64974
G1 X105.051 Y86.714 E6.71478
G1 X105.47 Y86.875 E6.72971
G1 X106.523 Y87.365 E6.76834
G1 X106.847 Y87.538 E6.78055
G1 X107.996 Y88.243 E6.82539
G1 X108.327 Y88.477 E6.83887
G1 X109.474 Y89.399 E6.88782
G1 X109.777 Y89.676 E6.90147
G1 X110.703 Y90.64 E6.94593
G1 X110.956 Y90.938 E6.95893
G1 X111.78 Y92.038 E7.00465
G1 X112.001 Y92.376 E7.01808
G1 X112.694 Y93.596 E7.06475
G1 X112.867 Y93.95 E7.07785
G1 X113.374 Y95.171 E7.12182
G1 X113.504 Y95.547 E7.13506
G1 X113.878 Y96.902 E7.18181
G1 X113.96 Y97.294 E7.19513
G1 X114.151 Y98.612 E7.23942
G1 X114.183 Y99.009 E7.25267
G1 X114.212 Y100.511 E7.30264
G1 X114.187 Y100.983 E7.31836
G1 X113.976 Y102.615 E7.37309
G1 X113.904 Y102.991 E7.38582
G1 X113.636 Y104.049 E7.42212
G1 X113.542 Y104.356 E7.4328
G1 X113.187 Y105.333 E7.46738
G1 X113.029 Y105.696 E7.48054
G1 X112.274 Y107.174 E7.53574
G1 X112.047 Y107.551 E7.55038
G1 X111.229 Y108.722 E7.59789
G1 X110.973 Y109.042 E7.61152
G1 X110.036 Y110.072 E7.65783
G1 X109.746 Y110.353 E7.67126
G1 X108.716 Y111.232 E7.7163
G1 X108.403 Y111.468 E7.72934
G1 X107.239 Y112.237 E7.77574
G1 X106.799 Y112.48 E7.79246
G1 X104.925 Y113.332 E7.86093
G1 X104.453 Y113.503 E7.87762
G1 X103.099 Y113.877 E7.92434
G1 X102.702 Y113.96 E7.93783
G1 X101.359 Y114.153 E7.98296
G1 X100.966 Y114.185 E7.99607
G1 X99.577 Y114.212 E8.04228
G1 X99.176 Y114.195 E8.05563
G1 X97.807 Y114.049 E8.10142
G1 X97.321 Y113.959 E8.11786
G1 X95.328 Y113.427 E8.18647
G1 X94.832 Y113.25 E8.20399
G1 X93.508 Y112.65 E8.25233
G1 X93.149 Y112.459 E8.26586
G1 X91.949 Y111.719 E8.31275
G1 X91.62 Y111.486 E8.32616
G1 X90.539 Y110.614 E8.37235
G1 X90.247 Y110.347 E8.38551
G1 X89.327 Y109.395 E8.42955
G1 X89.08 Y109.106 E8.44219
G1 X88.291 Y108.067 E8.48558
G1 X88.071 Y107.737 E8.49877
G1 X87.364 Y106.518 E8.54564
G1 X87.141 Y106.05 E8.56289
G1 X86.368 Y104.016 E8.63526
G1 X86.224 Y103.52 E8.65244
G1 X85.95 Y102.179 E8.69796
G1 X85.896 Y101.805 E8.71053
G1 X85.79 Y100.537 E8.75285
G1 X85.781 Y100.166 E8.76519
G1 X85.822 Y98.905 E8.80715
G1 X85.855 Y98.537 E8.81944
G1 X86.05 Y97.23 E8.8634
G1 X86.123 Y96.876 E8.87542
G1 X86.387 Y95.888 E8.90943
G1 X86.503 Y95.537 E8.92173
G1 X87.108 Y94.007 E8.97645
G1 X87.313 Y93.584 E8.99208
G1 X88.113 Y92.198 E9.04531
G1 X88.337 Y91.86 E9.0588
G1 X89.05 Y90.923 E9.09796
G1 X89.313 Y90.62 E9.1113
G1 X90.371 Y89.542 E9.16154
G1 F2400 E6.66154
;MESH:cust_fidget_ring_v1_5_Spinner20190112-49-1dgyux4.stl
G0 F3600 X95.019 Y89.413
G0 X95.853 Y90.445
G0 X99.039 Y89.871
G0 X100.638 Y89.846
G0 X101.917 Y90.027
G0 X103.471 Y90.373
G0 X103.437 Y90.466
;TYPE:WALL-INNER
G1 F2400 E9.16154
G1 F900 X103.423 Y90.462 E9.16202
G1 X103.132 Y90.361 E9.17227
G1 X102.841 Y90.272 E9.18239
G1 X102.828 Y90.268 E9.18284
G1 X102.52 Y90.184 E9.19346
G1 X102.211 Y90.11 E9.20403
G1 X101.901 Y90.045 E9.21456
G1 X101.583 Y89.988 E9.22531
G1 X101.3 Y89.953 E9.23479
G1 X100.957 Y89.91 E9.24629
G1 X100.636 Y89.885 E9.257
G1 X100.317 Y89.87 E9.26762
G1 X99.996 Y89.865 E9.2783
G1 X99.69 Y89.874 E9.28848
G1 X99.368 Y89.884 E9.2992
G1 X99.043 Y89.91 E9.31004
G1 X98.777 Y89.943 E9.31895
G1 X98.414 Y89.989 E9.33112
G1 X98.113 Y90.047 E9.34132
G1 X97.788 Y90.11 E9.35233
G1 X97.477 Y90.189 E9.363
G1 X97.195 Y90.262 E9.37269
G1 X97.172 Y90.268 E9.37348
G1 X96.896 Y90.357 E9.38313
G1 X96.571 Y90.463 E9.3945
G1 X96.265 Y90.579 E9.40538
G1 X95.968 Y90.707 E9.41614
G1 X95.685 Y90.829 E9.42639
G1 X95.393 Y90.977 E9.43728
G1 X95.117 Y91.118 E9.44759
G1 X94.846 Y91.278 E9.45805
G1 X94.57 Y91.442 E9.46873
G1 X94.298 Y91.626 E9.47965
G1 X94.043 Y91.8 E9.48992
G1 X93.54 Y92.191 E9.51111
G1 X93.335 Y92.371 E9.52018
G1 X93.062 Y92.611 E9.53227
G1 X92.858 Y92.815 E9.54187
G1 X92.611 Y93.062 E9.55349
G1 X92.4 Y93.303 E9.56414
G1 X92.191 Y93.54 E9.57465
G1 X91.817 Y94.021 E9.59492
G1 X91.803 Y94.039 E9.59567
G1 X91.618 Y94.302 E9.60637
G1 X91.44 Y94.573 E9.61715
G1 X91.276 Y94.85 E9.62786
G1 X91.118 Y95.115 E9.63812
G1 X90.97 Y95.407 E9.64901
G1 X90.83 Y95.682 E9.65927
G1 X90.696 Y95.979 E9.67011
G1 X90.574 Y96.291 E9.68125
G1 X90.466 Y96.563 E9.69099
G1 X90.361 Y96.868 E9.70172
G1 X90.268 Y97.172 E9.71229
G1 X90.184 Y97.48 E9.72291
G1 X90.178 Y97.506 E9.7238
G1 X90.11 Y97.789 E9.73348
G1 X90.045 Y98.099 E9.74401
G1 X89.988 Y98.417 E9.75476
G1 X89.984 Y98.453 E9.75596
G1 X89.949 Y98.736 E9.76544
G1 X89.91 Y99.043 E9.77574
G1 X89.887 Y99.346 E9.78584
G1 X89.885 Y99.364 E9.78645
G1 X89.87 Y99.682 E9.79704
G1 X89.865 Y100.005 E9.80778
G1 X89.874 Y100.314 E9.81806
G1 X89.884 Y100.632 E9.82864
G1 X89.906 Y100.916 E9.83812
G1 X89.91 Y100.957 E9.83949
G1 X89.943 Y101.23 E9.84863
G1 X89.985 Y101.561 E9.85973
G1 X89.989 Y101.586 E9.86057
G1 X90.047 Y101.889 E9.87083
G1 X90.11 Y102.212 E9.88178
G1 X90.186 Y102.511 E9.89204
G1 X90.268 Y102.828 E9.90293
G1 X90.363 Y103.122 E9.91321
G1 X90.464 Y103.433 E9.92408
G1 X90.698 Y104.025 E9.94526
G1 X90.83 Y104.306 E9.95558
G1 X90.967 Y104.596 E9.96625
G1 X91.12 Y104.887 E9.97718
G1 X91.275 Y105.149 E9.98731
G1 X91.442 Y105.431 E9.99821
G1 X91.623 Y105.698 E10.00894
G1 X91.8 Y105.958 E10.0194
G1 X91.995 Y106.209 E10.02997
G1 X92.191 Y106.461 E10.04059
G1 X92.394 Y106.691 E10.05079
G1 X92.611 Y106.938 E10.06173
G1 X92.838 Y107.165 E10.07241
G1 X93.062 Y107.389 E10.08294
G1 X93.297 Y107.596 E10.09336
G1 X93.54 Y107.809 E10.10411
G1 X93.779 Y107.994 E10.11416
G1 X94.043 Y108.2 E10.1253
G1 X94.301 Y108.376 E10.13568
G1 X94.569 Y108.558 E10.14646
G1 X95.115 Y108.882 E10.16757
G1 X95.391 Y109.022 E10.17787
G1 X95.682 Y109.17 E10.18873
G1 X95.979 Y109.304 E10.19956
G1 X96.277 Y109.422 E10.21022
G1 X96.563 Y109.535 E10.22045
G1 X96.869 Y109.639 E10.2312
G1 X97.159 Y109.728 E10.24129
G1 X97.172 Y109.732 E10.24174
G1 X97.48 Y109.816 E10.25236
G1 X97.789 Y109.89 E10.26293
G1 X97.8 Y109.892 E10.2633
G1 X98.099 Y109.955 E10.27346
G1 X98.417 Y110.012 E10.28421
G1 X98.736 Y110.051 E10.2949
G1 X99.043 Y110.09 E10.30519
G1 X99.364 Y110.115 E10.3159
G1 X99.683 Y110.13 E10.32652
G1 X100.004 Y110.135 E10.3372
G1 X100.308 Y110.126 E10.34731
G1 X100.632 Y110.116 E10.3581
G1 X100.957 Y110.09 E10.36894
G1 X101.279 Y110.05 E10.37973
G1 X101.586 Y110.011 E10.39003
G1 X101.887 Y109.953 E10.40022
G1 X102.212 Y109.89 E10.41123
G1 X102.515 Y109.813 E10.42163
G1 X102.828 Y109.732 E10.43238
G1 X103.139 Y109.632 E10.44325
G1 X103.433 Y109.536 E10.45354
G1 X103.72 Y109.423 E10.46379
G1 X104.025 Y109.302 E10.47471
G1 X104.308 Y109.169 E10.48511
G1 X104.596 Y109.033 E10.4957
G1 X104.605 Y109.028 E10.49604
G1 X104.887 Y108.88 E10.50664
G1 X105.153 Y108.722 E10.51693
G1 X105.427 Y108.56 E10.52751
G1 X105.702 Y108.38 E10.53845
G1 X106.208 Y108.011 E10.55927
G1 X106.219 Y108.002 E10.55975
G1 X106.464 Y107.807 E10.57016
G1 X106.702 Y107.598 E10.5807
G1 X106.938 Y107.389 E10.59118
G1 X107.161 Y107.166 E10.60167
G1 X107.389 Y106.938 E10.6124
G1 X107.605 Y106.692 E10.62328
G1 X107.809 Y106.461 E10.63353
G1 X108.2 Y105.958 E10.65472
G1 X108.383 Y105.688 E10.66557
G1 X108.558 Y105.431 E10.67591
G1 X108.724 Y105.151 E10.68674
G1 X108.88 Y104.887 E10.69694
G1 X109.033 Y104.596 E10.70787
G1 X109.165 Y104.316 E10.71817
G1 X109.302 Y104.025 E10.72887
G1 X109.422 Y103.722 E10.73971
G1 X109.535 Y103.437 E10.7499
G1 X109.639 Y103.131 E10.76065
G1 X109.728 Y102.839 E10.77081
G1 X109.732 Y102.828 E10.7712
G1 X109.816 Y102.52 E10.78181
G1 X109.89 Y102.211 E10.79238
G1 X109.892 Y102.198 E10.79282
G1 X109.955 Y101.901 E10.80292
G1 X110.012 Y101.583 E10.81366
G1 X110.051 Y101.27 E10.82415
G1 X110.09 Y100.957 E10.83464
G1 X110.115 Y100.636 E10.84535
G1 X110.129 Y100.328 E10.85561
G1 X110.13 Y100.317 E10.85598
G1 X110.135 Y99.996 E10.86665
G1 X110.126 Y99.695 E10.87667
G1 X110.116 Y99.368 E10.88755
G1 X110.112 Y99.312 E10.88942
G1 X110.09 Y99.043 E10.89839
G1 X110.051 Y98.731 E10.90885
G1 X110.011 Y98.414 E10.91948
G1 X109.949 Y98.091 E10.93042
G1 X109.89 Y97.788 E10.94069
G1 X109.812 Y97.484 E10.95112
G1 X109.732 Y97.172 E10.96184
G1 X109.635 Y96.872 E10.97232
G1 X109.536 Y96.567 E10.98299
G1 X109.416 Y96.263 E10.99386
G1 X109.302 Y95.975 E11.00416
G1 X109.169 Y95.691 E11.01459
G1 X109.033 Y95.404 E11.02516
G1 X108.891 Y95.133 E11.03533
G1 X108.88 Y95.113 E11.03609
G1 X108.727 Y94.855 E11.04607
G1 X108.56 Y94.573 E11.05697
G1 X108.38 Y94.298 E11.0679
G1 X108.194 Y94.043 E11.0784
G1 X108.011 Y93.792 E11.08873
G1 X107.807 Y93.536 E11.09962
G1 X107.598 Y93.298 E11.11015
G1 X107.389 Y93.062 E11.12064
G1 X107.157 Y92.83 E11.13155
G1 X106.948 Y92.621 E11.14138
G1 X106.938 Y92.611 E11.14185
G1 X106.692 Y92.395 E11.15274
G1 X106.484 Y92.212 E11.16195
G1 X106.46 Y92.191 E11.16301
G1 X106.209 Y91.996 E11.17358
G1 X105.961 Y91.803 E11.18404
G1 X105.698 Y91.618 E11.19473
G1 X105.427 Y91.44 E11.20552
G1 X104.885 Y91.118 E11.22648
G1 X104.318 Y90.83 E11.24764
G1 X104.021 Y90.696 E11.25847
G1 X103.437 Y90.466 E11.27935
G0 F3600 X103.471 Y90.373
G0 X105.448 Y91.407
G0 X106.485 Y92.161
G0 X107.418 Y93.035
G0 X108.412 Y94.276
G0 X108.783 Y94.905
G0 X109.925 Y97.117
G0 X110.021 Y97.092
G1 F900 X110.108 Y97.408 E11.2876
G1 X110.179 Y97.723 E11.2957
G1 X110.249 Y98.033 E11.30368
G1 X110.305 Y98.365 E11.31214
G1 X110.308 Y98.381 E11.31269
G1 X110.353 Y98.693 E11.3206
G1 X110.383 Y99.015 E11.32868
G1 X110.409 Y99.287 E11.33542
G1 X110.412 Y99.352 E11.33706
