;FLAVOR:Marlin
;TIME:1102
;Filament used: 0.385254m
;Layer height: 0.12
;Generated with Cura_SteamEngine 3.6.0
M140 S60
M105
M190 S60
M104 S200
M105
M109 S200
M82 ;absolute extrusion mode
G21 ;metric values
G90 ;absolute positioning
M82 ;set extruder to absolute mode
M107 ;start with the fan off
G28 X0 Y0 ;move X/Y to min endstops
G28 Z0 ;move Z to min endstops
G1 Z15.0 F120 ;move the platform down 15mm
G92 E0 ;zero the extruded length
G1 F200 E6 ;extrude 6 mm of feed stock
G92 E0 ;zero the extruded length again
M117 Printing...
G1 F120
G92 E0
G1 F2400 E-2.5
;LAYER_COUNT:50
;LAYER:0
M107
G0 F3600 X78.059 Y82.631 Z0.2
;TYPE:SKIRT
G1 F2400 E0
G1 F900 X78.726 Y82.03 E0.02986
G1 X79.071 Y81.755 E0.04454
G1 X80.196 Y80.967 E0.09022
G1 X80.689 Y80.677 E0.10924
G1 X82.405 Y79.844 E0.17269
G1 X82.982 Y79.623 E0.19324
G1 X84.397 Y79.216 E0.24221
G1 X84.913 Y79.108 E0.25974
G1 X86.447 Y78.902 E0.31122
G1 X87.143 Y78.877 E0.33439
G1 X89.428 Y79.015 E0.41052
G1 X90.037 Y79.104 E0.43099
G1 X91.098 Y79.354 E0.46725
G1 X91.56 Y79.496 E0.48333
G1 X93.032 Y80.06 E0.53575
G1 X93.397 Y80.224 E0.54906
G1 X94.105 Y80.59 E0.57557
G1 X94.452 Y80.795 E0.58898
G1 X95.621 Y81.576 E0.63574
G1 X95.823 Y81.721 E0.64401
G1 X98.418 Y83.727 E0.7531
G1 X102.911 Y86.887 E0.9358
G1 X107.527 Y89.76 E1.11663
G1 X112.339 Y92.388 E1.29899
G1 X114.748 Y93.576 E1.38833
G1 X118.696 Y95.368 E1.53254
G1 X119.047 Y95.551 E1.5457
G1 X119.885 Y96.049 E1.57812
G1 X120.202 Y96.261 E1.59081
G1 X121.134 Y96.958 E1.62952
G1 X121.424 Y97.2 E1.64208
G1 X122.17 Y97.891 E1.6759
G1 X122.466 Y98.2 E1.69013
G1 X123.314 Y99.197 E1.73366
G1 X123.599 Y99.58 E1.74954
G1 X124.359 Y100.76 E1.79623
G1 X124.576 Y101.148 E1.81101
G1 X125.041 Y102.114 E1.84667
G1 X125.226 Y102.577 E1.86325
G1 X125.721 Y104.123 E1.91724
G1 X125.837 Y104.596 E1.93344
G1 X126.033 Y105.707 E1.97096
G1 X126.083 Y106.14 E1.98546
G1 X126.153 Y107.449 E2.02906
G1 X126.146 Y107.931 E2.04509
G1 X126.036 Y109.29 E2.09044
G1 X125.973 Y109.732 E2.10529
G1 X125.742 Y110.844 E2.14307
G1 X125.628 Y111.264 E2.15754
G1 X125.219 Y112.475 E2.20006
G1 X125.045 Y112.898 E2.21527
G1 X124.461 Y114.098 E2.25966
G1 X124.2 Y114.549 E2.27699
G1 X123.39 Y115.739 E2.32487
G1 X123.015 Y116.202 E2.34468
G1 X121.668 Y117.61 E2.40949
G1 X121.278 Y117.962 E2.42697
G1 X120.516 Y118.555 E2.45908
G1 X120.171 Y118.793 E2.47302
G1 X118.978 Y119.516 E2.51942
G1 X118.583 Y119.723 E2.53425
G1 X117.573 Y120.175 E2.57105
G1 X117.212 Y120.313 E2.58391
G1 X116.333 Y120.598 E2.61464
G1 X115.948 Y120.7 E2.62789
G1 X114.6 Y120.977 E2.67366
G1 X114.091 Y121.044 E2.69074
G1 X112.612 Y121.133 E2.74002
G1 X112.117 Y121.129 E2.75648
G1 X110.844 Y121.03 E2.79895
G1 X110.397 Y120.967 E2.81396
G1 X109.183 Y120.717 E2.85519
G1 X108.789 Y120.612 E2.86875
G1 X107.836 Y120.3 E2.9021
G1 X107.381 Y120.116 E2.91843
G1 X105.825 Y119.359 E2.97598
G1 X105.258 Y119.016 E2.99802
G1 X99.635 Y114.854 E3.2307
G1 X95.085 Y111.82 E3.41259
G1 X90.391 Y109.058 E3.59374
G1 X85.526 Y106.555 E3.77571
G1 X81.3 Y104.63 E3.93016
G1 X80.953 Y104.449 E3.94318
G1 X80.115 Y103.951 E3.9756
G1 X79.798 Y103.739 E3.98828
G1 X78.866 Y103.042 E4.02699
G1 X78.576 Y102.8 E4.03955
G1 X77.83 Y102.109 E4.07337
G1 X77.534 Y101.8 E4.08761
G1 X76.686 Y100.803 E4.13114
G1 X76.401 Y100.42 E4.14702
G1 X75.64 Y99.238 E4.19377
G1 X75.423 Y98.851 E4.20853
G1 X74.957 Y97.883 E4.24426
G1 X74.809 Y97.527 E4.25709
G1 X74.495 Y96.644 E4.28826
G1 X74.389 Y96.288 E4.30061
G1 X74.1 Y95.098 E4.34134
G1 X74.022 Y94.659 E4.35617
G1 X73.879 Y93.414 E4.39785
G1 X73.859 Y92.841 E4.41692
G1 X73.948 Y90.863 E4.48278
G1 X74.048 Y90.166 E4.5062
G1 X74.492 Y88.36 E4.56805
G1 X74.709 Y87.733 E4.59012
G1 X75.502 Y85.983 E4.65402
G1 X75.806 Y85.443 E4.67463
G1 X76.611 Y84.261 E4.7222
G1 X76.909 Y83.88 E4.73829
G1 X77.792 Y82.898 E4.78221
G1 X78.059 Y82.631 E4.79477
G0 F3600 X78.327 Y82.928
G1 F900 X78.994 Y82.327 E4.82463
G1 X79.3 Y82.083 E4.83765
G1 X80.425 Y81.295 E4.88333
G1 X80.864 Y81.037 E4.90027
G1 X82.58 Y80.204 E4.96371
G1 X83.092 Y80.008 E4.98195
G1 X84.507 Y79.601 E5.03092
G1 X84.966 Y79.504 E5.04652
G1 X86.5 Y79.298 E5.098
G1 X87.119 Y79.276 E5.1186
G1 X89.404 Y79.414 E5.19474
G1 X89.945 Y79.493 E5.21292
G1 X91.006 Y79.743 E5.24918
G1 X91.417 Y79.87 E5.26349
G1 X92.889 Y80.434 E5.31592
G1 X93.213 Y80.579 E5.32772
G1 X93.921 Y80.945 E5.35423
G1 X94.23 Y81.127 E5.36616
G1 X95.399 Y81.908 E5.41292
G1 X95.578 Y82.037 E5.42026
G1 X98.194 Y84.059 E5.53023
G1 X102.671 Y87.208 E5.71228
G1 X107.337 Y90.112 E5.89507
G1 X112.158 Y92.746 E6.07779
G1 X114.56 Y93.929 E6.16684
G1 X118.531 Y95.732 E6.3119
G1 X118.843 Y95.895 E6.32361
G1 X119.681 Y96.393 E6.35603
G1 X119.962 Y96.581 E6.36727
G1 X120.894 Y97.278 E6.40598
G1 X121.153 Y97.493 E6.41718
G1 X121.899 Y98.184 E6.451
G1 X122.162 Y98.459 E6.46365
G1 X123.01 Y99.456 E6.50719
G1 X123.262 Y99.796 E6.52126
G1 X124.022 Y100.976 E6.56794
G1 X124.215 Y101.321 E6.58109
G1 X124.68 Y102.287 E6.61675
G1 X124.845 Y102.699 E6.63151
G1 X125.34 Y104.245 E6.6855
G1 X125.443 Y104.665 E6.69989
G1 X125.639 Y105.776 E6.73741
G1 X125.683 Y106.161 E6.7503
G1 X125.753 Y107.47 E6.7939
G1 X125.748 Y107.899 E6.80817
G1 X125.638 Y109.258 E6.85352
G1 X125.581 Y109.651 E6.86672
G1 X125.35 Y110.763 E6.9045
G1 X125.249 Y111.136 E6.91735
G1 X124.84 Y112.347 E6.95986
G1 X124.685 Y112.723 E6.97339
G1 X124.101 Y113.923 E7.01778
G1 X123.869 Y114.324 E7.03319
G1 X123.059 Y115.514 E7.08107
G1 X122.726 Y115.925 E7.09866
G1 X121.379 Y117.333 E7.16347
G1 X121.032 Y117.646 E7.17901
G1 X120.27 Y118.239 E7.21113
G1 X119.964 Y118.451 E7.22351
G1 X118.771 Y119.174 E7.2699
G1 X118.419 Y119.358 E7.28312
G1 X117.409 Y119.81 E7.31992
G1 X117.089 Y119.933 E7.33132
G1 X116.21 Y120.218 E7.36206
G1 X115.867 Y120.309 E7.37386
G1 X114.519 Y120.586 E7.41963
G1 X114.067 Y120.645 E7.43479
G1 X112.588 Y120.734 E7.48407
G1 X112.148 Y120.73 E7.49871
G1 X110.875 Y120.631 E7.54117
G1 X110.478 Y120.575 E7.55451
G1 X109.264 Y120.325 E7.59573
G1 X108.913 Y120.232 E7.60781
G1 X107.96 Y119.92 E7.64116
G1 X107.556 Y119.757 E7.65565
G1 X106 Y119 E7.71321
G1 X105.496 Y118.694 E7.73282
G1 X99.868 Y114.529 E7.96569
G1 X95.304 Y111.485 E8.14815
G1 X90.576 Y108.703 E8.33061
G1 X85.713 Y106.201 E8.51251
G1 X81.465 Y104.266 E8.66776
G1 X81.157 Y104.105 E8.67932
G1 X80.319 Y103.607 E8.71174
G1 X80.038 Y103.419 E8.72299
G1 X79.106 Y102.722 E8.7617
G1 X78.847 Y102.507 E8.77289
G1 X78.101 Y101.816 E8.80671
G1 X77.838 Y101.541 E8.81937
G1 X76.99 Y100.544 E8.8629
G1 X76.737 Y100.203 E8.87703
G1 X75.976 Y99.021 E8.92378
G1 X75.784 Y98.677 E8.93689
G1 X75.318 Y97.709 E8.97262
G1 X75.186 Y97.393 E8.98401
G1 X74.872 Y96.51 E9.01518
G1 X74.777 Y96.193 E9.02618
G1 X74.488 Y95.003 E9.06691
G1 X74.419 Y94.613 E9.08009
G1 X74.276 Y93.368 E9.12177
G1 X74.258 Y92.859 E9.13871
G1 X74.347 Y90.881 E9.20456
G1 X74.437 Y90.261 E9.2254
G1 X74.881 Y88.455 E9.28726
G1 X75.073 Y87.898 E9.30685
G1 X75.866 Y86.148 E9.37076
G1 X76.136 Y85.668 E9.38907
G1 X76.941 Y84.486 E9.43664
G1 X77.206 Y84.147 E9.45095
G1 X78.089 Y83.165 E9.49487
G1 X78.327 Y82.928 E9.50604
G1 F2400 E7.00604
;MESH:cust_fidget_ring_v1_5_Ring20190112-49-b7bync.stl
G0 F3600 X80.899 Y84.034
G0 X81.451 Y84.724
G0 X86.318 Y85.238
G0 X86.333 Y85.336
;TYPE:WALL-OUTER
G1 F2400 E9.50604
G1 F900 X85.886 Y85.422 E9.52118
G1 X85.446 Y85.535 E9.53629
G1 X85.014 Y85.675 E9.5514
G1 X84.592 Y85.842 E9.56649
G1 X84.18 Y86.036 E9.58164
G1 X83.782 Y86.255 E9.59675
G1 X83.398 Y86.499 E9.61188
G1 X83.03 Y86.766 E9.627
G1 X82.681 Y87.055 E9.64207
G1 X82.348 Y87.367 E9.65725
G1 X82.038 Y87.698 E9.67233
G1 X81.748 Y88.048 E9.68745
G1 X81.48 Y88.416 E9.70259
G1 X81.238 Y88.799 E9.71766
G1 X81.019 Y89.198 E9.7328
G1 X80.825 Y89.609 E9.74792
G1 X80.658 Y90.031 E9.76301
G1 X80.517 Y90.464 E9.77816
G1 X80.404 Y90.904 E9.79327
G1 X80.319 Y91.351 E9.8084
G1 X80.262 Y91.801 E9.82349
G1 X80.233 Y92.256 E9.83865
G1 X80.233 Y92.709 E9.85372
G1 X80.262 Y93.164 E9.86888
G1 X80.319 Y93.614 E9.88397
G1 X80.404 Y94.061 E9.8991
G1 X80.517 Y94.501 E9.91421
G1 X80.658 Y94.934 E9.92936
G1 X80.825 Y95.356 E9.94445
G1 X81.019 Y95.767 E9.95957
G1 X81.238 Y96.166 E9.97471
G1 X81.48 Y96.549 E9.98978
G1 X81.748 Y96.917 E10.00492
G1 X82.038 Y97.267 E10.02003
G1 X82.348 Y97.598 E10.03512
G1 X82.681 Y97.91 E10.0503
G1 X83.03 Y98.199 E10.06537
G1 X83.398 Y98.466 E10.08049
G1 X83.782 Y98.71 E10.09562
G1 X84.18 Y98.929 E10.11073
G1 X84.592 Y99.123 E10.12588
G1 X85.014 Y99.29 E10.14097
G1 X85.446 Y99.43 E10.15608
G1 X85.886 Y99.543 E10.17118
G1 X86.333 Y99.629 E10.18632
G1 X86.784 Y99.685 E10.20144
G1 X87.238 Y99.714 E10.21657
G1 X87.692 Y99.714 E10.23167
G1 X88.146 Y99.685 E10.2468
G1 X88.597 Y99.629 E10.26192
G1 X89.044 Y99.543 E10.27706
G1 X89.484 Y99.43 E10.29217
G1 X89.916 Y99.29 E10.30727
G1 X90.338 Y99.123 E10.32237
G1 X90.75 Y98.929 E10.33751
G1 X91.148 Y98.71 E10.35262
G1 X91.532 Y98.466 E10.36775
G1 X91.9 Y98.199 E10.38288
G1 X92.249 Y97.91 E10.39795
G1 X92.582 Y97.598 E10.41312
G1 X92.892 Y97.267 E10.42821
G1 X93.182 Y96.917 E10.44333
G1 X93.45 Y96.549 E10.45847
G1 X93.692 Y96.166 E10.47354
G1 X93.911 Y95.767 E10.48867
G1 X94.105 Y95.356 E10.50379
G1 X94.272 Y94.934 E10.51888
G1 X94.413 Y94.501 E10.53403
G1 X94.526 Y94.061 E10.54914
G1 X94.611 Y93.614 E10.56427
G1 X94.668 Y93.164 E10.57936
G1 X94.697 Y92.709 E10.59452
G1 X94.697 Y92.256 E10.60959
G1 X94.668 Y91.801 E10.62476
G1 X94.611 Y91.351 E10.63984
G1 X94.526 Y90.904 E10.65498
G1 X94.413 Y90.464 E10.67008
G1 X94.272 Y90.031 E10.68523
G1 X94.105 Y89.609 E10.70033
G1 X93.911 Y89.198 E10.71544
G1 X93.692 Y88.799 E10.73058
G1 X93.45 Y88.416 E10.74565
G1 X93.182 Y88.048 E10.76079
G1 X92.892 Y87.698 E10.77591
G1 X92.582 Y87.367 E10.79099
G1 X92.249 Y87.055 E10.80617
G1 X91.9 Y86.766 E10.82124
G1 X91.532 Y86.499 E10.83636
G1 X91.148 Y86.255 E10.85149
G1 X90.75 Y86.036 E10.8666
G1 X90.338 Y85.842 E10.88175
G1 X89.916 Y85.675 E10.89684
G1 X89.484 Y85.535 E10.91195
G1 X89.044 Y85.422 E10.92706
G1 X88.597 Y85.336 E10.9422
G1 X88.146 Y85.28 E10.95731
G1 X87.692 Y85.251 E10.97244
G1 X87.238 Y85.251 E10.98754
G1 X86.784 Y85.28 E11.00268
G1 X86.333 Y85.336 E11.01779
G0 F3600 X86.137 Y85.373
G0 X86.12 Y85.275
G0 X87.693 Y85.212
G0 X89.052 Y85.383
G0 X90.353 Y85.806
G0 X91.554 Y86.466
G0 X92.61 Y87.339
G0 X93.483 Y88.394
G0 X94.141 Y89.594
G0 X94.565 Y90.896
G0 X94.702 Y91.996
G0 X94.969 Y98.685
G0 X95.045 Y98.749
G1 F900 X94.636 Y99.213 E11.03836
G1 X94.422 Y99.434 E11.0486
G1 X94.199 Y99.65 E11.05892
G1 X93.737 Y100.059 E11.07944
G1 X93.494 Y100.254 E11.08981
G1 X92.996 Y100.615 E11.11026
G1 X92.469 Y100.95 E11.13103
G1 X91.936 Y101.243 E11.15126
G1 X91.373 Y101.507 E11.17195
G1 X91.082 Y101.629 E11.18244
G1 X90.799 Y101.735 E11.19249
G1 X90.507 Y101.835 E11.20276
G1 X90.212 Y101.926 E11.21302
G1 X89.613 Y102.081 E11.2336
G1 X89.304 Y102.144 E11.24409
G1 X89.007 Y102.196 E11.25412
G1 X88.701 Y102.239 E11.2644
G1 X88.387 Y102.274 E11.27491
G1 X88.086 Y102.298 E11.28495
G1 X87.771 Y102.312 E11.29544
G1 X87.468 Y102.317 E11.30552
G1 X86.841 Y102.298 E11.32638
G1 X86.54 Y102.274 E11.33642
G1 X85.924 Y102.197 E11.35707
G1 X85.326 Y102.082 E11.37733
G1 X84.715 Y101.925 E11.39831
G1 X84.128 Y101.734 E11.41884
G1 X83.847 Y101.628 E11.42883
G1 X83.28 Y101.382 E11.44938
G1 X82.997 Y101.244 E11.45986
G1 X82.462 Y100.95 E11.48016
G1 X81.931 Y100.613 E11.50108
G1 X81.436 Y100.254 E11.52142
G1 X81.193 Y100.059 E11.53178
G1 X80.735 Y99.654 E11.55211
G1 X80.508 Y99.434 E11.56263
G1 X80.294 Y99.213 E11.57286
G1 X80.086 Y98.984 E11.58315
G1 X79.885 Y98.749 E11.59343
G1 X79.692 Y98.508 E11.6037
G1 X79.332 Y98.013 E11.62406
G1 X79.159 Y97.75 E11.63453
G1 X79.001 Y97.492 E11.64459
G1 X78.845 Y97.218 E11.65508
G1 X78.563 Y96.664 E11.67576
G1 X78.437 Y96.385 E11.68594
G1 X78.32 Y96.101 E11.69615
G1 X78.21 Y95.811 E11.70647
G1 X78.11 Y95.518 E11.71677
G1 X78.019 Y95.223 E11.72704
G1 X77.938 Y94.925 E11.73731
G1 X77.867 Y94.626 E11.74753
G1 X77.804 Y94.322 E11.75785
G1 X77.751 Y94.018 E11.76812
G1 X77.707 Y93.711 E11.77843
G1 X77.649 Y93.103 E11.79875
G1 X77.635 Y92.788 E11.80923
G1 X77.63 Y92.486 E11.81928
G1 X77.65 Y91.862 E11.84004
G1 X77.707 Y91.256 E11.86029
G1 X77.806 Y90.633 E11.88127
G1 X77.938 Y90.04 E11.90148
G1 X78.021 Y89.736 E11.91196
G1 X78.209 Y89.157 E11.9322
G1 X78.441 Y88.571 E11.95317
G1 X78.701 Y88.02 E11.97343
G1 X79.001 Y87.473 E11.99418
G1 X79.159 Y87.215 E12.00424
G1 X79.332 Y86.952 E12.01471
G1 X79.692 Y86.457 E12.03507
G1 X79.885 Y86.216 E12.04534
G1 X80.294 Y85.752 E12.06591
G1 X80.508 Y85.531 E12.07614
G1 X80.731 Y85.315 E12.08647
G1 X81.193 Y84.906 E12.10699
G1 X81.439 Y84.709 E12.11748
G1 X81.934 Y84.35 E12.13781
G1 X82.193 Y84.18 E12.14812
G1 X82.462 Y84.015 E12.15861
G1 X82.994 Y83.722 E12.17881
G1 X83.557 Y83.458 E12.1995
G1 X83.848 Y83.336 E12.20999
G1 X84.131 Y83.23 E12.22004
G1 X84.423 Y83.13 E12.23031
G1 X84.718 Y83.039 E12.24058
G1 X85.317 Y82.884 E12.26115
G1 X85.626 Y82.821 E12.27164
G1 X85.923 Y82.769 E12.28167
G1 X86.229 Y82.726 E12.29195
G1 X86.543 Y82.691 E12.30246
G1 X86.845 Y82.666 E12.31254
G1 X87.16 Y82.652 E12.32302
G1 X87.77 Y82.652 E12.34331
G1 X88.085 Y82.666 E12.3538
G1 X88.39 Y82.691 E12.36398
G1 X89.006 Y82.768 E12.38463
G1 X89.604 Y82.883 E12.40488
G1 X90.215 Y83.04 E12.42586
G1 X90.802 Y83.231 E12.44639
G1 X91.083 Y83.337 E12.45638
G1 X91.65 Y83.583 E12.47694
G1 X91.933 Y83.721 E12.48741
G1 X92.466 Y84.014 E12.50764
G1 X92.999 Y84.352 E12.52863
G1 X93.491 Y84.709 E12.54885
G1 X93.73 Y84.9 E12.55903
G1 X94.195 Y85.311 E12.57967
G1 X94.417 Y85.526 E12.58995
G1 X94.632 Y85.748 E12.60023
G1 X94.844 Y85.981 E12.6107
G1 X95.041 Y86.211 E12.62078
G1 X95.234 Y86.452 E12.63104
G1 X95.598 Y86.952 E12.65161
G1 X95.768 Y87.21 E12.66189
G1 X95.929 Y87.473 E12.67215
G1 X96.085 Y87.747 E12.68263
G1 X96.363 Y88.293 E12.70301
G1 X96.49 Y88.573 E12.71324
G1 X96.718 Y89.148 E12.73381
G1 X96.818 Y89.441 E12.74411
G1 X96.909 Y89.736 E12.75438
G1 X96.99 Y90.033 E12.76462
G1 X97.062 Y90.334 E12.77491
G1 X97.125 Y90.636 E12.78517
G1 X97.178 Y90.942 E12.7955
G1 X97.222 Y91.247 E12.80575
G1 X97.281 Y91.862 E12.8263
G1 X97.295 Y92.17 E12.83655
G1 X97.3 Y92.48 E12.84686
G1 X97.28 Y93.103 E12.8676
G1 X97.223 Y93.709 E12.88784
G1 X97.124 Y94.332 E12.90882
G1 X96.992 Y94.925 E12.92903
G1 X96.911 Y95.223 E12.9393
G1 X96.721 Y95.808 E12.95976
G1 X96.493 Y96.385 E12.98039
G1 X96.229 Y96.945 E13.00098
G1 X95.929 Y97.492 E13.02173
G1 X95.771 Y97.75 E13.0318
G1 X95.598 Y98.013 E13.04227
G1 X95.238 Y98.508 E13.06262
G1 X95.045 Y98.749 E13.07289
G0 F3600 X94.913 Y98.899
G0 X94.752 Y98.491
;TYPE:SKIN
G1 F900 X94.351 Y98.946 E13.09306
G1 X94.151 Y99.153 E13.10264
G1 X93.934 Y99.363 E13.11268
G1 X93.485 Y99.761 E13.13264
G1 X93.255 Y99.946 E13.14246
G1 X92.781 Y100.29 E13.16193
G1 X92.265 Y100.617 E13.18225
G1 X91.77 Y100.89 E13.20105
G1 X91.208 Y101.153 E13.22169
G1 X90.945 Y101.264 E13.23119
G1 X90.392 Y101.462 E13.25072
G1 X90.105 Y101.55 E13.26071
G1 X89.513 Y101.703 E13.28104
G1 X88.947 Y101.811 E13.30021
G1 X88.344 Y101.886 E13.32042
G1 X88.069 Y101.908 E13.3296
G1 X87.474 Y101.927 E13.3494
G1 X86.853 Y101.908 E13.37006
G1 X86.582 Y101.887 E13.3791
G1 X85.986 Y101.812 E13.39908
G1 X85.412 Y101.701 E13.41852
G1 X84.825 Y101.55 E13.43868
G1 X84.257 Y101.365 E13.45855
G1 X83.985 Y101.263 E13.46821
G1 X83.452 Y101.031 E13.48755
G1 X83.177 Y100.897 E13.49772
G1 X82.664 Y100.615 E13.51719
G1 X82.14 Y100.283 E13.53783
G1 X81.67 Y99.942 E13.55714
G1 X81.437 Y99.755 E13.56708
G1 X81 Y99.368 E13.58649
G1 X80.784 Y99.158 E13.59651
G1 X80.379 Y98.726 E13.61621
G1 X80.185 Y98.5 E13.62611
G1 X80.008 Y98.278 E13.63556
G1 X79.648 Y97.783 E13.65591
G1 X79.485 Y97.535 E13.66578
G1 X79.334 Y97.289 E13.67538
G1 X79.184 Y97.025 E13.68548
G1 X78.91 Y96.487 E13.70556
G1 X78.798 Y96.237 E13.71468
G1 X78.681 Y95.953 E13.72489
G1 X78.575 Y95.673 E13.73485
G1 X78.479 Y95.392 E13.74473
G1 X78.391 Y95.108 E13.75461
G1 X78.317 Y94.832 E13.76412
G1 X78.247 Y94.536 E13.77424
G1 X78.186 Y94.242 E13.78422
G1 X78.135 Y93.951 E13.79405
G1 X78.093 Y93.656 E13.80396
G1 X78.039 Y93.086 E13.823
G1 X78.02 Y92.498 E13.84257
