;FLAVOR:Marlin
;TIME:453
;Filament used: 0.146911m
;Layer height: 0.12
;Generated with Cura_SteamEngine 3.6.0
M140 S60
M105
M190 S60
M104 S200
M105
M109 S200
M82 ;absolute extrusion mode
G21 ;metric values
G90 ;absolute positioning
M82 ;set extruder to absolute mode
M107 ;start with the fan off
G28 X0 Y0 ;move X/Y to min endstops
G28 Z0 ;move Z to min endstops
G1 Z15.0 F120 ;move the platform down 15mm
G92 E0 ;zero the extruded length
G1 F200 E6 ;extrude 6 mm of feed stock
G92 E0 ;zero the extruded length again
M117 Printing...
G1 F120
G92 E0
G1 F2400 E-2.5
;LAYER_COUNT:58
;LAYER:0
M107
G0 F3600 X89.207 Y89.931 Z0.2
;TYPE:SKIRT
G1 F2400 E0
G1 F900 X90.261 Y88.908 E0.04885
G1 X90.659 Y88.569 E0.06624
G1 X91.723 Y87.777 E0.11036
G1 X92.119 Y87.518 E0.1261
G1 X93.207 Y86.893 E0.16783
G1 X93.683 Y86.659 E0.18547
G1 X95.114 Y86.073 E0.2369
G1 X95.583 Y85.914 E0.25337
G1 X96.745 Y85.599 E0.29342
G1 X97.205 Y85.503 E0.30905
G1 X98.465 Y85.316 E0.35141
G1 X98.956 Y85.274 E0.3678
G1 X100.331 Y85.241 E0.41355
G1 X100.87 Y85.265 E0.43149
G1 X102.388 Y85.434 E0.48229
G1 X102.893 Y85.523 E0.49935
G1 X104.09 Y85.815 E0.54033
G1 X104.543 Y85.954 E0.55609
G1 X105.787 Y86.419 E0.60026
G1 X106.241 Y86.622 E0.6168
G1 X107.448 Y87.254 E0.66212
G1 X107.883 Y87.518 E0.67904
G1 X108.993 Y88.293 E0.72407
G1 X109.479 Y88.693 E0.745
G1 X110.955 Y90.116 E0.8132
G1 X111.374 Y90.589 E0.83421
G1 X112.192 Y91.675 E0.87943
G1 X112.471 Y92.099 E0.89631
G1 X113.141 Y93.273 E0.94127
G1 X113.359 Y93.717 E0.95772
G1 X113.86 Y94.919 E1.00104
G1 X114.018 Y95.372 E1.01699
G1 X114.372 Y96.627 E1.06036
G1 X114.494 Y97.239 E1.08112
G1 X114.737 Y99.277 E1.14938
G1 X114.761 Y99.922 E1.17085
G1 X114.7 Y101.35 E1.21839
G1 X114.621 Y101.989 E1.23981
G1 X114.214 Y103.957 E1.30665
G1 X114.036 Y104.569 E1.32785
G1 X113.523 Y105.918 E1.37585
G1 X113.306 Y106.393 E1.39322
G1 X112.664 Y107.585 E1.43825
G1 X112.409 Y107.996 E1.45433
G1 X111.667 Y109.046 E1.4971
G1 X111.359 Y109.43 E1.51347
G1 X110.463 Y110.415 E1.55776
G1 X110.095 Y110.77 E1.57476
G1 X109.026 Y111.679 E1.62144
G1 X108.621 Y111.982 E1.63826
G1 X107.481 Y112.726 E1.68354
G1 X107.051 Y112.97 E1.69998
G1 X105.895 Y113.535 E1.74278
G1 X105.317 Y113.763 E1.76344
G1 X103.348 Y114.37 E1.83197
G1 X102.596 Y114.525 E1.85751
G1 X100.552 Y114.744 E1.92588
G1 X99.943 Y114.763 E1.94615
G1 X98.678 Y114.705 E1.98827
G1 X98.167 Y114.648 E2.00537
G1 X96.743 Y114.397 E2.05346
G1 X96.275 Y114.286 E2.06946
G1 X95.135 Y113.94 E2.10908
G1 X94.674 Y113.768 E2.12545
G1 X93.37 Y113.189 E2.1729
G1 X92.916 Y112.952 E2.18994
G1 X91.78 Y112.262 E2.23414
G1 X91.374 Y111.979 E2.2506
G1 X90.302 Y111.13 E2.29609
G1 X89.827 Y110.687 E2.31769
G1 X88.411 Y109.132 E2.38764
G1 X88.023 Y108.63 E2.40874
G1 X87.3 Y107.526 E2.45263
G1 X87.052 Y107.091 E2.46929
G1 X86.45 Y105.859 E2.51489
G1 X86.22 Y105.278 E2.53568
G1 X85.632 Y103.364 E2.60227
G1 X85.496 Y102.756 E2.623
G1 X85.309 Y101.45 E2.66688
G1 X85.269 Y100.845 E2.68704
G1 X85.288 Y98.859 E2.7531
G1 X85.346 Y98.215 E2.77461
G1 X85.595 Y96.775 E2.82321
G1 X85.713 Y96.282 E2.84007
G1 X86.091 Y95.052 E2.88287
G1 X86.26 Y94.603 E2.89883
G1 X86.795 Y93.399 E2.94265
G1 X87.035 Y92.94 E2.95988
G1 X87.776 Y91.725 E3.00721
G1 X88.062 Y91.316 E3.02381
G1 X88.864 Y90.309 E3.06663
G1 X89.207 Y89.931 E3.0836
G0 F3600 X89.486 Y90.218
G1 F900 X90.54 Y89.195 E3.13246
G1 X90.897 Y88.89 E3.14807
G1 X91.961 Y88.098 E3.19219
G1 X92.318 Y87.864 E3.20639
G1 X93.406 Y87.239 E3.24812
G1 X93.835 Y87.03 E3.26399
G1 X95.266 Y86.444 E3.31542
G1 X95.688 Y86.3 E3.33025
G1 X96.85 Y85.985 E3.3703
G1 X97.264 Y85.899 E3.38436
G1 X98.524 Y85.712 E3.42673
G1 X98.966 Y85.674 E3.44148
G1 X100.341 Y85.641 E3.48723
G1 X100.825 Y85.662 E3.50334
G1 X102.343 Y85.831 E3.55414
G1 X102.798 Y85.912 E3.56951
G1 X103.995 Y86.204 E3.61049
G1 X104.402 Y86.329 E3.62465
G1 X105.646 Y86.794 E3.66883
G1 X106.056 Y86.977 E3.68376
G1 X107.263 Y87.609 E3.72907
G1 X107.654 Y87.846 E3.74428
G1 X108.764 Y88.621 E3.78931
G1 X109.202 Y88.981 E3.80817
G1 X110.678 Y90.404 E3.87636
G1 X111.055 Y90.83 E3.89528
G1 X111.873 Y91.916 E3.9405
G1 X112.124 Y92.298 E3.9557
G1 X112.794 Y93.472 E4.00066
G1 X112.99 Y93.871 E4.01544
G1 X113.491 Y95.073 E4.05876
G1 X113.633 Y95.481 E4.07313
G1 X113.987 Y96.736 E4.1165
G1 X114.097 Y97.287 E4.13518
G1 X114.34 Y99.325 E4.20345
G1 X114.362 Y99.905 E4.22275
G1 X114.301 Y101.333 E4.27029
G1 X114.229 Y101.908 E4.28957
G1 X113.822 Y103.876 E4.35641
G1 X113.662 Y104.427 E4.37549
G1 X113.149 Y105.776 E4.42349
G1 X112.954 Y106.203 E4.43911
G1 X112.312 Y107.395 E4.48414
G1 X112.082 Y107.766 E4.49865
G1 X111.34 Y108.816 E4.54142
G1 X111.063 Y109.16 E4.55611
G1 X110.167 Y110.145 E4.6004
G1 X109.836 Y110.466 E4.61573
G1 X108.767 Y111.375 E4.6624
G1 X108.403 Y111.647 E4.67752
G1 X107.263 Y112.391 E4.72279
G1 X106.876 Y112.61 E4.73758
G1 X105.72 Y113.175 E4.78038
G1 X105.2 Y113.381 E4.79898
G1 X103.231 Y113.988 E4.86751
G1 X102.554 Y114.128 E4.8905
G1 X100.51 Y114.347 E4.95888
G1 X99.961 Y114.363 E4.97715
G1 X98.696 Y114.305 E5.01926
G1 X98.236 Y114.254 E5.03466
G1 X96.812 Y114.003 E5.08275
G1 X96.391 Y113.903 E5.09714
G1 X95.251 Y113.557 E5.13677
G1 X94.836 Y113.402 E5.1515
G1 X93.532 Y112.823 E5.19895
G1 X93.124 Y112.61 E5.21426
G1 X91.988 Y111.92 E5.25847
G1 X91.622 Y111.665 E5.27331
G1 X90.55 Y110.816 E5.31879
G1 X90.123 Y110.418 E5.3382
G1 X88.707 Y108.863 E5.40815
G1 X88.357 Y108.411 E5.42717
G1 X87.634 Y107.307 E5.47106
G1 X87.411 Y106.915 E5.48606
G1 X86.809 Y105.683 E5.53167
G1 X86.603 Y105.16 E5.55036
G1 X86.015 Y103.246 E5.61696
G1 X85.892 Y102.699 E5.63561
G1 X85.705 Y101.393 E5.67949
G1 X85.669 Y100.849 E5.69762
G1 X85.688 Y98.863 E5.76368
G1 X85.741 Y98.284 E5.78302
G1 X85.99 Y96.844 E5.83162
G1 X86.096 Y96.399 E5.84684
G1 X86.474 Y95.169 E5.88963
G1 X86.625 Y94.765 E5.90398
G1 X87.16 Y93.561 E5.9478
G1 X87.376 Y93.149 E5.96327
G1 X88.117 Y91.934 E6.01061
G1 X88.375 Y91.565 E6.02558
G1 X89.177 Y90.558 E6.0684
G1 X89.486 Y90.218 E6.08368
G0 F3600 X89.764 Y90.505
G1 F900 X90.818 Y89.482 E6.13253
G1 X91.136 Y89.211 E6.14643
G1 X92.2 Y88.419 E6.19055
G1 X92.517 Y88.211 E6.20316
G1 X93.605 Y87.586 E6.24489
G1 X93.986 Y87.4 E6.25899
G1 X95.417 Y86.814 E6.31042
G1 X95.793 Y86.686 E6.32363
G1 X96.955 Y86.371 E6.36368
G1 X97.322 Y86.295 E6.37614
G1 X98.582 Y86.108 E6.41851
G1 X98.975 Y86.074 E6.43163
G1 X100.35 Y86.041 E6.47737
G1 X100.781 Y86.06 E6.49172
G1 X102.299 Y86.229 E6.54252
G1 X102.703 Y86.3 E6.55617
G1 X103.9 Y86.592 E6.59715
G1 X104.262 Y86.704 E6.60975
G1 X105.506 Y87.169 E6.65392
G1 X105.87 Y87.331 E6.66717
G1 X107.077 Y87.963 E6.71249
G1 X107.425 Y88.174 E6.72602
G1 X108.535 Y88.949 E6.77105
G1 X108.924 Y89.269 E6.7878
G1 X110.4 Y90.692 E6.856
G1 X110.735 Y91.071 E6.87282
G1 X111.553 Y92.157 E6.91804
G1 X111.776 Y92.496 E6.93154
G1 X112.446 Y93.67 E6.97649
G1 X112.621 Y94.025 E6.98966
G1 X113.122 Y95.227 E7.03297
G1 X113.248 Y95.589 E7.04572
G1 X113.602 Y96.844 E7.08909
G1 X113.699 Y97.334 E7.1057
G1 X113.942 Y99.372 E7.17397
G1 X113.962 Y99.888 E7.19114
G1 X113.901 Y101.316 E7.23868
G1 X113.838 Y101.827 E7.25581
G1 X113.431 Y103.795 E7.32265
G1 X113.288 Y104.284 E7.33959
G1 X112.775 Y105.633 E7.3876
G1 X112.601 Y106.013 E7.4015
G1 X111.959 Y107.205 E7.44653
G1 X111.755 Y107.535 E7.45943
G1 X111.013 Y108.585 E7.50219
G1 X110.767 Y108.891 E7.51525
G1 X109.871 Y109.876 E7.55954
G1 X109.577 Y110.161 E7.57316
G1 X108.508 Y111.07 E7.61983
G1 X108.184 Y111.312 E7.63328
G1 X107.044 Y112.056 E7.67856
G1 X106.7 Y112.251 E7.69171
G1 X105.544 Y112.816 E7.73451
G1 X105.082 Y112.999 E7.75103
G1 X103.113 Y113.606 E7.81956
G1 X102.511 Y113.73 E7.84001
G1 X100.467 Y113.949 E7.90838
G1 X99.979 Y113.964 E7.92462
G1 X98.714 Y113.906 E7.96674
G1 X98.306 Y113.86 E7.98039
G1 X96.882 Y113.609 E8.02849
G1 X96.508 Y113.52 E8.04127
G1 X95.368 Y113.174 E8.0809
G1 X94.998 Y113.037 E8.09402
G1 X93.694 Y112.458 E8.14147
G1 X93.332 Y112.268 E8.15507
G1 X92.196 Y111.578 E8.19928
G1 X91.87 Y111.352 E8.21247
G1 X90.798 Y110.503 E8.25795
G1 X90.419 Y110.149 E8.2752
G1 X89.003 Y108.594 E8.34515
G1 X88.692 Y108.192 E8.36206
G1 X87.969 Y107.088 E8.40595
G1 X87.771 Y106.74 E8.41927
G1 X87.169 Y105.508 E8.46487
G1 X86.985 Y105.043 E8.48151
G1 X86.397 Y103.129 E8.5481
G1 X86.288 Y102.643 E8.56467
G1 X86.101 Y101.337 E8.60855
G1 X86.069 Y100.852 E8.62472
G1 X86.088 Y98.866 E8.69077
G1 X86.135 Y98.352 E8.70794
G1 X86.384 Y96.912 E8.75655
G1 X86.478 Y96.517 E8.77005
G1 X86.856 Y95.287 E8.81285
G1 X86.991 Y94.928 E8.82561
G1 X87.526 Y93.724 E8.86943
G1 X87.718 Y93.357 E8.8832
G1 X88.459 Y92.142 E8.93054
G1 X88.688 Y91.814 E8.94384
G1 X89.49 Y90.807 E8.98666
G1 X89.764 Y90.505 E9.00022
G1 F2400 E6.50022
;MESH:message_ring_customizer_20190112-55-xy0ha9.stl
G0 F3600 X91.634 Y92.192
G0 X92.297 Y92.776
G0 X92.354 Y92.832
G0 X92.283 Y92.763
;TYPE:WALL-OUTER
G1 F2400 E9.00022
G1 F900 X92.297 Y92.749 E9.00088
G1 X92.749 Y92.298 E9.02212
G1 X92.771 Y92.276 E9.02315
G1 X93.249 Y91.856 E9.04431
G1 X93.266 Y91.841 E9.04507
G1 X93.77 Y91.449 E9.06631
G1 X93.781 Y91.441 E9.06676
G1 X93.792 Y91.434 E9.06719
G1 X94.322 Y91.076 E9.08846
G1 X94.357 Y91.052 E9.08988
G1 X94.894 Y90.736 E9.1106
G1 X94.922 Y90.719 E9.11169
G1 X95.489 Y90.43 E9.13286
G1 X95.507 Y90.423 E9.1335
G1 X96.093 Y90.169 E9.15474
G1 X96.116 Y90.159 E9.15557
G1 X96.721 Y89.945 E9.17692
G1 X96.761 Y89.93 E9.17834
G1 X97.358 Y89.758 E9.199
G1 X97.393 Y89.747 E9.20022
G1 X98.011 Y89.609 E9.22128
G1 X98.03 Y89.606 E9.22192
G1 X98.662 Y89.508 E9.2432
G1 X98.702 Y89.501 E9.24455
G1 X99.323 Y89.442 E9.26529
G1 X99.333 Y89.441 E9.26563
G1 X99.347 Y89.441 E9.26609
G1 X99.987 Y89.421 E9.28739
G1 X100 Y89.42 E9.28782
G1 X100.667 Y89.441 E9.31002
G1 X101.315 Y89.502 E9.33167
G1 X101.331 Y89.504 E9.3322
G1 X101.972 Y89.607 E9.3538
G1 X102.002 Y89.612 E9.35481
G1 X102.63 Y89.752 E9.37621
G1 X102.644 Y89.756 E9.37669
G1 X103.257 Y89.936 E9.39794
G1 X103.281 Y89.943 E9.39877
G1 X103.889 Y90.161 E9.42026
G1 X103.905 Y90.168 E9.42084
G1 X104.493 Y90.422 E9.44214
G1 X104.511 Y90.43 E9.4428
G1 X105.086 Y90.723 E9.46426
G1 X105.096 Y90.728 E9.46463
G1 X105.659 Y91.061 E9.48639
G1 X105.669 Y91.067 E9.48678
G1 X105.679 Y91.074 E9.48718
G1 X106.213 Y91.437 E9.50866
G1 X106.228 Y91.448 E9.50928
G1 X106.733 Y91.841 E9.53056
G1 X106.762 Y91.864 E9.53179
G1 X107.234 Y92.28 E9.55272
G1 X107.247 Y92.292 E9.55331
G1 X107.708 Y92.753 E9.57499
G1 X107.719 Y92.766 E9.57556
G1 X108.148 Y93.252 E9.59712
G1 X108.159 Y93.266 E9.59771
G1 X108.55 Y93.771 E9.61895
G1 X108.563 Y93.787 E9.61964
G1 X108.93 Y94.326 E9.64133
G1 X108.938 Y94.34 E9.64186
G1 X109.265 Y94.892 E9.6632
G1 X109.275 Y94.909 E9.66386
G1 X109.57 Y95.489 E9.6855
G1 X109.577 Y95.507 E9.68614
G1 X109.831 Y96.094 E9.70742
G1 X109.84 Y96.115 E9.70818
G1 X110.056 Y96.717 E9.72945
G1 X110.063 Y96.741 E9.73028
G1 X110.239 Y97.342 E9.75111
G1 X110.247 Y97.38 E9.7524
G1 X110.388 Y98.003 E9.77365
G1 X110.392 Y98.017 E9.77413
G1 X110.394 Y98.029 E9.77453
G1 X110.493 Y98.662 E9.79584
G1 X110.498 Y98.69 E9.79679
G1 X110.558 Y99.328 E9.8181
G1 X110.558 Y99.346 E9.8187
G1 X110.58 Y99.994 E9.84027
G1 X110.559 Y100.653 E9.8622
G1 X110.558 Y100.68 E9.8631
G1 X110.497 Y101.32 E9.88448
G1 X110.495 Y101.337 E9.88505
G1 X110.394 Y101.97 E9.90637
G1 X110.391 Y101.989 E9.90701
G1 X110.249 Y102.625 E9.92868
G1 X110.244 Y102.643 E9.9293
G1 X110.065 Y103.258 E9.95061
G1 X110.061 Y103.27 E9.95103
G1 X110.057 Y103.281 E9.95142
G1 X109.839 Y103.883 E9.97271
G1 X109.83 Y103.908 E9.9736
G1 X109.578 Y104.492 E9.99475
G1 X109.568 Y104.515 E9.99558
G1 X109.285 Y105.073 E10.01639
G1 X109.265 Y105.107 E10.01771
G1 X108.937 Y105.659 E10.03906
G1 X108.914 Y105.697 E10.04054
G1 X108.563 Y106.213 E10.0613
G1 X108.552 Y106.228 E10.06192
G1 X108.16 Y106.732 E10.08315
G1 X108.148 Y106.748 E10.08382
G1 X107.721 Y107.232 E10.10528
G1 X107.708 Y107.247 E10.10594
G1 X107.247 Y107.708 E10.12763
G1 X107.234 Y107.719 E10.12819
G1 X106.753 Y108.144 E10.14954
G1 X106.74 Y108.155 E10.15011
G1 X106.227 Y108.55 E10.17164
G1 X106.196 Y108.574 E10.17295
G1 X105.677 Y108.924 E10.19377
G1 X105.636 Y108.952 E10.19542
G1 X105.106 Y109.264 E10.21588
G1 X105.078 Y109.281 E10.21696
G1 X104.508 Y109.571 E10.23824
G1 X104.493 Y109.577 E10.23877
G1 X103.898 Y109.834 E10.26033
G1 X103.882 Y109.839 E10.26089
G1 X103.279 Y110.055 E10.28219
G1 X103.242 Y110.069 E10.28351
G1 X102.644 Y110.243 E10.30422
G1 X102.626 Y110.249 E10.30485
G1 X101.989 Y110.391 E10.32656
G1 X101.972 Y110.393 E10.32713
G1 X101.338 Y110.494 E10.34848
G1 X101.32 Y110.497 E10.34909
G1 X100.676 Y110.558 E10.3706
G1 X100.666 Y110.559 E10.37094
G1 X100.651 Y110.559 E10.37144
G1 X100.011 Y110.577 E10.39273
G1 X99.967 Y110.579 E10.3942
G1 X99.347 Y110.559 E10.41483
G1 X99.307 Y110.557 E10.41616
G1 X98.685 Y110.498 E10.43694
G1 X98.669 Y110.496 E10.43748
G1 X98.029 Y110.394 E10.45903
G1 X97.99 Y110.387 E10.46035
G1 X97.381 Y110.25 E10.48111
G1 X97.352 Y110.243 E10.4821
G1 X96.742 Y110.064 E10.50325
G1 X96.707 Y110.053 E10.50447
G1 X96.11 Y109.839 E10.52556
G1 X96.094 Y109.832 E10.52614
G1 X95.507 Y109.578 E10.54742
G1 X95.489 Y109.57 E10.54807
G1 X94.914 Y109.277 E10.56954
G1 X94.904 Y109.272 E10.56991
G1 X94.341 Y108.939 E10.59166
G1 X94.331 Y108.933 E10.59205
G1 X94.321 Y108.926 E10.59246
G1 X93.785 Y108.561 E10.61403
G1 X93.773 Y108.552 E10.61452
G1 X93.267 Y108.16 E10.63581
G1 X93.252 Y108.148 E10.63645
G1 X92.768 Y107.721 E10.65792
G1 X92.753 Y107.708 E10.65858
G1 X92.292 Y107.247 E10.68026
G1 X92.281 Y107.234 E10.68083
G1 X91.852 Y106.748 E10.70239
G1 X91.841 Y106.734 E10.70298
G1 X91.45 Y106.229 E10.72423
G1 X91.437 Y106.213 E10.72491
G1 X91.075 Y105.681 E10.74631
G1 X91.063 Y105.663 E10.74703
G1 X90.735 Y105.108 E10.76848
G1 X90.725 Y105.091 E10.76913
G1 X90.436 Y104.522 E10.79036
G1 X90.427 Y104.505 E10.791
G1 X90.421 Y104.491 E10.7915
G1 X90.168 Y103.905 E10.81273
G1 X90.161 Y103.889 E10.81331
G1 X89.943 Y103.281 E10.8348
G1 X89.939 Y103.27 E10.83519
G1 X89.936 Y103.258 E10.8356
G1 X89.757 Y102.643 E10.8569
G1 X89.751 Y102.625 E10.85753
G1 X89.609 Y101.989 E10.87921
G1 X89.607 Y101.971 E10.87981
G1 X89.506 Y101.334 E10.90126
G1 X89.505 Y101.316 E10.90186
G1 X89.445 Y100.703 E10.92235
G1 X89.444 Y100.654 E10.92398
G1 X89.422 Y100.013 E10.94531
G1 X89.421 Y99.983 E10.94631
G1 X89.442 Y99.346 E10.96751
G1 X89.444 Y99.302 E10.96897
G1 X89.503 Y98.68 E10.98975
G1 X89.505 Y98.663 E10.99032
G1 X89.606 Y98.03 E11.01164
G1 X89.609 Y98.011 E11.01228
G1 X89.751 Y97.375 E11.03395
G1 X89.756 Y97.357 E11.03458
G1 X89.935 Y96.742 E11.05588
G1 X89.94 Y96.725 E11.05647
G1 X90.159 Y96.116 E11.07799
G1 X90.167 Y96.096 E11.07871
G1 X90.426 Y95.498 E11.10039
G1 X90.432 Y95.486 E11.10083
G1 X90.709 Y94.94 E11.12119
G1 X90.735 Y94.895 E11.12292
G1 X91.06 Y94.343 E11.14423
G1 X91.073 Y94.322 E11.14505
G1 X91.434 Y93.792 E11.16638
G1 X91.441 Y93.782 E11.16678
G1 X91.448 Y93.773 E11.16716
G1 X91.838 Y93.269 E11.18836
G1 X91.856 Y93.248 E11.18928
G1 X92.283 Y92.763 E11.21077
G0 F3600 X92.297 Y92.749
G0 X92.425 Y92.622
G0 X92.579 Y93.031
G1 F900 X92.156 Y93.511 E11.23197
G1 X91.764 Y94.016 E11.25315
G1 X91.405 Y94.545 E11.27434
G1 X91.079 Y95.096 E11.29555
G1 X90.789 Y95.666 E11.31682
G1 X90.535 Y96.252 E11.33801
G1 X90.318 Y96.854 E11.35924
G1 X90.14 Y97.468 E11.38045
G1 X90 Y98.092 E11.40167
G1 X89.9 Y98.724 E11.42287
G1 X89.842 Y99.341 E11.44343
G1 X89.84 Y99.36 E11.44406
G1 X89.82 Y100 E11.46528
G1 X89.84 Y100.64 E11.48642
G1 X89.842 Y100.664 E11.48721
G1 X89.9 Y101.276 E11.50753
G1 X90 Y101.908 E11.5287
G1 X90.14 Y102.532 E11.54992
G1 X90.318 Y103.146 E11.57107
G1 X90.535 Y103.748 E11.59228
G1 X90.789 Y104.334 E11.61349
G1 X91.079 Y104.904 E11.63474
G1 X91.405 Y105.455 E11.65598
G1 X91.764 Y105.984 E11.67719
G1 X92.156 Y106.489 E11.69837
G1 X92.579 Y106.969 E11.71957
G1 X93.031 Y107.421 E11.74078
G1 X93.511 Y107.844 E11.76198
G1 X94.016 Y108.236 E11.78316
G1 X94.545 Y108.595 E11.80435
G1 X95.096 Y108.921 E11.82564
G1 X95.666 Y109.211 E11.84691
G1 X96.252 Y109.465 E11.8681
G1 X96.843 Y109.678 E11.88899
G1 X96.854 Y109.682 E11.88938
G1 X97.468 Y109.86 E11.91064
