;FLAVOR:Marlin
;TIME:385
;Filament used: 0.126142m
;Layer height: 0.12
;Generated with Cura_SteamEngine 3.6.0
M140 S60
M105
M190 S60
M104 S195
M105
M109 S195
M82 ;absolute extrusion mode
G21 ;metric values
G90 ;absolute positioning
M82 ;set extruder to absolute mode
M107 ;start with the fan off
G28 X0 Y0 ;move X/Y to min endstops
G28 Z0 ;move Z to min endstops
G1 Z15.0 F120 ;move the platform down 15mm
G92 E0 ;zero the extruded length
G1 F200 E6 ;extrude 6 mm of feed stock
G92 E0 ;zero the extruded length again
M117 Printing...
G1 F120
G92 E0
G1 F2400 E-2.5
;LAYER_COUNT:50
;LAYER:0
M107
G0 F3600 X90.412 Y89.325 Z0.2
;TYPE:SKIRT
G1 F2400 E0
G1 F900 X90.89 Y88.901 E0.02125
G1 X91.873 Y88.163 E0.06214
G1 X92.404 Y87.827 E0.08303
G1 X94.203 Y86.875 E0.15073
G1 X94.79 Y86.622 E0.17199
G1 X95.997 Y86.213 E0.21438
G1 X96.583 Y86.062 E0.23451
G1 X98.44 Y85.733 E0.29723
G1 X99.078 Y85.672 E0.31855
G1 X100.479 Y85.651 E0.36515
G1 X101.113 Y85.692 E0.38628
G1 X102.99 Y85.964 E0.44936
G1 X103.584 Y86.097 E0.46961
G1 X104.802 Y86.469 E0.51197
G1 X105.274 Y86.647 E0.52875
G1 X106.493 Y87.195 E0.5732
G1 X106.934 Y87.427 E0.58977
G1 X107.986 Y88.068 E0.63074
G1 X108.388 Y88.348 E0.64704
G1 X109.434 Y89.176 E0.69141
G1 X109.823 Y89.528 E0.70886
G1 X110.763 Y90.498 E0.75378
G1 X111.169 Y90.99 E0.775
G1 X112.289 Y92.592 E0.84001
G1 X112.608 Y93.135 E0.86096
G1 X113.195 Y94.342 E0.9056
G1 X113.379 Y94.786 E0.92159
G1 X113.748 Y95.855 E0.9592
G1 X113.879 Y96.324 E0.9754
G1 X114.167 Y97.672 E1.02124
G1 X114.251 Y98.332 E1.04337
G1 X114.342 Y100.4 E1.11222
G1 X114.32 Y101.036 E1.13339
G1 X114.176 Y102.281 E1.17507
G1 X114.093 Y102.75 E1.19091
G1 X113.815 Y103.914 E1.23072
G1 X113.674 Y104.376 E1.24678
G1 X113.222 Y105.595 E1.29002
G1 X113.018 Y106.056 E1.30679
G1 X112.406 Y107.228 E1.35077
G1 X112.144 Y107.66 E1.36757
G1 X111.418 Y108.704 E1.40986
G1 X111.11 Y109.093 E1.42637
G1 X110.218 Y110.086 E1.47076
G1 X109.854 Y110.443 E1.48772
G1 X108.868 Y111.293 E1.53102
G1 X108.341 Y111.677 E1.55271
G1 X106.587 Y112.748 E1.62106
G1 X106.026 Y113.032 E1.64197
G1 X104.907 Y113.493 E1.68223
G1 X104.45 Y113.65 E1.6983
G1 X103.171 Y114.004 E1.74244
G1 X102.668 Y114.109 E1.75953
G1 X101.405 Y114.289 E1.80196
G1 X100.911 Y114.328 E1.81844
G1 X99.595 Y114.351 E1.86222
G1 X98.961 Y114.312 E1.88335
G1 X97.003 Y114.033 E1.94913
G1 X96.394 Y113.897 E1.96988
G1 X95.194 Y113.529 E2.01163
G1 X94.73 Y113.355 E2.02811
G1 X93.524 Y112.814 E2.07207
G1 X93.058 Y112.567 E2.08961
G1 X91.867 Y111.831 E2.13618
G1 X91.457 Y111.54 E2.1529
G1 X90.511 Y110.776 E2.19335
G1 X90.142 Y110.437 E2.21001
G1 X89.202 Y109.46 E2.25511
G1 X88.885 Y109.089 E2.27134
G1 X88.165 Y108.13 E2.31122
G1 X87.897 Y107.723 E2.32743
G1 X87.245 Y106.59 E2.37091
G1 X86.981 Y106.036 E2.39132
G1 X86.298 Y104.268 E2.45436
G1 X86.141 Y103.768 E2.47179
G1 X85.959 Y103.016 E2.49752
G1 X85.874 Y102.539 E2.51364
G1 X85.669 Y100.783 E2.57244
G1 X85.645 Y100.175 E2.59268
G1 X85.695 Y98.787 E2.63887
G1 X85.75 Y98.255 E2.65666
G1 X85.982 Y96.902 E2.70232
G1 X86.104 Y96.392 E2.71976
G1 X86.507 Y95.094 E2.76496
G1 X86.684 Y94.628 E2.78154
G1 X87.185 Y93.523 E2.8219
G1 X87.474 Y92.995 E2.84192
G1 X88.509 Y91.403 E2.90507
G1 X88.983 Y90.808 E2.93038
G1 X90.412 Y89.325 E2.99887
G0 F3600 X90.7 Y89.602
G1 F900 X91.131 Y89.221 E3.01801
G1 X92.114 Y88.483 E3.05889
G1 X92.591 Y88.18 E3.07769
G1 X94.39 Y87.228 E3.14538
G1 X94.919 Y87 E3.16454
G1 X96.126 Y86.591 E3.20693
G1 X96.653 Y86.456 E3.22502
G1 X98.51 Y86.127 E3.28775
G1 X99.084 Y86.072 E3.30693
G1 X100.485 Y86.051 E3.35353
G1 X101.055 Y86.088 E3.37253
G1 X102.932 Y86.36 E3.43561
G1 X103.468 Y86.48 E3.45388
G1 X104.686 Y86.852 E3.49624
G1 X105.11 Y87.012 E3.51131
G1 X106.329 Y87.56 E3.55576
G1 X106.726 Y87.769 E3.57068
G1 X107.778 Y88.41 E3.61166
G1 X108.139 Y88.661 E3.62628
G1 X109.185 Y89.489 E3.67065
G1 X109.536 Y89.807 E3.6864
G1 X110.476 Y90.777 E3.73133
G1 X110.841 Y91.219 E3.7504
G1 X111.961 Y92.821 E3.81541
G1 X112.248 Y93.31 E3.83427
G1 X112.835 Y94.517 E3.87891
G1 X113.001 Y94.916 E3.89328
G1 X113.37 Y95.985 E3.9309
G1 X113.488 Y96.408 E3.9455
G1 X113.776 Y97.756 E3.99135
G1 X113.852 Y98.35 E4.01127
G1 X113.943 Y100.418 E4.08011
G1 X113.922 Y100.99 E4.09915
G1 X113.778 Y102.235 E4.14084
G1 X113.704 Y102.657 E4.15509
G1 X113.426 Y103.821 E4.19489
G1 X113.299 Y104.237 E4.20936
G1 X112.847 Y105.456 E4.2526
G1 X112.663 Y105.87 E4.26767
G1 X112.051 Y107.042 E4.31164
G1 X111.816 Y107.431 E4.32676
G1 X111.09 Y108.475 E4.36905
G1 X110.812 Y108.826 E4.38395
G1 X109.92 Y109.819 E4.42834
G1 X109.593 Y110.14 E4.44358
G1 X108.607 Y110.99 E4.48688
G1 X108.132 Y111.336 E4.50643
G1 X106.378 Y112.407 E4.57478
G1 X105.873 Y112.663 E4.59361
G1 X104.754 Y113.124 E4.63386
G1 X104.343 Y113.265 E4.64832
G1 X103.064 Y113.619 E4.69245
G1 X102.612 Y113.713 E4.70781
G1 X101.349 Y113.893 E4.75024
G1 X100.904 Y113.928 E4.76509
G1 X99.588 Y113.951 E4.80887
G1 X99.017 Y113.916 E4.82789
G1 X97.059 Y113.637 E4.89367
G1 X96.512 Y113.515 E4.91231
G1 X95.312 Y113.147 E4.95406
G1 X94.894 Y112.99 E4.96891
G1 X93.688 Y112.449 E5.01287
G1 X93.269 Y112.226 E5.02866
G1 X92.078 Y111.49 E5.07523
G1 X91.708 Y111.229 E5.09029
G1 X90.762 Y110.465 E5.13073
G1 X90.43 Y110.16 E5.14573
G1 X89.49 Y109.183 E5.19082
G1 X89.205 Y108.848 E5.20545
G1 X88.485 Y107.889 E5.24533
G1 X88.244 Y107.524 E5.25988
G1 X87.592 Y106.391 E5.30336
G1 X87.354 Y105.892 E5.32175
G1 X86.671 Y104.124 E5.38479
G1 X86.53 Y103.674 E5.40047
G1 X86.348 Y102.922 E5.4262
G1 X86.271 Y102.492 E5.44073
G1 X86.066 Y100.736 E5.49954
G1 X86.044 Y100.189 E5.51774
G1 X86.094 Y98.801 E5.56394
G1 X86.144 Y98.323 E5.57992
G1 X86.376 Y96.97 E5.62558
G1 X86.486 Y96.511 E5.64128
G1 X86.889 Y95.213 E5.68648
G1 X87.048 Y94.793 E5.70142
G1 X87.549 Y93.688 E5.74177
G1 X87.81 Y93.213 E5.7598
G1 X88.845 Y91.621 E5.82296
G1 X89.271 Y91.085 E5.84573
G1 X90.7 Y89.602 E5.91423
G0 F3600 X90.988 Y89.88
G1 F900 X91.371 Y89.541 E5.93124
G1 X92.354 Y88.803 E5.97212
G1 X92.778 Y88.534 E5.98882
G1 X94.577 Y87.582 E6.05652
G1 X95.047 Y87.379 E6.07355
G1 X96.254 Y86.97 E6.11594
G1 X96.723 Y86.85 E6.13204
G1 X98.58 Y86.521 E6.19476
G1 X99.09 Y86.472 E6.2118
G1 X100.491 Y86.451 E6.25841
G1 X100.998 Y86.484 E6.2753
G1 X102.875 Y86.756 E6.33839
G1 X103.351 Y86.863 E6.35461
G1 X104.569 Y87.235 E6.39697
G1 X104.946 Y87.376 E6.41036
G1 X106.165 Y87.924 E6.45481
G1 X106.518 Y88.11 E6.46808
G1 X107.57 Y88.751 E6.50906
G1 X107.891 Y88.975 E6.52207
G1 X108.937 Y89.803 E6.56645
G1 X109.249 Y90.085 E6.58043
G1 X110.189 Y91.055 E6.62536
G1 X110.514 Y91.448 E6.64232
G1 X111.634 Y93.05 E6.70733
G1 X111.889 Y93.484 E6.72408
G1 X112.476 Y94.691 E6.76872
G1 X112.623 Y95.047 E6.78153
G1 X112.992 Y96.116 E6.81914
G1 X113.096 Y96.491 E6.83208
G1 X113.384 Y97.839 E6.87793
G1 X113.452 Y98.367 E6.89564
G1 X113.543 Y100.435 E6.96449
G1 X113.525 Y100.944 E6.98143
G1 X113.381 Y102.189 E7.02311
G1 X113.314 Y102.564 E7.03578
G1 X113.036 Y103.728 E7.07558
G1 X112.924 Y104.098 E7.08844
G1 X112.472 Y105.317 E7.13168
G1 X112.309 Y105.685 E7.14507
G1 X111.697 Y106.857 E7.18905
G1 X111.487 Y107.203 E7.20251
G1 X110.761 Y108.247 E7.2448
G1 X110.515 Y108.558 E7.25799
G1 X109.623 Y109.551 E7.30239
G1 X109.331 Y109.837 E7.31598
G1 X108.345 Y110.687 E7.35928
G1 X107.924 Y110.994 E7.37661
G1 X106.17 Y112.065 E7.44496
G1 X105.721 Y112.293 E7.46171
G1 X104.602 Y112.754 E7.50196
G1 X104.237 Y112.879 E7.5148
G1 X102.958 Y113.233 E7.55894
G1 X102.555 Y113.317 E7.57263
G1 X101.292 Y113.497 E7.61506
G1 X100.897 Y113.529 E7.62824
G1 X99.581 Y113.552 E7.67202
G1 X99.074 Y113.52 E7.68891
G1 X97.116 Y113.241 E7.75469
G1 X96.629 Y113.132 E7.77129
G1 X95.429 Y112.764 E7.81304
G1 X95.057 Y112.625 E7.82625
G1 X93.851 Y112.084 E7.87021
G1 X93.479 Y111.886 E7.88423
G1 X92.288 Y111.15 E7.93079
G1 X91.959 Y110.918 E7.94418
G1 X91.013 Y110.154 E7.98463
G1 X90.718 Y109.883 E7.99795
G1 X89.778 Y108.906 E8.04304
G1 X89.525 Y108.608 E8.05605
G1 X88.805 Y107.649 E8.09593
G1 X88.59 Y107.324 E8.10889
G1 X87.938 Y106.191 E8.15237
G1 X87.727 Y105.748 E8.16869
G1 X87.044 Y103.98 E8.23173
G1 X86.919 Y103.58 E8.24567
G1 X86.737 Y102.828 E8.2714
G1 X86.669 Y102.446 E8.28431
G1 X86.464 Y100.69 E8.34311
G1 X86.444 Y100.204 E8.35929
G1 X86.494 Y98.816 E8.40548
G1 X86.538 Y98.39 E8.41973
G1 X86.77 Y97.037 E8.46538
G1 X86.868 Y96.629 E8.47934
G1 X87.271 Y95.331 E8.52454
G1 X87.413 Y94.959 E8.53779
G1 X87.914 Y93.854 E8.57814
G1 X88.145 Y93.431 E8.59417
G1 X89.18 Y91.839 E8.65733
G1 X89.559 Y91.363 E8.67756
G1 X90.988 Y89.88 E8.74606
G1 F2400 E6.24606
;MESH:message_ring_customizer_20190112-67-1l4e5mv.stl
G0 F3600 X94.057 Y90.697
G0 X94.553 Y91.428
G0 X97.56 Y90.494
G0 X98.77 Y90.262
G0 X100.615 Y90.205
G0 X101.839 Y90.359
G0 X103.613 Y90.874
G0 X104.945 Y91.554
G0 X105.804 Y92.012
G0 X105.746 Y92.092
;TYPE:WALL-OUTER
G1 F2400 E8.74606
G1 F900 X105.733 Y92.084 E8.74657
G1 X105.238 Y91.747 E8.76649
G1 X104.709 Y91.434 E8.78693
G1 X104.162 Y91.155 E8.80735
G1 X103.599 Y90.911 E8.82776
G1 X103.021 Y90.704 E8.84818
G1 X102.431 Y90.532 E8.86862
G1 X101.832 Y90.398 E8.88904
G1 X101.225 Y90.301 E8.90948
G1 X100.613 Y90.244 E8.92993
G1 X100 Y90.225 E8.95032
G1 X99.387 Y90.244 E8.97072
G1 X98.775 Y90.301 E8.99117
G1 X98.168 Y90.398 E9.01161
G1 X97.569 Y90.532 E9.03203
G1 X97.551 Y90.537 E9.03265
G1 X96.979 Y90.704 E9.05247
G1 X96.401 Y90.911 E9.07289
G1 X95.838 Y91.155 E9.0933
G1 X95.291 Y91.434 E9.11372
G1 X94.762 Y91.747 E9.13416
G1 X94.254 Y92.092 E9.15459
G1 X93.77 Y92.468 E9.17497
G1 X93.308 Y92.874 E9.19543
G1 X92.874 Y93.308 E9.21584
G1 X92.468 Y93.77 E9.2363
G1 X92.092 Y94.254 E9.25668
G1 X91.747 Y94.762 E9.27711
G1 X91.434 Y95.291 E9.29755
G1 X91.155 Y95.838 E9.31797
G1 X90.911 Y96.401 E9.33838
G1 X90.704 Y96.979 E9.3588
G1 X90.532 Y97.569 E9.37924
G1 X90.398 Y98.168 E9.39966
G1 X90.301 Y98.775 E9.4201
G1 X90.244 Y99.387 E9.44055
G1 X90.225 Y100 E9.46094
G1 X90.244 Y100.613 E9.48134
G1 X90.301 Y101.225 E9.50179
G1 X90.398 Y101.832 E9.52223
G1 X90.532 Y102.431 E9.54265
G1 X90.698 Y103.001 E9.56239
G1 X90.704 Y103.021 E9.56309
G1 X90.901 Y103.571 E9.58252
G1 X90.911 Y103.599 E9.58351
G1 X91.155 Y104.162 E9.60392
G1 X91.434 Y104.709 E9.62434
G1 X91.747 Y105.238 E9.64478
G1 X92.092 Y105.746 E9.66521
G1 X92.468 Y106.23 E9.68559
G1 X92.874 Y106.692 E9.70605
G1 X93.308 Y107.126 E9.72646
G1 X93.77 Y107.532 E9.74692
G1 X94.254 Y107.908 E9.7673
G1 X94.762 Y108.253 E9.78773
G1 X95.291 Y108.566 E9.80817
G1 X95.838 Y108.845 E9.82859
G1 X96.401 Y109.089 E9.849
G1 X96.979 Y109.296 E9.86942
G1 X97.569 Y109.468 E9.88986
G1 X98.168 Y109.602 E9.91028
G1 X98.775 Y109.699 E9.93072
G1 X99.387 Y109.756 E9.95117
G1 X100 Y109.775 E9.97157
G1 X100.613 Y109.756 E9.99196
G1 X101.225 Y109.699 E10.01241
G1 X101.832 Y109.602 E10.03285
G1 X102.431 Y109.468 E10.05327
G1 X103.021 Y109.296 E10.07371
G1 X103.599 Y109.089 E10.09413
G1 X104.162 Y108.845 E10.11454
G1 X104.709 Y108.566 E10.13496
G1 X105.238 Y108.253 E10.1554
G1 X105.746 Y107.908 E10.17583
G1 X106.23 Y107.532 E10.19621
G1 X106.692 Y107.126 E10.21667
G1 X107.126 Y106.692 E10.23708
G1 X107.532 Y106.23 E10.25754
G1 X107.908 Y105.746 E10.27792
G1 X108.253 Y105.238 E10.29835
G1 X108.566 Y104.709 E10.31879
G1 X108.84 Y104.173 E10.33881
G1 X108.845 Y104.162 E10.33921
G1 X109.089 Y103.599 E10.35962
G1 X109.296 Y103.021 E10.38004
G1 X109.468 Y102.431 E10.40048
G1 X109.602 Y101.832 E10.4209
G1 X109.699 Y101.225 E10.44134
G1 X109.753 Y100.64 E10.46088
G1 X109.756 Y100.613 E10.46179
G1 X109.775 Y100 E10.48219
G1 X109.756 Y99.387 E10.50258
G1 X109.699 Y98.775 E10.52303
G1 X109.602 Y98.168 E10.54347
G1 X109.468 Y97.569 E10.56389
G1 X109.296 Y96.979 E10.58433
G1 X109.29 Y96.962 E10.58493
G1 X109.089 Y96.401 E10.60475
G1 X108.845 Y95.838 E10.62516
G1 X108.566 Y95.291 E10.64558
G1 X108.253 Y94.762 E10.66602
G1 X107.908 Y94.254 E10.68645
G1 X107.532 Y93.77 E10.70683
G1 X107.126 Y93.308 E10.72729
G1 X106.692 Y92.874 E10.7477
G1 X106.23 Y92.468 E10.76816
G1 X105.746 Y92.092 E10.78854
G0 F3600 X105.733 Y92.084
G0 X105.58 Y91.98
G0 X105.637 Y91.898
G0 X107.155 Y93.281
G0 X108.286 Y94.741
G0 X108.881 Y95.821
G0 X109.334 Y96.967
G0 X110.074 Y99.989
G0 X110.174 Y99.986
G1 F900 X110.175 Y99.996 E10.78888
G1 X110.153 Y100.627 E10.80988
G1 X110.151 Y100.678 E10.81157
G1 X110.095 Y101.272 E10.83134
G1 X110.093 Y101.286 E10.83181
G1 X109.996 Y101.895 E10.85224
G1 X109.991 Y101.922 E10.85316
G1 X109.858 Y102.52 E10.87351
G1 X109.853 Y102.54 E10.87419
G1 X109.68 Y103.133 E10.89474
G1 X109.676 Y103.145 E10.89516
G1 X109.467 Y103.729 E10.91574
G1 X109.456 Y103.756 E10.91671
G1 X109.212 Y104.32 E10.93709
G1 X109.207 Y104.332 E10.93753
G1 X109.204 Y104.339 E10.93778
G1 X108.92 Y104.896 E10.95857
G1 X108.906 Y104.919 E10.95947
G1 X108.594 Y105.447 E10.97984
G1 X108.584 Y105.461 E10.98041
G1 X108.252 Y105.952 E11.00013
G1 X108.224 Y105.989 E11.00167
G1 X107.847 Y106.477 E11.02218
G1 X107.833 Y106.493 E11.02289
G1 X107.425 Y106.956 E11.04334
G1 X107.413 Y106.97 E11.04395
G1 X106.97 Y107.413 E11.06474
G1 X106.956 Y107.425 E11.06535
G1 X106.493 Y107.832 E11.08575
G1 X106.475 Y107.848 E11.08655
G1 X105.991 Y108.224 E11.10689
G1 X105.981 Y108.232 E11.10731
G1 X105.972 Y108.238 E11.10767
G1 X105.459 Y108.586 E11.12824
G1 X105.442 Y108.596 E11.12889
G1 X104.913 Y108.91 E11.1493
G1 X104.901 Y108.917 E11.14977
G1 X104.891 Y108.922 E11.15014
G1 X104.342 Y109.201 E11.17054
G1 X104.326 Y109.209 E11.17114
G1 X103.757 Y109.455 E11.19168
G1 X103.734 Y109.465 E11.19251
G1 X103.156 Y109.672 E11.21288
G1 X103.134 Y109.68 E11.21366
G1 X102.543 Y109.851 E11.23412
G1 X102.525 Y109.857 E11.23475
G1 X101.913 Y109.993 E11.25555
G1 X101.896 Y109.995 E11.25612
G1 X101.288 Y110.092 E11.2765
G1 X101.269 Y110.095 E11.27714
G1 X100.641 Y110.154 E11.29801
G1 X100.626 Y110.154 E11.29851
G1 X100.013 Y110.174 E11.31883
G1 X100 Y110.175 E11.31927
G1 X99.374 Y110.155 E11.34007
G1 X99.359 Y110.154 E11.34057
G1 X98.731 Y110.095 E11.36145
G1 X98.714 Y110.093 E11.36202
G1 X98.106 Y109.996 E11.38239
G1 X98.087 Y109.993 E11.38303
G1 X97.489 Y109.86 E11.40338
G1 X97.471 Y109.856 E11.40399
G1 X97.445 Y109.848 E11.4049
G1 X96.855 Y109.676 E11.42531
G1 X96.26 Y109.462 E11.44627
G1 X96.244 Y109.455 E11.44685
G1 X95.68 Y109.212 E11.4672
G1 X95.662 Y109.204 E11.46785
G1 X95.115 Y108.925 E11.48825
G1 X95.099 Y108.917 E11.48885
G1 X95.087 Y108.91 E11.48931
G1 X94.559 Y108.597 E11.5097
G1 X94.549 Y108.591 E11.51008
G1 X94.539 Y108.584 E11.51049
G1 X94.03 Y108.238 E11.53088
G1 X94.007 Y108.222 E11.53181
G1 X93.526 Y107.848 E11.55203
G1 X93.51 Y107.836 E11.55269
G1 X93.047 Y107.428 E11.57317
G1 X93.028 Y107.409 E11.57406
G1 X92.593 Y106.975 E11.5944
G1 X92.578 Y106.96 E11.5951
G1 X92.168 Y106.494 E11.61569
G1 X92.153 Y106.477 E11.61645
G1 X91.777 Y105.991 E11.63689
G1 X91.764 Y105.975 E11.63757
G1 X91.409 Y105.453 E11.65857
G1 X91.403 Y105.442 E11.65898
G1 X91.09 Y104.911 E11.67941
G1 X91.075 Y104.885 E11.68041
G1 X90.8 Y104.342 E11.70057
G1 X90.788 Y104.319 E11.70144
G1 X90.546 Y103.754 E11.72173
G1 X90.525 Y103.705 E11.72349
G1 X90.329 Y103.155 E11.74284
G1 X90.314 Y103.113 E11.74432
G1 X90.149 Y102.543 E11.76403
G1 X90.143 Y102.524 E11.76469
G1 X90.008 Y101.918 E11.78529
G1 X90.005 Y101.896 E11.78603
G1 X89.908 Y101.288 E11.80641
G1 X89.905 Y101.272 E11.80695
G1 X89.848 Y100.656 E11.8274
G1 X89.847 Y100.627 E11.82836
G1 X89.826 Y100.018 E11.84853
G1 X89.826 Y99.989 E11.84949
G1 X89.845 Y99.367 E11.87014
G1 X89.846 Y99.351 E11.87067
G1 X89.903 Y98.743 E11.89093
G1 X89.907 Y98.714 E11.8919
G1 X90.004 Y98.099 E11.91253
G1 X90.142 Y97.481 E11.93354
G1 X90.146 Y97.466 E11.93406
G1 X90.321 Y96.867 E11.95476
G1 X90.327 Y96.846 E11.95549
G1 X90.538 Y96.26 E11.97613
G1 X90.544 Y96.245 E11.97666
G1 X90.787 Y95.681 E11.99709
G1 X90.798 Y95.658 E11.99794
G1 X91.076 Y95.111 E12.01832
G1 X91.08 Y95.104 E12.01859
G1 X91.405 Y94.554 E12.03984
G1 X91.416 Y94.538 E12.04048
G1 X91.762 Y94.031 E12.06085
G1 X91.775 Y94.011 E12.06164
G1 X92.152 Y93.526 E12.08202
G1 X92.164 Y93.51 E12.08268
G1 X92.575 Y93.044 E12.10335
G1 X92.587 Y93.03 E12.10396
G1 X93.03 Y92.587 E12.12475
G1 X93.043 Y92.576 E12.12532
