;FLAVOR:Marlin
;TIME:541
;Filament used: 0.168667m
;Layer height: 0.12
;Generated with Cura_SteamEngine 3.6.0
M140 S60
M105
M190 S60
M104 S200
M105
M109 S200
M82 ;absolute extrusion mode
G21 ;metric values
G90 ;absolute positioning
M82 ;set extruder to absolute mode
M107 ;start with the fan off
G28 X0 Y0 ;move X/Y to min endstops
G28 Z0 ;move Z to min endstops
G1 Z15.0 F120 ;move the platform down 15mm
G92 E0 ;zero the extruded length
G1 F200 E6 ;extrude 6 mm of feed stock
G92 E0 ;zero the extruded length again
M117 Printing...
G1 F120
G92 E0
G1 F2400 E-2.5
;LAYER_COUNT:67
;LAYER:0
M107
G0 F3600 X89.181 Y89.958 Z0.2
;TYPE:SKIRT
G1 F2400 E0
G1 F900 X90.248 Y88.919 E0.04953
G1 X90.631 Y88.591 E0.06631
G1 X91.623 Y87.843 E0.10763
G1 X92.048 Y87.563 E0.12456
G1 X93.329 Y86.832 E0.17361
G1 X93.786 Y86.608 E0.19054
G1 X94.954 Y86.126 E0.23256
G1 X95.536 Y85.937 E0.25292
G1 X97.53 Y85.453 E0.32116
G1 X98.16 Y85.352 E0.34238
G1 X99.52 Y85.245 E0.38776
G1 X100.02 Y85.237 E0.40439
G1 X101.352 Y85.299 E0.44874
G1 X101.854 Y85.355 E0.46554
G1 X103.2 Y85.59 E0.51099
G1 X103.674 Y85.703 E0.52719
G1 X104.912 Y86.079 E0.57023
G1 X105.377 Y86.252 E0.58673
G1 X106.619 Y86.805 E0.63195
G1 X107.066 Y87.039 E0.64873
G1 X108.217 Y87.737 E0.6935
G1 X108.621 Y88.017 E0.70985
G1 X109.664 Y88.84 E0.75404
G1 X110.138 Y89.281 E0.77557
G1 X111.578 Y90.856 E0.84655
G1 X111.971 Y91.362 E0.86786
G1 X112.698 Y92.471 E0.91197
G1 X112.946 Y92.907 E0.92865
G1 X113.549 Y94.14 E0.9743
G1 X113.78 Y94.724 E0.99519
G1 X114.368 Y96.641 E1.06188
G1 X114.52 Y97.377 E1.08688
G1 X114.742 Y99.398 E1.1545
G1 X114.763 Y100.001 E1.17457
G1 X114.711 Y101.254 E1.21628
G1 X114.655 Y101.774 E1.23367
G1 X114.399 Y103.245 E1.28333
G1 X114.283 Y103.728 E1.29986
G1 X113.918 Y104.922 E1.34138
G1 X113.745 Y105.384 E1.35779
G1 X113.185 Y106.638 E1.40347
G1 X112.956 Y107.077 E1.41994
G1 X112.281 Y108.193 E1.46332
G1 X111.905 Y108.714 E1.48469
G1 X110.514 Y110.35 E1.55611
G1 X110.063 Y110.802 E1.57735
G1 X109.083 Y111.638 E1.62019
G1 X108.692 Y111.932 E1.63646
G1 X107.566 Y112.676 E1.68135
G1 X107.136 Y112.923 E1.69784
G1 X105.955 Y113.508 E1.74168
G1 X105.379 Y113.74 E1.76233
G1 X103.432 Y114.352 E1.83021
G1 X102.691 Y114.51 E1.85541
G1 X100.695 Y114.74 E1.92224
G1 X100.068 Y114.762 E1.94311
G1 X98.676 Y114.703 E1.98945
G1 X98.152 Y114.647 E2.00697
G1 X96.764 Y114.403 E2.05385
G1 X96.286 Y114.288 E2.0702
G1 X95.074 Y113.917 E2.11236
G1 X94.622 Y113.748 E2.12841
G1 X93.41 Y113.21 E2.17251
G1 X92.968 Y112.98 E2.18908
G1 X91.805 Y112.279 E2.23425
G1 X91.392 Y111.993 E2.25096
G1 X90.333 Y111.157 E2.29583
G1 X89.861 Y110.719 E2.31725
G1 X88.435 Y109.162 E2.38747
G1 X88.038 Y108.65 E2.40902
G1 X87.286 Y107.501 E2.45469
G1 X87.042 Y107.072 E2.47111
G1 X86.479 Y105.924 E2.51363
G1 X86.289 Y105.467 E2.5301
G1 X85.835 Y104.151 E2.5764
G1 X85.703 Y103.677 E2.59276
G1 X85.439 Y102.432 E2.63509
G1 X85.366 Y101.941 E2.6516
G1 X85.249 Y100.565 E2.69753
G1 X85.239 Y100.056 E2.71447
G1 X85.298 Y98.667 E2.76071
G1 X85.357 Y98.129 E2.77871
G1 X85.616 Y96.688 E2.8274
G1 X85.729 Y96.221 E2.84338
G1 X86.078 Y95.085 E2.88291
G1 X86.249 Y94.631 E2.89905
G1 X86.814 Y93.364 E2.94519
G1 X87.045 Y92.922 E2.96177
G1 X87.724 Y91.8 E3.00539
G1 X88.006 Y91.393 E3.02186
G1 X88.832 Y90.346 E3.06622
G1 X89.181 Y89.958 E3.08358
G0 F3600 X89.46 Y90.245
G1 F900 X90.527 Y89.206 E3.13311
G1 X90.872 Y88.911 E3.14821
G1 X91.864 Y88.163 E3.18953
G1 X92.247 Y87.91 E3.2048
G1 X93.528 Y87.179 E3.25385
G1 X93.939 Y86.978 E3.26907
G1 X95.107 Y86.496 E3.31109
G1 X95.631 Y86.326 E3.32942
G1 X97.625 Y85.842 E3.39766
G1 X98.192 Y85.751 E3.41676
G1 X99.552 Y85.644 E3.46214
G1 X100.001 Y85.637 E3.47707
G1 X101.333 Y85.699 E3.52142
G1 X101.785 Y85.749 E3.53655
G1 X103.131 Y85.984 E3.58199
G1 X103.558 Y86.085 E3.59659
G1 X104.796 Y86.461 E3.63962
G1 X105.214 Y86.617 E3.65446
G1 X106.456 Y87.17 E3.69968
G1 X106.859 Y87.381 E3.71481
G1 X108.01 Y88.079 E3.75958
G1 X108.373 Y88.331 E3.77428
G1 X109.416 Y89.154 E3.81847
G1 X109.843 Y89.551 E3.83786
G1 X111.283 Y91.126 E3.90884
G1 X111.637 Y91.581 E3.92801
G1 X112.364 Y92.69 E3.97212
G1 X112.587 Y93.082 E3.98712
G1 X113.19 Y94.315 E4.03277
G1 X113.398 Y94.841 E4.05158
G1 X113.986 Y96.758 E4.11827
G1 X114.122 Y97.421 E4.14078
G1 X114.344 Y99.442 E4.20841
G1 X114.363 Y99.984 E4.22645
G1 X114.311 Y101.237 E4.26816
G1 X114.261 Y101.705 E4.28381
G1 X114.005 Y103.176 E4.33347
G1 X113.901 Y103.611 E4.34835
G1 X113.536 Y104.805 E4.38987
G1 X113.38 Y105.221 E4.40465
G1 X112.82 Y106.475 E4.45033
G1 X112.613 Y106.87 E4.46516
G1 X111.938 Y107.986 E4.50854
G1 X111.601 Y108.455 E4.52775
G1 X110.21 Y110.091 E4.59917
G1 X109.803 Y110.498 E4.61832
G1 X108.823 Y111.334 E4.66116
G1 X108.472 Y111.599 E4.67579
G1 X107.346 Y112.343 E4.72068
G1 X106.959 Y112.565 E4.73552
G1 X105.778 Y113.15 E4.77935
G1 X105.26 Y113.358 E4.79792
G1 X103.313 Y113.97 E4.8658
G1 X102.645 Y114.112 E4.88851
G1 X100.649 Y114.342 E4.95534
G1 X100.085 Y114.363 E4.97411
G1 X98.693 Y114.304 E5.02045
G1 X98.222 Y114.253 E5.03621
G1 X96.834 Y114.009 E5.08308
G1 X96.403 Y113.905 E5.09783
G1 X95.191 Y113.534 E5.13998
G1 X94.784 Y113.382 E5.15443
G1 X93.572 Y112.844 E5.19854
G1 X93.175 Y112.637 E5.21343
G1 X92.012 Y111.936 E5.2586
G1 X91.639 Y111.679 E5.27366
G1 X90.58 Y110.843 E5.31854
G1 X90.156 Y110.448 E5.33781
G1 X88.73 Y108.891 E5.40803
G1 X88.373 Y108.431 E5.4274
G1 X87.621 Y107.282 E5.47307
G1 X87.401 Y106.896 E5.48785
G1 X86.838 Y105.748 E5.53038
G1 X86.667 Y105.337 E5.54518
G1 X86.213 Y104.021 E5.59148
G1 X86.094 Y103.594 E5.60623
G1 X85.83 Y102.349 E5.64856
G1 X85.765 Y101.907 E5.66342
G1 X85.648 Y100.531 E5.70935
G1 X85.638 Y100.073 E5.72458
G1 X85.697 Y98.684 E5.77082
G1 X85.751 Y98.2 E5.78702
G1 X86.01 Y96.759 E5.83572
G1 X86.112 Y96.339 E5.85009
G1 X86.461 Y95.203 E5.88962
G1 X86.614 Y94.794 E5.90414
G1 X87.179 Y93.527 E5.95028
G1 X87.387 Y93.129 E5.96522
G1 X88.066 Y92.007 E6.00884
G1 X88.32 Y91.641 E6.02366
G1 X89.146 Y90.594 E6.06801
G1 X89.46 Y90.245 E6.08363
G0 F3600 X89.74 Y90.531
G1 F900 X90.807 Y89.492 E6.13316
G1 X91.112 Y89.23 E6.14654
G1 X92.104 Y88.482 E6.18786
G1 X92.445 Y88.258 E6.20143
G1 X93.726 Y87.527 E6.25048
G1 X94.091 Y87.348 E6.264
G1 X95.259 Y86.866 E6.30603
G1 X95.725 Y86.714 E6.32233
G1 X97.719 Y86.23 E6.39058
G1 X98.223 Y86.15 E6.40755
G1 X99.583 Y86.043 E6.45293
G1 X99.983 Y86.036 E6.46623
G1 X101.315 Y86.098 E6.51058
G1 X101.716 Y86.143 E6.524
G1 X103.062 Y86.378 E6.56945
G1 X103.442 Y86.468 E6.58244
G1 X104.68 Y86.844 E6.62547
G1 X105.052 Y86.983 E6.63868
G1 X106.294 Y87.536 E6.6839
G1 X106.651 Y87.723 E6.6973
G1 X107.802 Y88.421 E6.74207
G1 X108.125 Y88.645 E6.75515
G1 X109.168 Y89.468 E6.79934
G1 X109.548 Y89.821 E6.81659
G1 X110.988 Y91.396 E6.88757
G1 X111.302 Y91.801 E6.90461
G1 X112.029 Y92.91 E6.94872
G1 X112.228 Y93.258 E6.96205
G1 X112.831 Y94.491 E7.0077
G1 X113.015 Y94.959 E7.02443
G1 X113.603 Y96.876 E7.09112
G1 X113.725 Y97.465 E7.11112
G1 X113.947 Y99.486 E7.17875
G1 X113.963 Y99.968 E7.19479
G1 X113.911 Y101.221 E7.2365
G1 X113.867 Y101.637 E7.25041
G1 X113.611 Y103.108 E7.30007
G1 X113.518 Y103.494 E7.31328
G1 X113.153 Y104.688 E7.3548
G1 X113.015 Y105.058 E7.36794
G1 X112.455 Y106.312 E7.41362
G1 X112.271 Y106.663 E7.4268
G1 X111.596 Y107.779 E7.47018
G1 X111.296 Y108.196 E7.48726
G1 X109.905 Y109.832 E7.55869
G1 X109.544 Y110.194 E7.57569
G1 X108.564 Y111.03 E7.61853
G1 X108.251 Y111.265 E7.63155
G1 X107.125 Y112.009 E7.67644
G1 X106.781 Y112.206 E7.68962
G1 X105.6 Y112.791 E7.73346
G1 X105.14 Y112.977 E7.74996
G1 X103.193 Y113.589 E7.81784
G1 X102.599 Y113.715 E7.83804
G1 X100.603 Y113.945 E7.90487
G1 X100.101 Y113.963 E7.92157
G1 X98.709 Y113.904 E7.96791
G1 X98.291 Y113.859 E7.9819
G1 X96.903 Y113.615 E8.02877
G1 X96.52 Y113.523 E8.04187
G1 X95.308 Y113.152 E8.08403
G1 X94.947 Y113.017 E8.09685
G1 X93.735 Y112.479 E8.14095
G1 X93.381 Y112.295 E8.15422
G1 X92.218 Y111.594 E8.19939
G1 X91.887 Y111.365 E8.21277
G1 X90.828 Y110.529 E8.25765
G1 X90.451 Y110.178 E8.27478
G1 X89.025 Y108.621 E8.345
G1 X88.707 Y108.212 E8.36224
G1 X87.955 Y107.063 E8.40791
G1 X87.76 Y106.72 E8.42103
G1 X87.197 Y105.572 E8.46356
G1 X87.045 Y105.207 E8.47671
G1 X86.591 Y103.891 E8.52301
G1 X86.486 Y103.511 E8.53612
G1 X86.222 Y102.266 E8.57845
G1 X86.164 Y101.873 E8.59167
G1 X86.047 Y100.497 E8.6376
G1 X86.038 Y100.09 E8.65114
G1 X86.097 Y98.701 E8.69738
G1 X86.144 Y98.271 E8.71176
G1 X86.403 Y96.83 E8.76046
G1 X86.494 Y96.456 E8.77326
G1 X86.843 Y95.32 E8.81279
G1 X86.979 Y94.957 E8.82568
G1 X87.544 Y93.69 E8.87182
G1 X87.729 Y93.336 E8.88511
G1 X88.408 Y92.214 E8.92873
G1 X88.634 Y91.889 E8.94189
G1 X89.46 Y90.842 E8.98625
G1 X89.74 Y90.531 E9.00017
G1 F2400 E6.50017
;MESH:message_ring_customizer_20190112-55-jschnr.stl
G0 F3600 X89.66 Y95.096
G0 X90.448 Y95.497
G0 X89.522 Y100.015
G0 X89.421 Y100.015
;TYPE:WALL-OUTER
G1 F2400 E9.00017
G1 F900 X89.421 Y99.989 E9.00103
G1 X89.439 Y99.349 E9.02233
G1 X89.44 Y99.338 E9.02269
G1 X89.501 Y98.689 E9.04437
G1 X89.503 Y98.68 E9.04468
G1 X89.505 Y98.663 E9.04525
G1 X89.607 Y98.02 E9.0669
G1 X89.61 Y98.006 E9.06738
G1 X89.75 Y97.381 E9.08868
G1 X89.755 Y97.362 E9.08934
G1 X89.934 Y96.743 E9.11077
G1 X89.94 Y96.725 E9.1114
G1 X90.161 Y96.111 E9.1331
G1 X90.168 Y96.095 E9.13368
G1 X90.422 Y95.507 E9.15499
G1 X90.43 Y95.489 E9.15564
G1 X90.725 Y94.909 E9.17729
G1 X91.058 Y94.346 E9.19904
G1 X91.064 Y94.337 E9.1994
G1 X91.074 Y94.322 E9.2
G1 X91.437 Y93.787 E9.2215
G1 X91.448 Y93.772 E9.22212
G1 X91.846 Y93.26 E9.24369
G1 X91.855 Y93.249 E9.24417
G1 X92.276 Y92.77 E9.26538
G1 X92.297 Y92.749 E9.26636
G1 X92.749 Y92.298 E9.2876
G1 X92.773 Y92.274 E9.28873
G1 X93.252 Y91.852 E9.30996
G1 X93.266 Y91.841 E9.31055
G1 X93.771 Y91.45 E9.3318
G1 X93.787 Y91.437 E9.33248
G1 X94.321 Y91.074 E9.35396
G1 X94.331 Y91.067 E9.35436
G1 X94.341 Y91.061 E9.35475
G1 X94.892 Y90.735 E9.37605
G1 X94.909 Y90.725 E9.3767
G1 X95.485 Y90.433 E9.39818
G1 X95.497 Y90.427 E9.39863
G1 X95.507 Y90.423 E9.39899
G1 X96.094 Y90.169 E9.42026
G1 X96.119 Y90.158 E9.42117
G1 X96.719 Y89.943 E9.44237
G1 X96.733 Y89.938 E9.44286
G1 X97.358 Y89.757 E9.4645
G1 X97.383 Y89.749 E9.46537
G1 X98.006 Y89.611 E9.4866
G1 X98.019 Y89.608 E9.48704
G1 X98.029 Y89.607 E9.48738
G1 X98.661 Y89.507 E9.50866
G1 X98.688 Y89.502 E9.50957
G1 X99.324 Y89.443 E9.53082
G1 X99.34 Y89.441 E9.53135
G1 X99.988 Y89.421 E9.55291
G1 X100.008 Y89.42 E9.55358
G1 X100.653 Y89.441 E9.57504
G1 X100.675 Y89.442 E9.57578
G1 X101.315 Y89.502 E9.59716
G1 X101.34 Y89.505 E9.59799
G1 X101.971 Y89.605 E9.61924
G1 X101.985 Y89.608 E9.61972
G1 X102.608 Y89.747 E9.64095
G1 X102.638 Y89.754 E9.64198
G1 X102.644 Y89.756 E9.64219
G1 X103.257 Y89.936 E9.66343
G1 X103.278 Y89.942 E9.66416
G1 X103.883 Y90.16 E9.68555
G1 X103.905 Y90.168 E9.68633
G1 X104.492 Y90.422 E9.7076
G1 X104.511 Y90.43 E9.70829
G1 X105.086 Y90.723 E9.72975
G1 X105.096 Y90.728 E9.73012
G1 X105.659 Y91.061 E9.75188
G1 X105.669 Y91.067 E9.75227
G1 X105.679 Y91.074 E9.75267
G1 X106.213 Y91.437 E9.77415
G1 X106.228 Y91.449 E9.77479
G1 X106.733 Y91.842 E9.79607
G1 X106.754 Y91.858 E9.79695
G1 X107.233 Y92.28 E9.81818
G1 X107.247 Y92.292 E9.8188
G1 X107.708 Y92.753 E9.84048
G1 X107.719 Y92.766 E9.84105
G1 X108.148 Y93.252 E9.86261
G1 X108.159 Y93.266 E9.8632
G1 X108.55 Y93.771 E9.88444
G1 X108.563 Y93.787 E9.88513
G1 X108.93 Y94.326 E9.90682
G1 X108.938 Y94.34 E9.90735
G1 X109.265 Y94.892 E9.92869
G1 X109.275 Y94.909 E9.92935
G1 X109.57 Y95.489 E9.95099
G1 X109.577 Y95.507 E9.95163
G1 X109.831 Y96.094 E9.97291
G1 X109.839 Y96.111 E9.97353
G1 X110.06 Y96.725 E9.99523
G1 X110.065 Y96.742 E9.99582
G1 X110.246 Y97.363 E10.01734
G1 X110.249 Y97.38 E10.01791
G1 X110.391 Y98.011 E10.03942
G1 X110.393 Y98.028 E10.03999
G1 X110.494 Y98.662 E10.06135
G1 X110.497 Y98.68 E10.06195
G1 X110.557 Y99.324 E10.08347
G1 X110.56 Y99.353 E10.08443
G1 X110.578 Y99.989 E10.1056
G1 X110.579 Y100.014 E10.10643
G1 X110.559 Y100.66 E10.12793
G1 X110.558 Y100.675 E10.12843
G1 X110.501 Y101.29 E10.14897
G1 X110.494 Y101.337 E10.15055
G1 X110.394 Y101.971 E10.1719
G1 X110.389 Y101.997 E10.17278
G1 X110.249 Y102.625 E10.19418
G1 X110.244 Y102.643 E10.1948
G1 X110.065 Y103.258 E10.2161
G1 X110.061 Y103.27 E10.21652
G1 X110.058 Y103.28 E10.21687
G1 X109.839 Y103.889 E10.2384
G1 X109.832 Y103.905 E10.23898
G1 X109.578 Y104.493 E10.26028
G1 X109.571 Y104.508 E10.26083
G1 X109.282 Y105.078 E10.28209
G1 X109.275 Y105.091 E10.28258
G1 X109.265 Y105.108 E10.28323
G1 X108.939 Y105.659 E10.30453
G1 X108.929 Y105.675 E10.30515
G1 X108.568 Y106.207 E10.32654
G1 X108.553 Y106.227 E10.32737
G1 X108.175 Y106.715 E10.3479
G1 X108.144 Y106.751 E10.34948
G1 X107.721 Y107.231 E10.37076
G1 X107.7 Y107.255 E10.37182
G1 X107.252 Y107.703 E10.39289
G1 X107.234 Y107.719 E10.39369
G1 X106.756 Y108.141 E10.4149
G1 X106.734 Y108.158 E10.41583
G1 X106.228 Y108.551 E10.43714
G1 X106.215 Y108.561 E10.43768
G1 X105.68 Y108.925 E10.4592
G1 X105.669 Y108.933 E10.45966
G1 X105.659 Y108.939 E10.46004
G1 X105.108 Y109.265 E10.48134
G1 X105.098 Y109.271 E10.48173
G1 X105.086 Y109.277 E10.48217
G1 X104.508 Y109.571 E10.50374
G1 X104.493 Y109.577 E10.50428
G1 X103.906 Y109.831 E10.52555
G1 X103.895 Y109.836 E10.52595
G1 X103.883 Y109.84 E10.52637
G1 X103.28 Y110.056 E10.54768
G1 X103.247 Y110.068 E10.54884
G1 X102.644 Y110.243 E10.56973
G1 X102.617 Y110.251 E10.57066
G1 X101.995 Y110.39 E10.59186
G1 X101.971 Y110.393 E10.59267
G1 X101.338 Y110.493 E10.61398
G1 X101.312 Y110.498 E10.61486
G1 X100.676 Y110.557 E10.63611
G1 X100.66 Y110.559 E10.63664
G1 X100.012 Y110.579 E10.65821
G1 X99.992 Y110.58 E10.65887
G1 X99.347 Y110.559 E10.68034
G1 X99.325 Y110.558 E10.68107
G1 X98.685 Y110.498 E10.70245
G1 X98.671 Y110.496 E10.70292
G1 X98.029 Y110.394 E10.72454
G1 X98.011 Y110.391 E10.72515
G1 X97.387 Y110.252 E10.74641
G1 X97.37 Y110.248 E10.74699
G1 X97.355 Y110.243 E10.74752
G1 X96.742 Y110.065 E10.76875
G1 X96.73 Y110.061 E10.76917
G1 X96.72 Y110.058 E10.76951
G1 X96.11 Y109.839 E10.79107
G1 X96.094 Y109.832 E10.79165
G1 X95.503 Y109.576 E10.81307
G1 X95.487 Y109.568 E10.81367
G1 X94.914 Y109.277 E10.83504
G1 X94.897 Y109.268 E10.83568
G1 X94.342 Y108.938 E10.85716
G1 X94.325 Y108.928 E10.85782
G1 X93.792 Y108.566 E10.87925
G1 X93.778 Y108.556 E10.87982
G1 X93.267 Y108.159 E10.90134
G1 X93.244 Y108.141 E10.90231
G1 X92.767 Y107.72 E10.92347
G1 X92.753 Y107.708 E10.92409
G1 X92.291 Y107.246 E10.94582
G1 X92.28 Y107.234 E10.94636
G1 X91.852 Y106.748 E10.9679
G1 X91.841 Y106.734 E10.96849
G1 X91.45 Y106.229 E10.98973
G1 X91.437 Y106.213 E10.99042
G1 X91.075 Y105.68 E11.01185
G1 X91.065 Y105.666 E11.01242
G1 X90.73 Y105.099 E11.03432
G1 X90.724 Y105.086 E11.0348
G1 X90.429 Y104.508 E11.05638
G1 X90.423 Y104.494 E11.05689
G1 X90.168 Y103.906 E11.07821
G1 X90.16 Y103.884 E11.07898
G1 X89.94 Y103.272 E11.10062
G1 X89.936 Y103.258 E11.1011
G1 X89.754 Y102.634 E11.12272
G1 X89.751 Y102.62 E11.12319
G1 X89.612 Y101.996 E11.14446
G1 X89.609 Y101.985 E11.14484
G1 X89.607 Y101.972 E11.14527
G1 X89.506 Y101.34 E11.16656
G1 X89.504 Y101.315 E11.1674
G1 X89.443 Y100.676 E11.18875
G1 X89.443 Y100.654 E11.18948
G1 X89.421 Y100.015 E11.21074
G0 F3600 X89.421 Y99.989
G0 X89.425 Y99.815
G0 X89.526 Y99.817
G0 X90.28 Y103.158
G0 X90.753 Y104.351
G0 X91.372 Y105.476
G0 X92.126 Y106.514
G0 X93.004 Y107.45
G0 X93.993 Y108.268
G0 X95.077 Y108.956
G0 X96.238 Y109.502
G0 X97.459 Y109.898
G0 X98.719 Y110.139
G0 X100 Y110.22
G0 X101.036 Y110.156
G0 X103.163 Y109.781
G0 X103.136 Y109.685
G1 F900 X103.146 Y109.682 E11.21109
G1 X103.748 Y109.465 E11.23224
G1 X104.334 Y109.211 E11.2534
G1 X104.904 Y108.921 E11.27462
G1 X105.455 Y108.595 E11.29586
G1 X105.984 Y108.236 E11.31704
G1 X106.489 Y107.844 E11.3382
G1 X106.969 Y107.421 E11.35937
G1 X107.421 Y106.969 E11.38058
G1 X107.844 Y106.489 E11.40175
G1 X108.236 Y105.984 E11.42301
G1 X108.595 Y105.455 E11.44422
G1 X108.921 Y104.904 E11.46549
G1 X109.211 Y104.334 E11.48674
G1 X109.465 Y103.748 E11.50793
G1 X109.682 Y103.146 E11.52916
G1 X109.86 Y102.532 E11.55036
G1 X110 Y101.908 E11.57158
G1 X110.1 Y101.276 E11.59278
