;FLAVOR:Marlin
;TIME:387
;Filament used: 0.127337m
;Layer height: 0.12
;Generated with Cura_SteamEngine 3.6.0
M140 S60
M105
M190 S60
M104 S200
M105
M109 S200
M82 ;absolute extrusion mode
G21 ;metric values
G90 ;absolute positioning
M82 ;set extruder to absolute mode
M107 ;start with the fan off
G28 X0 Y0 ;move X/Y to min endstops
G28 Z0 ;move Z to min endstops
G1 Z15.0 F120 ;move the platform down 15mm
G92 E0 ;zero the extruded length
G1 F200 E6 ;extrude 6 mm of feed stock
G92 E0 ;zero the extruded length again
M117 Printing...
G1 F120
G92 E0
G1 F2400 E-2.5
;LAYER_COUNT:50
;LAYER:0
M107
G0 F3600 X89.409 Y90.004 Z0.2
;TYPE:SKIRT
G1 F2400 E0
G1 F900 X90.356 Y89.087 E0.04384
G1 X90.848 Y88.682 E0.06504
G1 X92.513 Y87.519 E0.13259
G1 X93.035 Y87.21 E0.15276
G1 X94.118 Y86.676 E0.19293
G1 X94.707 Y86.442 E0.21401
G1 X96.718 Y85.821 E0.28401
G1 X97.347 Y85.681 E0.30544
G1 X98.648 Y85.5 E0.34913
G1 X99.148 Y85.462 E0.36581
G1 X100.487 Y85.445 E0.41035
G1 X101.106 Y85.485 E0.43098
G1 X103.01 Y85.758 E0.49495
G1 X103.585 Y85.885 E0.51454
G1 X104.752 Y86.233 E0.55504
G1 X105.234 Y86.411 E0.57213
G1 X106.581 Y87.01 E0.62116
G1 X107.135 Y87.31 E0.64212
G1 X108.681 Y88.314 E0.70343
G1 X109.267 Y88.778 E0.72829
G1 X110.804 Y90.248 E0.79903
G1 X111.235 Y90.734 E0.82063
G1 X112.017 Y91.773 E0.86388
G1 X112.285 Y92.178 E0.88004
G1 X112.902 Y93.247 E0.92109
G1 X113.128 Y93.702 E0.93799
G1 X113.707 Y95.085 E0.98785
G1 X113.911 Y95.716 E1.00991
G1 X114.364 Y97.646 E1.07585
G1 X114.458 Y98.246 E1.09605
G1 X114.554 Y99.466 E1.13675
G1 X114.562 Y99.948 E1.15278
G1 X114.506 Y101.28 E1.19712
G1 X114.449 Y101.806 E1.21472
G1 X114.2 Y103.219 E1.26244
G1 X114.084 Y103.703 E1.279
G1 X113.724 Y104.871 E1.31965
G1 X113.555 Y105.32 E1.3356
G1 X113.021 Y106.519 E1.37926
G1 X112.789 Y106.963 E1.39592
G1 X112.102 Y108.098 E1.44005
G1 X111.823 Y108.502 E1.45638
G1 X111.019 Y109.523 E1.4996
G1 X110.564 Y110.01 E1.52177
G1 X108.954 Y111.471 E1.59408
G1 X108.453 Y111.858 E1.61513
G1 X107.45 Y112.513 E1.65498
G1 X107.034 Y112.751 E1.67092
G1 X105.825 Y113.348 E1.71576
G1 X105.231 Y113.584 E1.73702
G1 X103.321 Y114.172 E1.80349
G1 X102.69 Y114.312 E1.82499
G1 X101.289 Y114.505 E1.87203
G1 X100.678 Y114.541 E1.89238
G1 X98.846 Y114.511 E1.95333
G1 X98.104 Y114.43 E1.97815
G1 X96.036 Y114.004 E2.04838
G1 X95.308 Y113.78 E2.07371
G1 X93.546 Y113.048 E2.13717
G1 X92.876 Y112.691 E2.16242
G1 X91.134 Y111.54 E2.23187
G1 X90.548 Y111.069 E2.25687
G1 X89.17 Y109.727 E2.32085
G1 X88.766 Y109.267 E2.34121
G1 X87.991 Y108.238 E2.38406
G1 X87.652 Y107.706 E2.40504
G1 X86.696 Y105.903 E2.47291
G1 X86.443 Y105.315 E2.4942
G1 X86.013 Y104.049 E2.53867
G1 X85.883 Y103.573 E2.55509
G1 X85.619 Y102.297 E2.59842
G1 X85.549 Y101.805 E2.61495
G1 X85.447 Y100.525 E2.65766
G1 X85.438 Y100.032 E2.67406
G1 X85.497 Y98.683 E2.71897
G1 X85.555 Y98.158 E2.73654
G1 X85.803 Y96.763 E2.78366
G1 X85.921 Y96.276 E2.80033
G1 X86.294 Y95.076 E2.84213
G1 X86.466 Y94.623 E2.85824
G1 X86.995 Y93.446 E2.90116
G1 X87.23 Y92.999 E2.91796
G1 X87.938 Y91.841 E2.9631
G1 X88.229 Y91.427 E2.97993
G1 X89.07 Y90.377 E3.02468
G1 X89.409 Y90.004 E3.04144
G0 F3600 X89.688 Y90.292
G1 F900 X90.635 Y89.375 E3.08529
G1 X91.078 Y89.01 E3.10438
G1 X92.743 Y87.847 E3.17193
G1 X93.212 Y87.569 E3.19006
G1 X94.295 Y87.035 E3.23022
G1 X94.825 Y86.824 E3.2492
G1 X96.836 Y86.203 E3.3192
G1 X97.402 Y86.077 E3.33848
G1 X98.703 Y85.896 E3.38217
G1 X99.153 Y85.862 E3.39718
G1 X100.492 Y85.845 E3.44172
G1 X101.049 Y85.881 E3.46029
G1 X102.953 Y86.154 E3.52426
G1 X103.471 Y86.268 E3.5419
G1 X104.638 Y86.616 E3.58241
G1 X105.072 Y86.777 E3.5978
G1 X106.419 Y87.376 E3.64683
G1 X106.917 Y87.646 E3.66567
G1 X108.463 Y88.65 E3.72699
G1 X108.99 Y89.067 E3.74934
G1 X110.527 Y90.537 E3.82008
G1 X110.915 Y90.974 E3.83951
G1 X111.697 Y92.013 E3.88276
G1 X111.939 Y92.378 E3.89733
G1 X112.556 Y93.447 E3.93838
G1 X112.759 Y93.857 E3.9536
G1 X113.338 Y95.24 E4.00347
G1 X113.522 Y95.807 E4.02329
G1 X113.975 Y97.737 E4.08923
G1 X114.059 Y98.278 E4.10744
G1 X114.155 Y99.498 E4.14814
G1 X114.163 Y99.931 E4.16255
G1 X114.107 Y101.263 E4.20689
G1 X114.055 Y101.737 E4.22275
G1 X113.806 Y103.15 E4.27047
G1 X113.701 Y103.585 E4.28535
G1 X113.341 Y104.753 E4.326
G1 X113.19 Y105.158 E4.34038
G1 X112.656 Y106.357 E4.38403
G1 X112.447 Y106.756 E4.39902
G1 X111.76 Y107.891 E4.44314
G1 X111.508 Y108.254 E4.45784
G1 X110.704 Y109.275 E4.50106
G1 X110.295 Y109.714 E4.52102
G1 X108.685 Y111.175 E4.59333
G1 X108.234 Y111.523 E4.61228
G1 X107.231 Y112.178 E4.65212
G1 X106.857 Y112.392 E4.66645
G1 X105.648 Y112.989 E4.7113
G1 X105.113 Y113.202 E4.73045
G1 X103.203 Y113.79 E4.79692
G1 X102.635 Y113.915 E4.81626
G1 X101.234 Y114.108 E4.8633
G1 X100.684 Y114.142 E4.88163
G1 X98.852 Y114.112 E4.94257
G1 X98.185 Y114.038 E4.96489
G1 X96.117 Y113.612 E5.03512
G1 X95.462 Y113.411 E5.0579
G1 X93.7 Y112.679 E5.12137
G1 X93.096 Y112.358 E5.14412
G1 X91.354 Y111.207 E5.21356
G1 X90.827 Y110.782 E5.23608
G1 X89.449 Y109.44 E5.30005
G1 X89.085 Y109.027 E5.31836
G1 X88.31 Y107.998 E5.36121
G1 X88.005 Y107.518 E5.38012
G1 X87.049 Y105.715 E5.448
G1 X86.821 Y105.187 E5.46713
G1 X86.391 Y103.921 E5.5116
G1 X86.275 Y103.492 E5.52638
G1 X86.011 Y102.216 E5.56972
G1 X85.947 Y101.773 E5.58461
G1 X85.845 Y100.493 E5.62731
G1 X85.837 Y100.05 E5.64205
G1 X85.896 Y98.701 E5.68696
G1 X85.949 Y98.228 E5.70279
G1 X86.197 Y96.833 E5.74992
G1 X86.303 Y96.394 E5.76494
G1 X86.676 Y95.194 E5.80673
G1 X86.83 Y94.787 E5.82121
G1 X87.359 Y93.61 E5.86413
G1 X87.572 Y93.208 E5.87926
G1 X88.28 Y92.05 E5.9244
G1 X88.541 Y91.677 E5.93954
G1 X89.382 Y90.627 E5.98429
G1 X89.688 Y90.292 E5.99938
G0 F3600 X89.966 Y90.579
G1 F900 X90.913 Y89.662 E6.04322
G1 X91.307 Y89.338 E6.06019
G1 X92.972 Y88.175 E6.12774
G1 X93.389 Y87.928 E6.14386
G1 X94.472 Y87.394 E6.18402
G1 X94.943 Y87.206 E6.20089
G1 X96.954 Y86.585 E6.27089
G1 X97.457 Y86.474 E6.28802
G1 X98.758 Y86.293 E6.33171
G1 X99.158 Y86.262 E6.34505
G1 X100.497 Y86.245 E6.38959
G1 X100.992 Y86.277 E6.40609
G1 X102.896 Y86.55 E6.47007
G1 X103.356 Y86.651 E6.48573
G1 X104.523 Y86.999 E6.52623
G1 X104.909 Y87.142 E6.53993
G1 X106.256 Y87.741 E6.58896
G1 X106.699 Y87.981 E6.60571
G1 X108.245 Y88.985 E6.66703
G1 X108.714 Y89.356 E6.68692
G1 X110.251 Y90.826 E6.75765
G1 X110.596 Y91.215 E6.77495
G1 X111.378 Y92.254 E6.8182
G1 X111.592 Y92.578 E6.83111
G1 X112.209 Y93.647 E6.87217
G1 X112.39 Y94.011 E6.88569
G1 X112.969 Y95.394 E6.93555
G1 X113.132 Y95.899 E6.9532
G1 X113.585 Y97.829 E7.01914
G1 X113.66 Y98.309 E7.0353
G1 X113.756 Y99.529 E7.076
G1 X113.763 Y99.914 E7.08881
G1 X113.707 Y101.246 E7.13315
G1 X113.661 Y101.667 E7.14724
G1 X113.412 Y103.08 E7.19496
G1 X113.319 Y103.468 E7.20823
G1 X112.959 Y104.636 E7.24888
G1 X112.824 Y104.995 E7.26163
G1 X112.29 Y106.194 E7.30529
G1 X112.105 Y106.549 E7.3186
G1 X111.418 Y107.684 E7.36273
G1 X111.194 Y108.007 E7.37581
G1 X110.39 Y109.028 E7.41903
G1 X110.026 Y109.418 E7.43677
G1 X108.416 Y110.879 E7.50908
G1 X108.016 Y111.188 E7.52589
G1 X107.013 Y111.843 E7.56574
G1 X106.68 Y112.033 E7.57849
G1 X105.471 Y112.63 E7.62334
G1 X104.996 Y112.819 E7.64034
G1 X103.086 Y113.407 E7.70681
G1 X102.581 Y113.519 E7.72401
G1 X101.18 Y113.712 E7.77105
G1 X100.691 Y113.742 E7.78734
G1 X98.859 Y113.712 E7.84829
G1 X98.265 Y113.646 E7.86816
G1 X96.197 Y113.22 E7.93839
G1 X95.615 Y113.041 E7.95864
G1 X93.853 Y112.309 E8.0221
G1 X93.317 Y112.024 E8.04229
G1 X91.575 Y110.873 E8.11174
G1 X91.106 Y110.495 E8.13177
G1 X89.728 Y109.153 E8.19575
G1 X89.405 Y108.786 E8.21201
G1 X88.63 Y107.757 E8.25485
G1 X88.359 Y107.331 E8.27165
G1 X87.403 Y105.528 E8.33952
G1 X87.2 Y105.058 E8.35655
G1 X86.77 Y103.792 E8.40102
G1 X86.666 Y103.411 E8.41416
G1 X86.402 Y102.135 E8.4575
G1 X86.346 Y101.741 E8.47073
G1 X86.244 Y100.461 E8.51344
G1 X86.237 Y100.067 E8.52655
G1 X86.296 Y98.718 E8.57146
G1 X86.342 Y98.298 E8.58551
G1 X86.59 Y96.903 E8.63264
G1 X86.685 Y96.513 E8.64599
G1 X87.058 Y95.313 E8.68778
G1 X87.195 Y94.951 E8.70066
G1 X87.724 Y93.774 E8.74357
G1 X87.913 Y93.417 E8.75701
G1 X88.621 Y92.259 E8.80215
G1 X88.853 Y91.928 E8.8156
G1 X89.694 Y90.878 E8.86034
G1 X89.966 Y90.579 E8.87379
G1 F2400 E6.37379
;MESH:message_ring_customizer_20190112-55-157g9s2.stl
G0 F3600 X90.51 Y93.97
G0 X91.243 Y94.464
G0 X90.88 Y95.709
G0 X90.97 Y95.751
;TYPE:WALL-OUTER
G1 F2400 E8.87379
G1 F900 X90.721 Y96.326 E8.89463
G1 X90.717 Y96.339 E8.89508
G1 X90.509 Y96.916 E8.91548
G1 X90.333 Y97.518 E8.93634
G1 X90.196 Y98.13 E8.9572
G1 X90.098 Y98.749 E8.97804
G1 X90.039 Y99.373 E8.99889
G1 X90.02 Y100 E9.01975
G1 X90.039 Y100.627 E9.04062
G1 X90.04 Y100.639 E9.04102
G1 X90.098 Y101.251 E9.06146
G1 X90.194 Y101.86 E9.08197
G1 X90.196 Y101.87 E9.08231
G1 X90.333 Y102.482 E9.10317
G1 X90.337 Y102.496 E9.10365
G1 X90.509 Y103.084 E9.12403
G1 X90.716 Y103.662 E9.14445
G1 X90.721 Y103.674 E9.14488
G1 X90.97 Y104.249 E9.16572
G1 X91.255 Y104.808 E9.18659
G1 X91.573 Y105.347 E9.20741
G1 X91.926 Y105.867 E9.22831
G1 X92.31 Y106.362 E9.24915
G1 X92.725 Y106.832 E9.27
G1 X93.168 Y107.275 E9.29084
G1 X93.611 Y107.666 E9.31049
G1 X93.638 Y107.69 E9.31169
G1 X94.133 Y108.074 E9.33253
G1 X94.653 Y108.427 E9.35343
G1 X95.192 Y108.745 E9.37425
G1 X95.735 Y109.022 E9.39452
G1 X95.751 Y109.03 E9.39512
G1 X96.326 Y109.279 E9.41596
G1 X96.916 Y109.491 E9.43681
G1 X97.518 Y109.667 E9.45767
G1 X98.13 Y109.804 E9.47853
G1 X98.749 Y109.902 E9.49937
G1 X99.373 Y109.961 E9.52022
G1 X100 Y109.98 E9.54108
G1 X100.627 Y109.961 E9.56195
G1 X101.251 Y109.902 E9.5828
G1 X101.87 Y109.804 E9.60364
G1 X102.482 Y109.667 E9.6245
G1 X103.084 Y109.491 E9.64536
G1 X103.674 Y109.279 E9.66621
G1 X104.249 Y109.03 E9.68705
G1 X104.808 Y108.745 E9.70792
G1 X105.347 Y108.427 E9.72874
G1 X105.857 Y108.081 E9.74923
G1 X105.867 Y108.074 E9.74964
G1 X106.332 Y107.713 E9.76922
G1 X106.362 Y107.69 E9.77048
G1 X106.814 Y107.291 E9.79053
G1 X106.832 Y107.275 E9.79133
G1 X107.275 Y106.832 E9.81217
G1 X107.679 Y106.375 E9.83246
G1 X107.69 Y106.362 E9.83302
G1 X108.074 Y105.867 E9.85386
G1 X108.414 Y105.366 E9.874
G1 X108.427 Y105.347 E9.87476
G1 X108.745 Y104.808 E9.89558
G1 X109.03 Y104.249 E9.91645
G1 X109.279 Y103.674 E9.93729
G1 X109.491 Y103.084 E9.95814
G1 X109.667 Y102.482 E9.979
G1 X109.801 Y101.882 E9.99945
G1 X109.804 Y101.87 E9.99986
G1 X109.902 Y101.251 E10.0207
G1 X109.961 Y100.627 E10.04155
G1 X109.98 Y100 E10.06242
G1 X109.961 Y99.373 E10.08328
G1 X109.902 Y98.749 E10.10413
G1 X109.804 Y98.13 E10.12497
G1 X109.667 Y97.518 E10.14583
G1 X109.491 Y96.916 E10.16669
G1 X109.279 Y96.326 E10.18754
G1 X109.03 Y95.751 E10.20838
G1 X109.019 Y95.728 E10.20923
G1 X108.745 Y95.192 E10.22925
G1 X108.427 Y94.653 E10.25007
G1 X108.074 Y94.133 E10.27097
G1 X107.69 Y93.638 E10.29181
G1 X107.275 Y93.168 E10.31266
G1 X106.832 Y92.725 E10.3335
G1 X106.362 Y92.31 E10.35435
G1 X105.89 Y91.944 E10.37422
G1 X105.867 Y91.926 E10.37519
G1 X105.347 Y91.573 E10.39609
G1 X104.808 Y91.255 E10.41691
G1 X104.265 Y90.978 E10.43718
G1 X104.249 Y90.97 E10.43778
G1 X103.674 Y90.721 E10.45862
G1 X103.084 Y90.509 E10.47947
G1 X102.482 Y90.333 E10.50033
G1 X101.87 Y90.196 E10.52119
G1 X101.251 Y90.098 E10.54203
G1 X100.627 Y90.039 E10.56288
G1 X100 Y90.02 E10.58375
G1 X99.373 Y90.039 E10.60461
G1 X98.749 Y90.098 E10.62546
G1 X98.13 Y90.196 E10.6463
G1 X97.531 Y90.33 E10.66672
G1 X97.518 Y90.333 E10.66716
G1 X96.916 Y90.509 E10.68802
G1 X96.326 Y90.721 E10.70887
G1 X95.782 Y90.956 E10.72858
G1 X95.751 Y90.97 E10.72971
G1 X95.219 Y91.241 E10.74957
G1 X95.192 Y91.255 E10.75058
G1 X94.678 Y91.558 E10.77043
G1 X94.653 Y91.573 E10.7714
G1 X94.133 Y91.926 E10.7923
G1 X93.638 Y92.31 E10.81314
G1 X93.168 Y92.725 E10.83399
G1 X92.725 Y93.168 E10.85483
G1 X92.31 Y93.638 E10.87568
G1 X91.926 Y94.133 E10.89652
G1 X91.573 Y94.653 E10.91742
G1 X91.255 Y95.192 E10.93824
G1 X90.978 Y95.735 E10.95851
G1 X90.97 Y95.751 E10.95911
G0 F3600 X90.891 Y95.934
G0 X90.8 Y95.894
G0 X91.894 Y94.11
G0 X92.696 Y93.141
G0 X93.613 Y92.28
G0 X94.632 Y91.54
G0 X95.734 Y90.934
G0 X96.904 Y90.471
G0 X98.123 Y90.157
G0 X99.371 Y90
G0 X100.629 Y90
G0 X101.639 Y90.126
G0 X104.384 Y90.701
G0 X104.425 Y90.61
G1 F900 X104.426 Y90.611 E10.95916
G1 X105 Y90.904 E10.98059
G1 X105.015 Y90.913 E10.98117
G1 X105.553 Y91.231 E11.00193
G1 X105.571 Y91.243 E11.00265
G1 X106.09 Y91.598 E11.02341
G1 X106.135 Y91.629 E11.02522
G1 X106.612 Y91.998 E11.04522
G1 X106.625 Y92.009 E11.04579
G1 X107.096 Y92.425 E11.06664
G1 X107.111 Y92.438 E11.0673
G1 X107.562 Y92.889 E11.08851
G1 X107.574 Y92.903 E11.08913
G1 X107.994 Y93.379 E11.11019
G1 X108.005 Y93.393 E11.11078
G1 X108.389 Y93.888 E11.13156
G1 X108.401 Y93.904 E11.13223
G1 X108.762 Y94.435 E11.15353
G1 X108.77 Y94.449 E11.15407
G1 X109.085 Y94.981 E11.17463
G1 X109.1 Y95.01 E11.17572
G1 X109.374 Y95.546 E11.19564
G1 X109.394 Y95.591 E11.19727
G1 X109.645 Y96.167 E11.21806
G1 X109.651 Y96.179 E11.21851
G1 X109.655 Y96.19 E11.2189
G1 X109.867 Y96.78 E11.2397
G1 X109.874 Y96.804 E11.24053
G1 X110.052 Y97.413 E11.26158
G1 X110.055 Y97.43 E11.26215
G1 X110.195 Y98.049 E11.28316
G1 X110.198 Y98.068 E11.28379
G1 X110.294 Y98.687 E11.30447
G1 X110.3 Y98.721 E11.30562
G1 X110.359 Y99.342 E11.32629
G1 X110.359 Y99.36 E11.32689
G1 X110.38 Y99.994 E11.34791
G1 X110.359 Y100.64 E11.36933
G1 X110.358 Y100.668 E11.37026
G1 X110.3 Y101.29 E11.39098
G1 X110.298 Y101.302 E11.39139
G1 X110.297 Y101.313 E11.39176
G1 X110.197 Y101.933 E11.41257
G1 X110.191 Y101.969 E11.41378
G1 X110.056 Y102.57 E11.43419
G1 X110.05 Y102.595 E11.43504
G1 X109.875 Y103.196 E11.45586
G1 X109.871 Y103.208 E11.45628
G1 X109.655 Y103.809 E11.47747
G1 X109.646 Y103.832 E11.47829
G1 X109.397 Y104.407 E11.49908
G1 X109.389 Y104.425 E11.49973
G1 X109.116 Y104.962 E11.51977
G1 X109.088 Y105.01 E11.52162
G1 X108.769 Y105.549 E11.54232
G1 X108.745 Y105.59 E11.54389
G1 X108.404 Y106.092 E11.56403
G1 X108.389 Y106.111 E11.56483
G1 X108.004 Y106.606 E11.58556
G1 X107.978 Y106.639 E11.58695
G1 X107.569 Y107.103 E11.60745
G1 X107.557 Y107.115 E11.60801
G1 X107.112 Y107.556 E11.62872
G1 X107.078 Y107.59 E11.63031
G1 X106.623 Y107.988 E11.65026
G1 X106.577 Y108.028 E11.65228
G1 X106.11 Y108.388 E11.67179
G1 X106.081 Y108.411 E11.67302
G1 X105.572 Y108.757 E11.69341
G1 X105.558 Y108.767 E11.69399
G1 X105.011 Y109.089 E11.71505
G1 X105 Y109.096 E11.71548
G1 X104.426 Y109.389 E11.73691
G1 X104.409 Y109.396 E11.73753
G1 X103.832 Y109.646 E11.75839
G1 X103.816 Y109.653 E11.75897
G1 X103.218 Y109.867 E11.78004
G1 X103.208 Y109.871 E11.7804
G1 X103.197 Y109.874 E11.78078
G1 X102.594 Y110.05 E11.80162
G1 X102.569 Y110.057 E11.80248
G1 X101.957 Y110.193 E11.82326
G1 X101.94 Y110.197 E11.82384
G1 X101.314 Y110.295 E11.84483
G1 X101.284 Y110.3 E11.84584
G1 X100.663 Y110.357 E11.86648
G1 X100.645 Y110.359 E11.86708
G1 X100.013 Y110.379 E11.88804
G1 X99.99 Y110.38 E11.8888
G1 X99.359 Y110.359 E11.9098
G1 X99.334 Y110.358 E11.91063
G1 X98.71 Y110.299 E11.93137
G1 X98.694 Y110.297 E11.93191
G1 X98.068 Y110.198 E11.95288
G1 X98.038 Y110.193 E11.95389
G1 X97.426 Y110.057 E11.97472
G1 X97.418 Y110.055 E11.97499
G1 X97.393 Y110.047 E11.97587
G1 X96.792 Y109.871 E11.99667
G1 X96.202 Y109.66 E12.01749
G1 X96.183 Y109.653 E12.01816
G1 X96.166 Y109.645 E12.01878
G1 X95.592 Y109.397 E12.03956
G1 X95.575 Y109.39 E12.04017
G1 X95.574 Y109.389 E12.04021
G1 X95 Y109.096 E12.06165
G1 X94.987 Y109.088 E12.06216
G1 X94.449 Y108.77 E12.08292
G1 X94.435 Y108.761 E12.08347
G1 X93.904 Y108.401 E12.10473
G1 X93.888 Y108.389 E12.10539
G1 X93.395 Y108.003 E12.12609
G1 X93.346 Y107.965 E12.12814
G1 X92.904 Y107.575 E12.14769
G1 X92.889 Y107.562 E12.14835
G1 X92.438 Y107.111 E12.16957
G1 X92.426 Y107.097 E12.17018
G1 X92.006 Y106.621 E12.19124
G1 X91.995 Y106.607 E12.19183
G1 X91.611 Y106.112 E12.21262
G1 X91.599 Y106.096 E12.21328
G1 X91.239 Y105.567 E12.23451
G1 X91.23 Y105.551 E12.23512
G1 X90.911 Y105.012 E12.2559
G1 X90.901 Y104.995 E12.25656
G1 X90.614 Y104.43 E12.27758
G1 X90.606 Y104.414 E12.27818
G1 X90.355 Y103.832 E12.29918
G1 X90.34 Y103.797 E12.30044
G1 X90.133 Y103.219 E12.32081
