;FLAVOR:Marlin
;TIME:675
;Filament used: 0.256288m
;Layer height: 0.14
;Generated with Cura_SteamEngine 3.6.0
M140 S60
M105
M190 S60
M104 S200
M105
M109 S200
M82 ;absolute extrusion mode
G21 ;metric values
G90 ;absolute positioning
M82 ;set extruder to absolute mode
M107 ;start with the fan off
G28 X0 Y0 ;move X/Y to min endstops
G28 Z0 ;move Z to min endstops
G1 Z15.0 F120 ;move the platform down 15mm
G92 E0 ;zero the extruded length
G1 F200 E6 ;extrude 6 mm of feed stock
G92 E0 ;zero the extruded length again
M117 Printing...
G1 F120
G92 E0
G1 F2400 E-2.5
;LAYER_COUNT:47
;LAYER:0
M107
G0 F3600 X89.116 Y89.073 Z0.2
;TYPE:SKIRT
G1 F2400 E0
G1 F900 X90.198 Y88.093 E0.04855
G1 X90.595 Y87.777 E0.06543
G1 X91.764 Y86.962 E0.11283
G1 X92.187 Y86.704 E0.12931
G1 X93.468 Y86.029 E0.17747
G1 X93.93 Y85.822 E0.19431
G1 X95.249 Y85.328 E0.24115
G1 X95.719 Y85.184 E0.2575
G1 X97.099 Y84.853 E0.3047
G1 X97.576 Y84.769 E0.32081
G1 X98.909 Y84.616 E0.36544
G1 X99.41 Y84.59 E0.38212
G1 X100.937 Y84.607 E0.43291
G1 X101.442 Y84.645 E0.44976
G1 X102.804 Y84.834 E0.49549
G1 X103.189 Y84.907 E0.50853
G1 X104.004 Y85.103 E0.53641
G1 X104.437 Y85.233 E0.55144
G1 X106.086 Y85.833 E0.60981
G1 X106.595 Y86.06 E0.62834
G1 X107.869 Y86.737 E0.67633
G1 X108.304 Y87.005 E0.69332
G1 X109.494 Y87.848 E0.74183
G1 X109.882 Y88.161 E0.75841
G1 X110.927 Y89.117 E0.80551
G1 X111.267 Y89.468 E0.82177
G1 X112.159 Y90.511 E0.86741
G1 X112.456 Y90.906 E0.88385
G1 X113.249 Y92.106 E0.93169
G1 X113.555 Y92.66 E0.95274
G1 X114.46 Y94.657 E1.02566
G1 X114.679 Y95.266 E1.04719
G1 X115.066 Y96.7 E1.09659
G1 X115.165 Y97.186 E1.11309
G1 X115.351 Y98.511 E1.15759
G1 X115.389 Y98.991 E1.1736
G1 X115.416 Y100.411 E1.22084
G1 X115.379 Y101.038 E1.24173
G1 X115.078 Y103.203 E1.31443
G1 X114.941 Y103.821 E1.33549
G1 X114.518 Y105.205 E1.38362
G1 X114.336 Y105.687 E1.40076
G1 X113.734 Y107.015 E1.44925
G1 X113.547 Y107.378 E1.46283
G1 X113.047 Y108.236 E1.49586
G1 X112.785 Y108.631 E1.51163
G1 X111.849 Y109.872 E1.56333
G1 X111.52 Y110.254 E1.5801
G1 X110.544 Y111.256 E1.62662
G1 X110.175 Y111.591 E1.64319
G1 X109.063 Y112.479 E1.69053
G1 X108.653 Y112.766 E1.70717
G1 X107.416 Y113.522 E1.75539
G1 X106.967 Y113.759 E1.77228
G1 X105.625 Y114.361 E1.8212
G1 X105.141 Y114.541 E1.83837
G1 X103.753 Y114.959 E1.88658
G1 X103.285 Y115.07 E1.90258
G1 X101.984 Y115.296 E1.9465
G1 X101.506 Y115.35 E1.9625
G1 X100.096 Y115.423 E2.00946
G1 X99.594 Y115.417 E2.02616
G1 X98.134 Y115.309 E2.07485
G1 X97.737 Y115.26 E2.08816
G1 X96.934 Y115.119 E2.11527
G1 X96.57 Y115.037 E2.12768
G1 X95.284 Y114.685 E2.17203
G1 X94.823 Y114.528 E2.18823
G1 X93.491 Y113.982 E2.23611
G1 X93.029 Y113.757 E2.2532
G1 X91.752 Y113.03 E2.30207
G1 X91.345 Y112.764 E2.31824
G1 X90.247 Y111.948 E2.36374
G1 X89.865 Y111.626 E2.38036
G1 X88.827 Y110.631 E2.42818
G1 X88.486 Y110.259 E2.44497
G1 X87.569 Y109.126 E2.49345
G1 X87.278 Y108.717 E2.51014
G1 X86.529 Y107.508 E2.55745
G1 X86.293 Y107.069 E2.57402
G1 X85.697 Y105.77 E2.62156
G1 X85.483 Y105.185 E2.64228
G1 X84.909 Y103.145 E2.71276
G1 X84.786 Y102.524 E2.73382
G1 X84.615 Y101.052 E2.78311
G1 X84.588 Y100.544 E2.80003
G1 X84.605 Y99.076 E2.84886
G1 X84.663 Y98.442 E2.87003
G1 X85.029 Y96.32 E2.94165
G1 X85.19 Y95.695 E2.96312
G1 X85.685 Y94.261 E3.01357
G1 X85.881 Y93.792 E3.03048
G1 X86.497 Y92.547 E3.07668
G1 X86.744 Y92.118 E3.09314
G1 X87.536 Y90.918 E3.14097
G1 X87.835 Y90.52 E3.15752
G1 X88.762 Y89.437 E3.20494
G1 X89.116 Y89.073 E3.22183
G0 F3600 X89.384 Y89.37
G1 F900 X90.466 Y88.39 E3.27038
G1 X90.824 Y88.105 E3.2856
G1 X91.993 Y87.29 E3.333
G1 X92.374 Y87.058 E3.34783
G1 X93.655 Y86.383 E3.39599
G1 X94.07 Y86.197 E3.41112
G1 X95.389 Y85.703 E3.45796
G1 X95.812 Y85.573 E3.47268
G1 X97.192 Y85.242 E3.51988
G1 X97.621 Y85.166 E3.53437
G1 X98.954 Y85.013 E3.579
G1 X99.405 Y84.99 E3.59402
G1 X100.932 Y85.007 E3.64481
G1 X101.387 Y85.041 E3.65999
G1 X102.749 Y85.23 E3.70572
G1 X103.096 Y85.296 E3.71747
G1 X103.911 Y85.492 E3.74535
G1 X104.3 Y85.609 E3.75886
G1 X105.949 Y86.209 E3.81723
G1 X106.407 Y86.413 E3.8339
G1 X107.681 Y87.09 E3.88189
G1 X108.073 Y87.331 E3.89719
G1 X109.263 Y88.174 E3.9457
G1 X109.612 Y88.456 E3.96062
G1 X110.657 Y89.412 E4.00773
G1 X110.963 Y89.728 E4.02236
G1 X111.855 Y90.771 E4.068
G1 X112.122 Y91.126 E4.08278
G1 X112.915 Y92.326 E4.13062
G1 X113.191 Y92.825 E4.14958
G1 X114.096 Y94.822 E4.22251
G1 X114.293 Y95.37 E4.24187
G1 X114.68 Y96.804 E4.29128
G1 X114.769 Y97.242 E4.30614
G1 X114.955 Y98.567 E4.35064
G1 X114.989 Y98.999 E4.36506
G1 X115.016 Y100.419 E4.41229
G1 X114.983 Y100.983 E4.43108
G1 X114.682 Y103.148 E4.50379
G1 X114.559 Y103.704 E4.52272
G1 X114.136 Y105.088 E4.57086
G1 X113.972 Y105.522 E4.58629
G1 X113.37 Y106.85 E4.63479
G1 X113.201 Y107.177 E4.64703
G1 X112.701 Y108.035 E4.68006
G1 X112.465 Y108.39 E4.69424
G1 X111.529 Y109.631 E4.74594
G1 X111.234 Y109.975 E4.76101
G1 X110.258 Y110.977 E4.80753
G1 X109.925 Y111.278 E4.82246
G1 X108.813 Y112.166 E4.86979
G1 X108.444 Y112.425 E4.88479
G1 X107.207 Y113.181 E4.93301
G1 X106.803 Y113.394 E4.9482
G1 X105.461 Y113.996 E4.99712
G1 X105.026 Y114.158 E5.01255
G1 X103.638 Y114.576 E5.06077
G1 X103.216 Y114.676 E5.07519
G1 X101.915 Y114.902 E5.11911
G1 X101.485 Y114.95 E5.1335
G1 X100.075 Y115.023 E5.18046
G1 X99.623 Y115.018 E5.1955
G1 X98.163 Y114.91 E5.24419
G1 X97.806 Y114.866 E5.25615
G1 X97.003 Y114.725 E5.28327
G1 X96.676 Y114.651 E5.29442
G1 X95.39 Y114.299 E5.33877
G1 X94.975 Y114.158 E5.35334
G1 X93.643 Y113.612 E5.40122
G1 X93.227 Y113.41 E5.41661
G1 X91.95 Y112.683 E5.46548
G1 X91.584 Y112.443 E5.48004
G1 X90.486 Y111.627 E5.52554
G1 X90.142 Y111.337 E5.5405
G1 X89.104 Y110.342 E5.58832
G1 X88.797 Y110.008 E5.60341
G1 X87.88 Y108.875 E5.65189
G1 X87.618 Y108.506 E5.66695
G1 X86.869 Y107.297 E5.71425
G1 X86.657 Y106.902 E5.72916
G1 X86.061 Y105.603 E5.77669
G1 X85.868 Y105.077 E5.79533
G1 X85.294 Y103.037 E5.86581
G1 X85.183 Y102.477 E5.8848
G1 X85.012 Y101.005 E5.93409
G1 X84.988 Y100.548 E5.94931
G1 X85.005 Y99.08 E5.99814
G1 X85.057 Y98.51 E6.01718
G1 X85.423 Y96.388 E6.0888
G1 X85.568 Y95.825 E6.10813
G1 X86.063 Y94.391 E6.15859
G1 X86.239 Y93.97 E6.17377
G1 X86.855 Y92.725 E6.21997
G1 X87.077 Y92.338 E6.23481
G1 X87.869 Y91.138 E6.28263
G1 X88.139 Y90.78 E6.29754
G1 X89.066 Y89.697 E6.34496
G1 X89.384 Y89.37 E6.36013
G0 F3600 X89.653 Y89.666
G1 F900 X90.735 Y88.686 E6.40868
G1 X91.053 Y88.433 E6.4222
G1 X92.222 Y87.618 E6.4696
G1 X92.56 Y87.412 E6.48276
G1 X93.841 Y86.737 E6.53092
G1 X94.211 Y86.571 E6.54441
G1 X95.53 Y86.077 E6.59125
G1 X95.906 Y85.962 E6.60433
G1 X97.286 Y85.631 E6.65153
G1 X97.667 Y85.564 E6.6644
G1 X99 Y85.411 E6.70903
G1 X99.401 Y85.39 E6.72238
G1 X100.928 Y85.407 E6.77317
G1 X101.332 Y85.437 E6.78665
G1 X102.694 Y85.626 E6.83238
G1 X103.002 Y85.685 E6.84281
G1 X103.817 Y85.881 E6.87069
G1 X104.163 Y85.985 E6.88271
G1 X105.812 Y86.585 E6.94107
G1 X106.22 Y86.766 E6.95592
G1 X107.494 Y87.443 E7.0039
G1 X107.842 Y87.658 E7.01751
G1 X109.032 Y88.501 E7.06601
G1 X109.342 Y88.751 E7.07926
G1 X110.387 Y89.707 E7.12636
G1 X110.659 Y89.988 E7.13937
G1 X111.551 Y91.031 E7.18502
G1 X111.789 Y91.347 E7.19818
G1 X112.582 Y92.547 E7.24602
G1 X112.827 Y92.99 E7.26285
G1 X113.732 Y94.987 E7.33578
G1 X113.906 Y95.474 E7.35298
G1 X114.293 Y96.908 E7.40238
G1 X114.373 Y97.297 E7.41559
G1 X114.559 Y98.622 E7.46009
G1 X114.589 Y99.006 E7.4729
G1 X114.616 Y100.426 E7.52014
G1 X114.587 Y100.928 E7.53686
G1 X114.286 Y103.093 E7.60956
G1 X114.176 Y103.587 E7.6264
G1 X113.753 Y104.971 E7.67453
G1 X113.608 Y105.357 E7.68824
G1 X113.006 Y106.685 E7.73674
G1 X112.856 Y106.975 E7.7476
G1 X112.356 Y107.833 E7.78063
G1 X112.146 Y108.149 E7.79325
G1 X111.21 Y109.39 E7.84495
G1 X110.947 Y109.696 E7.85837
G1 X109.971 Y110.698 E7.90489
G1 X109.676 Y110.966 E7.91815
G1 X108.564 Y111.854 E7.96548
G1 X108.236 Y112.083 E7.97878
G1 X106.999 Y112.839 E8.027
G1 X106.64 Y113.029 E8.04051
G1 X105.298 Y113.631 E8.08943
G1 X104.911 Y113.775 E8.10317
G1 X103.523 Y114.193 E8.15138
G1 X103.148 Y114.282 E8.1642
G1 X101.847 Y114.508 E8.20812
G1 X101.464 Y114.551 E8.22094
G1 X100.054 Y114.624 E8.2679
G1 X99.653 Y114.619 E8.28123
G1 X98.193 Y114.511 E8.32993
G1 X97.876 Y114.472 E8.34055
G1 X97.073 Y114.331 E8.36767
G1 X96.781 Y114.265 E8.37762
G1 X95.495 Y113.913 E8.42197
G1 X95.126 Y113.788 E8.43493
G1 X93.794 Y113.242 E8.48281
G1 X93.425 Y113.062 E8.49646
G1 X92.148 Y112.335 E8.54534
G1 X91.822 Y112.122 E8.55829
G1 X90.724 Y111.306 E8.60379
G1 X90.419 Y111.048 E8.61708
G1 X89.381 Y110.053 E8.6649
G1 X89.108 Y109.756 E8.67832
G1 X88.191 Y108.623 E8.7268
G1 X87.958 Y108.295 E8.74018
G1 X87.209 Y107.086 E8.78748
G1 X87.021 Y106.735 E8.80072
G1 X86.425 Y105.436 E8.84826
G1 X86.253 Y104.969 E8.86481
G1 X85.679 Y102.929 E8.9353
G1 X85.58 Y102.431 E8.95218
G1 X85.409 Y100.959 E9.00147
G1 X85.388 Y100.553 E9.01499
G1 X85.405 Y99.085 E9.06382
G1 X85.452 Y98.578 E9.08076
G1 X85.818 Y96.456 E9.15238
G1 X85.946 Y95.956 E9.16955
G1 X86.441 Y94.522 E9.22
G1 X86.598 Y94.147 E9.23352
G1 X87.214 Y92.902 E9.27972
G1 X87.411 Y92.558 E9.29291
G1 X88.203 Y91.358 E9.34073
G1 X88.443 Y91.04 E9.35398
G1 X89.37 Y89.957 E9.4014
G1 X89.653 Y89.666 E9.4149
G1 F2400 E6.9149
;MESH:cust_fidget_ring_v1_5_Spinner20190112-61-17caevj.stl
G0 F3600 X88.617 Y95.882
G0 X89.811 Y96.353
G0 X89.345 Y98.649
G0 X89.246 Y98.637
;TYPE:WALL-INNER
G1 F2400 E9.4149
G1 F900 X89.291 Y98.316 E9.42568
G1 X89.294 Y98.297 E9.42632
G1 X89.356 Y97.969 E9.43742
G1 X89.415 Y97.661 E9.44785
G1 X89.423 Y97.629 E9.44895
G1 X89.505 Y97.306 E9.46003
G1 X89.587 Y96.985 E9.47105
G1 X89.592 Y96.967 E9.47167
G1 X89.694 Y96.65 E9.48275
G1 X89.793 Y96.347 E9.49335
G1 X89.803 Y96.321 E9.49428
G1 X89.926 Y96.012 E9.50534
G1 X90.048 Y95.704 E9.51636
G1 X90.055 Y95.687 E9.51697
G1 X90.196 Y95.388 E9.52796
G1 X90.338 Y95.087 E9.53903
G1 X90.345 Y95.072 E9.53958
G1 X90.497 Y94.786 E9.55036
G1 X90.665 Y94.491 E9.56165
G1 X90.672 Y94.479 E9.56211
G1 X90.842 Y94.2 E9.57297
G1 X90.851 Y94.185 E9.57356
G1 X91.029 Y93.915 E9.58431
G1 X91.234 Y93.632 E9.59594
G1 X91.437 Y93.353 E9.60741
G1 X91.637 Y93.103 E9.61806
G1 X91.649 Y93.089 E9.61867
G1 X91.858 Y92.844 E9.62938
G1 X92.096 Y92.582 E9.64116
G1 X92.332 Y92.338 E9.65245
G1 X92.577 Y92.101 E9.66378
G1 X92.586 Y92.093 E9.66419
G1 X92.833 Y91.868 E9.6753
G1 X93.086 Y91.651 E9.68638
G1 X93.104 Y91.636 E9.68716
G1 X93.348 Y91.441 E9.69755
G1 X93.631 Y91.229 E9.70931
G1 X93.905 Y91.036 E9.72046
G1 X94.183 Y90.853 E9.73153
G1 X94.485 Y90.668 E9.74331
G1 X94.779 Y90.5 E9.75457
G1 X95.08 Y90.347 E9.7658
G1 X95.394 Y90.187 E9.77752
G1 X95.687 Y90.055 E9.78821
G1 X96.019 Y89.918 E9.80016
G1 X96.325 Y89.802 E9.81104
G1 X96.653 Y89.69 E9.82257
G1 X96.988 Y89.587 E9.83423
G1 X97.296 Y89.503 E9.84484
G1 X97.31 Y89.499 E9.84533
G1 X97.636 Y89.422 E9.85647
G1 X97.659 Y89.416 E9.85726
G1 X98.002 Y89.347 E9.8689
G1 X98.299 Y89.296 E9.87892
G1 X98.324 Y89.291 E9.87977
G1 X98.659 Y89.244 E9.89102
G1 X98.983 Y89.214 E9.90184
G1 X99.317 Y89.182 E9.913
G1 X99.651 Y89.167 E9.92412
G1 X99.669 Y89.166 E9.92472
G1 X99.994 Y89.16 E9.93553
G1 X100.005 Y89.16 E9.9359
G1 X100.337 Y89.166 E9.94694
G1 X100.675 Y89.182 E9.9582
G1 X100.696 Y89.183 E9.9589
G1 X101.02 Y89.213 E9.96972
G1 X101.349 Y89.245 E9.98071
G1 X101.364 Y89.247 E9.98122
G1 X101.694 Y89.294 E9.9923
G1 X102.031 Y89.357 E10.00371
G1 X102.354 Y89.419 E10.01465
G1 X102.37 Y89.422 E10.01519
G1 X102.692 Y89.5 E10.02621
G1 X102.714 Y89.506 E10.02696
G1 X103.021 Y89.59 E10.03755
G1 X103.054 Y89.6 E10.0387
G1 X103.349 Y89.696 E10.04902
G1 X103.663 Y89.799 E10.06001
G1 X103.689 Y89.808 E10.06092
G1 X103.985 Y89.921 E10.07146
G1 X104.016 Y89.933 E10.07257
G1 X104.305 Y90.058 E10.08304
G1 X104.607 Y90.189 E10.09399
G1 X104.916 Y90.339 E10.10541
G1 X104.927 Y90.345 E10.10583
G1 X105.226 Y90.504 E10.11709
G1 X105.509 Y90.665 E10.12792
G1 X105.521 Y90.672 E10.12838
G1 X105.806 Y90.846 E10.13949
G1 X105.815 Y90.852 E10.13985
G1 X106.095 Y91.036 E10.15099
G1 X106.369 Y91.229 E10.16214
G1 X106.659 Y91.447 E10.17421
G1 X106.905 Y91.645 E10.18471
G1 X106.93 Y91.665 E10.18577
G1 X107.161 Y91.863 E10.19589
G1 X107.414 Y92.093 E10.20727
G1 X107.423 Y92.101 E10.20767
G1 X107.658 Y92.328 E10.21853
G1 X107.667 Y92.338 E10.21898
G1 X107.895 Y92.573 E10.22987
G1 X107.907 Y92.586 E10.23046
G1 X108.13 Y92.831 E10.24148
G1 X108.347 Y93.083 E10.25254
G1 X108.355 Y93.093 E10.25297
G1 X108.559 Y93.348 E10.26383
G1 X108.766 Y93.624 E10.2753
G1 X108.964 Y93.905 E10.28673
G1 X109.147 Y94.183 E10.2978
G1 X109.152 Y94.192 E10.29815
G1 X109.325 Y94.474 E10.30915
G1 X109.333 Y94.488 E10.30969
G1 X109.5 Y94.781 E10.3209
G1 X109.655 Y95.071 E10.33184
G1 X109.807 Y95.381 E10.34332
G1 X109.812 Y95.393 E10.34376
G1 X109.956 Y95.713 E10.35543
G1 X110.08 Y96.013 E10.36622
G1 X110.196 Y96.319 E10.37711
G1 X110.31 Y96.653 E10.38885
G1 X110.407 Y96.967 E10.39978
G1 X110.496 Y97.295 E10.41108
G1 X110.5 Y97.307 E10.4115
G1 X110.576 Y97.627 E10.42244
G1 X110.579 Y97.643 E10.42298
G1 X110.649 Y97.977 E10.43433
G1 X110.706 Y98.305 E10.44541
G1 X110.753 Y98.631 E10.45636
G1 X110.791 Y98.976 E10.46791
G1 X110.817 Y99.31 E10.47905
G1 X110.833 Y99.65 E10.49037
G1 X110.834 Y99.663 E10.4908
G1 X110.84 Y99.99 E10.50168
G1 X110.84 Y100.008 E10.50228
G1 X110.83 Y100.34 E10.51333
G1 X110.819 Y100.677 E10.52454
G1 X110.818 Y100.688 E10.52491
G1 X110.787 Y101.019 E10.53597
G1 X110.756 Y101.349 E10.54699
G1 X110.755 Y101.362 E10.54742
G1 X110.708 Y101.686 E10.55831
G1 X110.706 Y101.699 E10.55875
G1 X110.647 Y102.034 E10.57006
G1 X110.575 Y102.363 E10.58127
G1 X110.504 Y102.68 E10.59207
G1 X110.496 Y102.708 E10.59304
G1 X110.312 Y103.341 E10.61496
G1 X110.308 Y103.354 E10.61542
G1 X110.198 Y103.675 E10.6267
G1 X110.076 Y103.985 E10.63778
G1 X109.952 Y104.296 E10.64892
G1 X109.945 Y104.313 E10.64953
G1 X109.814 Y104.602 E10.66008
G1 X109.805 Y104.621 E10.66078
G1 X109.654 Y104.918 E10.67186
G1 X109.518 Y105.186 E10.68186
G1 X109.497 Y105.224 E10.6833
G1 X109.333 Y105.513 E10.69436
G1 X109.324 Y105.528 E10.69494
G1 X109.158 Y105.8 E10.70554
G1 X109.148 Y105.815 E10.70614
G1 X108.968 Y106.088 E10.71701
G1 X108.765 Y106.368 E10.72851
G1 X108.566 Y106.642 E10.73978
G1 X108.352 Y106.91 E10.75118
G1 X107.917 Y107.403 E10.77305
G1 X107.902 Y107.419 E10.77378
G1 X107.662 Y107.667 E10.78526
G1 X107.427 Y107.895 E10.79615
G1 X107.414 Y107.907 E10.79674
G1 X107.169 Y108.13 E10.80776
G1 X106.909 Y108.353 E10.81915
G1 X106.652 Y108.559 E10.83011
G1 X106.369 Y108.771 E10.84187
G1 X106.095 Y108.964 E10.85301
G1 X105.816 Y109.148 E10.86413
G1 X105.523 Y109.327 E10.87555
G1 X105.507 Y109.336 E10.87616
G1 X104.931 Y109.654 E10.89804
G1 X104.921 Y109.659 E10.89842
G1 X104.608 Y109.811 E10.90999
G1 X104.313 Y109.945 E10.92076
G1 X103.994 Y110.076 E10.93223
G1 X103.981 Y110.082 E10.93271
G1 X103.647 Y110.208 E10.94458
G1 X103.347 Y110.31 E10.95512
G1 X103.033 Y110.407 E10.96605
G1 X102.705 Y110.496 E10.97736
G1 X102.693 Y110.5 E10.97778
G1 X102.368 Y110.577 E10.98889
G1 X102.357 Y110.579 E10.98926
G1 X102.02 Y110.649 E11.00071
G1 X101.695 Y110.706 E11.01168
G1 X101.369 Y110.753 E11.02264
G1 X101.014 Y110.792 E11.03451
G1 X100.69 Y110.817 E11.04532
G1 X100.35 Y110.833 E11.05664
G1 X100.331 Y110.834 E11.05728
G1 X100 Y110.84 E11.06829
G1 X99.669 Y110.834 E11.0793
G1 X99.656 Y110.834 E11.07973
G1 X99.325 Y110.818 E11.09075
G1 X99.31 Y110.817 E11.09125
G1 X98.986 Y110.792 E11.10206
G1 X98.647 Y110.755 E11.1134
G1 X98.631 Y110.753 E11.11394
G1 X98.305 Y110.701 E11.12492
G1 X97.968 Y110.647 E11.13627
G1 X97.638 Y110.574 E11.14751
G1 X97.307 Y110.5 E11.15879
G1 X96.981 Y110.411 E11.17003
G1 X96.954 Y110.403 E11.17097
G1 X96.651 Y110.305 E11.18156
G1 X96.341 Y110.204 E11.19241
G1 X96.325 Y110.198 E11.19297
G1 X96.006 Y110.077 E11.20432
G1 X95.693 Y109.947 E11.21559
G1 X95.389 Y109.804 E11.22677
G1 X95.085 Y109.66 E11.23796
G1 X95.065 Y109.651 E11.23868
G1 X94.78 Y109.499 E11.24943
G1 X94.491 Y109.334 E11.2605
G1 X94.478 Y109.327 E11.26099
G1 X94.184 Y109.147 E11.27245
G1 X93.887 Y108.952 E11.28427
G1 X93.632 Y108.765 E11.29479
