;FLAVOR:Marlin
;TIME:1745
;Filament used: 0.537855m
;Layer height: 0.14
;Generated with Cura_SteamEngine 3.6.0
M140 S60
M105
M190 S60
M104 S195
M105
M109 S195
M82 ;absolute extrusion mode
G21 ;metric values
G90 ;absolute positioning
M82 ;set extruder to absolute mode
M107 ;start with the fan off
G28 X0 Y0 ;move X/Y to min endstops
G28 Z0 ;move Z to min endstops
G1 Z15.0 F120 ;move the platform down 15mm
G92 E0 ;zero the extruded length
G1 F200 E6 ;extrude 6 mm of feed stock
G92 E0 ;zero the extruded length again
M117 Printing...
G1 F120
G92 E0
G1 F2400 E-2.5
;LAYER_COUNT:64
;LAYER:0
M107
G0 F3600 X77.789 Y81.759 Z0.2
;TYPE:SKIRT
G1 F2400 E0
G1 F900 X78.214 Y81.405 E0.0184
G1 X79.665 Y80.374 E0.0776
G1 X80.042 Y80.14 E0.09236
G1 X80.853 Y79.703 E0.123
G1 X81.202 Y79.538 E0.13584
G1 X82.389 Y79.054 E0.17847
G1 X82.777 Y78.922 E0.1921
G1 X83.687 Y78.667 E0.22354
G1 X84.038 Y78.587 E0.23551
G1 X85.274 Y78.371 E0.27724
G1 X85.723 Y78.321 E0.29227
G1 X87.071 Y78.257 E0.33716
G1 X87.529 Y78.264 E0.35239
G1 X88.79 Y78.365 E0.39447
G1 X89.206 Y78.423 E0.40844
G1 X90.361 Y78.653 E0.44761
G1 X90.881 Y78.798 E0.46556
G1 X92.72 Y79.462 E0.53059
G1 X93.141 Y79.645 E0.54586
G1 X93.885 Y80.027 E0.57368
G1 X94.208 Y80.215 E0.58611
G1 X95.203 Y80.864 E0.62562
G1 X95.418 Y81.016 E0.63437
G1 X99.12 Y83.838 E0.7892
G1 X103.627 Y86.943 E0.97123
G1 X108.294 Y89.782 E1.15292
G1 X113.107 Y92.351 E1.33438
G1 X119.647 Y95.41 E1.57452
G1 X120.088 Y95.655 E1.5913
G1 X121.088 Y96.307 E1.631
G1 X121.409 Y96.543 E1.64425
G1 X122.318 Y97.291 E1.68341
G1 X122.629 Y97.579 E1.69751
G1 X123.454 Y98.439 E1.73714
G1 X123.727 Y98.759 E1.75113
G1 X124.486 Y99.762 E1.79297
G1 X124.734 Y100.136 E1.80789
G1 X125.412 Y101.312 E1.85304
G1 X125.614 Y101.721 E1.86822
G1 X126.113 Y102.914 E1.91123
G1 X126.261 Y103.341 E1.92626
G1 X126.617 Y104.625 E1.97057
G1 X126.71 Y105.066 E1.98556
G1 X126.9 Y106.364 E2.0292
G1 X126.936 Y106.77 E2.04275
G1 X126.966 Y107.709 E2.074
G1 X126.948 Y108.2 E2.09034
G1 X126.741 Y110.172 E2.15629
G1 X126.658 Y110.652 E2.17249
G1 X126.461 Y111.457 E2.20006
G1 X126.331 Y111.875 E2.21462
G1 X125.753 Y113.402 E2.26892
G1 X125.524 Y113.892 E2.28691
G1 X124.714 Y115.333 E2.34189
G1 X124.362 Y115.849 E2.36267
G1 X123.161 Y117.316 E2.42573
G1 X122.71 Y117.776 E2.44715
G1 X121.315 Y118.965 E2.50812
G1 X120.767 Y119.35 E2.53039
G1 X119.034 Y120.341 E2.59679
G1 X118.535 Y120.578 E2.61516
G1 X117.34 Y121.036 E2.65773
G1 X116.793 Y121.197 E2.67669
G1 X114.848 Y121.606 E2.7428
G1 X114.271 Y121.679 E2.76214
G1 X112.892 Y121.742 E2.80806
G1 X112.439 Y121.734 E2.82313
G1 X111.211 Y121.635 E2.8641
G1 X110.798 Y121.578 E2.87797
G1 X109.651 Y121.35 E2.91686
G1 X109.132 Y121.205 E2.93479
G1 X107.277 Y120.536 E3.00037
G1 X106.663 Y120.247 E3.02295
G1 X104.94 Y119.226 E3.08956
G1 X104.592 Y118.992 E3.10351
G1 X100.833 Y116.126 E3.26073
G1 X96.34 Y113.029 E3.44222
G1 X91.682 Y110.192 E3.62362
G1 X86.879 Y107.629 E3.80469
G1 X80.78 Y104.824 E4.02797
G1 X80.463 Y104.658 E4.03987
G1 X79.515 Y104.102 E4.07643
G1 X79.198 Y103.893 E4.08906
G1 X78.262 Y103.202 E4.12775
G1 X77.874 Y102.871 E4.14472
G1 X76.618 Y101.634 E4.20335
G1 X76.272 Y101.24 E4.22079
G1 X75.504 Y100.224 E4.26315
G1 X75.255 Y99.848 E4.27815
G1 X74.586 Y98.685 E4.32277
G1 X74.341 Y98.166 E4.34186
G1 X73.635 Y96.303 E4.40813
G1 X73.479 Y95.771 E4.42657
G1 X73.222 Y94.554 E4.46794
G1 X73.157 Y94.117 E4.48263
G1 X73.049 Y92.856 E4.52472
G1 X73.038 Y92.441 E4.53853
G1 X73.075 Y91.213 E4.57939
G1 X73.131 Y90.677 E4.59732
G1 X73.453 Y88.905 E4.65722
G1 X73.63 Y88.27 E4.67915
G1 X74.347 Y86.383 E4.74629
G1 X74.659 Y85.755 E4.76961
G1 X75.74 Y84.024 E4.83749
G1 X76.013 Y83.644 E4.85305
G1 X76.532 Y83.013 E4.88022
G1 X76.802 Y82.719 E4.8935
G1 X77.789 Y81.759 E4.93929
G0 F3600 X78.068 Y82.046
G1 F900 X78.446 Y81.731 E4.95566
G1 X79.897 Y80.7 E5.01486
G1 X80.232 Y80.492 E5.02798
G1 X81.043 Y80.055 E5.05862
G1 X81.353 Y79.909 E5.07002
G1 X82.54 Y79.425 E5.11265
G1 X82.885 Y79.307 E5.12478
G1 X83.795 Y79.052 E5.15621
G1 X84.107 Y78.981 E5.16685
G1 X85.343 Y78.765 E5.20859
G1 X85.742 Y78.721 E5.22194
G1 X87.09 Y78.657 E5.26682
G1 X87.497 Y78.663 E5.28036
G1 X88.758 Y78.764 E5.32244
G1 X89.128 Y78.816 E5.33486
G1 X90.283 Y79.046 E5.37403
G1 X90.745 Y79.174 E5.38998
G1 X92.584 Y79.838 E5.45501
G1 X92.959 Y80.001 E5.46861
G1 X93.703 Y80.383 E5.49643
G1 X93.989 Y80.55 E5.50744
G1 X94.984 Y81.199 E5.54695
G1 X95.176 Y81.334 E5.55476
G1 X98.901 Y84.174 E5.71055
G1 X103.406 Y87.277 E5.8925
G1 X108.09 Y90.126 E6.07484
G1 X112.921 Y92.705 E6.25698
G1 X119.478 Y95.772 E6.49775
G1 X119.87 Y95.99 E6.51267
G1 X120.87 Y96.642 E6.55237
G1 X121.155 Y96.852 E6.56415
G1 X122.064 Y97.6 E6.6033
G1 X122.34 Y97.856 E6.61582
G1 X123.165 Y98.716 E6.65546
G1 X123.408 Y99 E6.66789
G1 X124.167 Y100.003 E6.70972
G1 X124.387 Y100.336 E6.723
G1 X125.065 Y101.512 E6.76815
G1 X125.245 Y101.875 E6.78162
G1 X125.744 Y103.068 E6.82463
G1 X125.876 Y103.448 E6.83801
G1 X126.232 Y104.732 E6.88233
G1 X126.314 Y105.124 E6.89565
G1 X126.504 Y106.422 E6.93928
G1 X126.536 Y106.783 E6.95134
G1 X126.566 Y107.722 E6.98258
G1 X126.551 Y108.158 E6.99709
G1 X126.344 Y110.13 E7.06304
G1 X126.269 Y110.557 E7.07746
G1 X126.072 Y111.362 E7.10503
G1 X125.957 Y111.734 E7.11798
G1 X125.379 Y113.261 E7.17228
G1 X125.176 Y113.696 E7.18825
G1 X124.366 Y115.137 E7.24323
G1 X124.052 Y115.596 E7.26173
G1 X122.851 Y117.063 E7.32478
G1 X122.451 Y117.471 E7.34379
G1 X121.056 Y118.66 E7.40475
G1 X120.569 Y119.003 E7.42456
G1 X118.836 Y119.994 E7.49096
G1 X118.392 Y120.204 E7.5073
G1 X117.197 Y120.662 E7.54986
G1 X116.711 Y120.806 E7.56672
G1 X114.766 Y121.215 E7.63283
G1 X114.253 Y121.28 E7.65003
G1 X112.874 Y121.343 E7.69594
G1 X112.471 Y121.336 E7.70935
G1 X111.243 Y121.237 E7.75032
G1 X110.876 Y121.186 E7.76265
G1 X109.729 Y120.958 E7.80154
G1 X109.267 Y120.829 E7.8175
G1 X107.412 Y120.16 E7.88308
G1 X106.867 Y119.903 E7.90312
G1 X105.144 Y118.882 E7.96974
G1 X104.835 Y118.674 E7.98213
G1 X101.077 Y115.808 E8.13932
G1 X96.55 Y112.688 E8.32218
G1 X91.886 Y109.847 E8.50382
G1 X87.049 Y107.266 E8.68617
G1 X80.947 Y104.46 E8.90956
G1 X80.665 Y104.313 E8.92013
G1 X79.717 Y103.757 E8.95669
G1 X79.435 Y103.571 E8.96792
G1 X78.499 Y102.88 E9.00662
G1 X78.155 Y102.586 E9.02167
G1 X76.899 Y101.349 E9.0803
G1 X76.591 Y100.999 E9.09581
G1 X75.823 Y99.983 E9.13817
G1 X75.602 Y99.649 E9.15149
G1 X74.933 Y98.486 E9.19611
G1 X74.715 Y98.024 E9.21311
G1 X74.009 Y96.161 E9.27937
G1 X73.87 Y95.688 E9.29577
G1 X73.613 Y94.471 E9.33714
G1 X73.556 Y94.083 E9.35018
G1 X73.448 Y92.822 E9.39227
G1 X73.437 Y92.453 E9.40455
G1 X73.474 Y91.225 E9.44542
G1 X73.525 Y90.749 E9.46134
G1 X73.847 Y88.977 E9.52124
G1 X74.004 Y88.412 E9.54074
G1 X74.721 Y86.525 E9.60788
G1 X74.998 Y85.967 E9.6286
G1 X76.079 Y84.236 E9.69648
G1 X76.322 Y83.898 E9.71033
G1 X76.841 Y83.267 E9.7375
G1 X77.081 Y83.006 E9.74929
G1 X78.068 Y82.046 E9.79509
G1 F2400 E7.29509
;MESH:cust_fidget_ring_v1_5_Ring20190112-61-v3rfqm.stl
G0 F3600 X80.828 Y83.089
G0 X81.566 Y84.14
G0 X87.82 Y84.237
G0 X89.309 Y84.519
G0 X90.501 Y84.969
G0 X91.81 Y85.743
G0 X92.733 Y86.557
G0 X93.645 Y87.495
G0 X93.565 Y87.553
;TYPE:WALL-INNER
G1 F2400 E9.79509
G1 F900 X93.255 Y87.156 E9.81184
G1 X92.922 Y86.776 E9.82865
G1 X92.564 Y86.418 E9.84549
G1 X92.184 Y86.085 E9.86229
G1 X91.787 Y85.775 E9.87904
G1 X91.368 Y85.491 E9.89588
G1 X90.933 Y85.234 E9.91268
G1 X90.484 Y85.005 E9.92945
G1 X90.02 Y84.804 E9.94627
G1 X89.549 Y84.635 E9.96291
G1 X89.299 Y84.557 E9.97162
G1 X88.813 Y84.433 E9.9883
G1 X88.318 Y84.339 E10.00506
G1 X87.817 Y84.276 E10.02186
G1 X87.313 Y84.244 E10.03865
G1 X86.807 Y84.244 E10.05548
G1 X86.303 Y84.276 E10.07228
G1 X85.802 Y84.339 E10.08907
G1 X85.307 Y84.433 E10.10583
G1 X84.816 Y84.559 E10.12269
G1 X84.336 Y84.716 E10.13949
G1 X83.867 Y84.901 E10.15626
G1 X83.409 Y85.116 E10.17309
G1 X82.967 Y85.36 E10.18988
G1 X82.541 Y85.63 E10.20665
G1 X82.132 Y85.927 E10.22346
G1 X81.743 Y86.249 E10.24026
G1 X81.375 Y86.595 E10.25706
G1 X81.029 Y86.963 E10.27386
G1 X80.707 Y87.352 E10.29066
G1 X80.414 Y87.756 E10.30726
G1 X80.269 Y87.975 E10.31599
G1 X80.014 Y88.407 E10.33268
G1 X79.785 Y88.856 E10.34944
G1 X79.584 Y89.32 E10.36626
G1 X79.415 Y89.791 E10.3829
G1 X79.337 Y90.041 E10.39161
G1 X79.213 Y90.527 E10.40829
G1 X79.119 Y91.022 E10.42505
G1 X79.056 Y91.523 E10.44185
G1 X79.024 Y92.027 E10.45864
G1 X79.024 Y92.533 E10.47547
G1 X79.056 Y93.037 E10.49227
G1 X79.119 Y93.538 E10.50906
G1 X79.213 Y94.033 E10.52582
G1 X79.339 Y94.524 E10.54268
G1 X79.496 Y95.004 E10.55948
G1 X79.681 Y95.473 E10.57625
G1 X79.896 Y95.931 E10.59308
G1 X80.14 Y96.373 E10.60987
G1 X80.41 Y96.799 E10.62664
G1 X80.707 Y97.208 E10.64346
G1 X81.029 Y97.597 E10.66025
G1 X81.375 Y97.965 E10.67705
G1 X81.743 Y98.311 E10.69385
G1 X82.132 Y98.633 E10.71065
G1 X82.536 Y98.926 E10.72725
G1 X82.755 Y99.071 E10.73598
G1 X83.187 Y99.326 E10.75267
G1 X83.636 Y99.555 E10.76943
G1 X84.1 Y99.756 E10.78625
G1 X84.571 Y99.925 E10.80289
G1 X84.821 Y100.003 E10.8116
G1 X85.307 Y100.127 E10.82829
G1 X85.802 Y100.221 E10.84504
G1 X86.303 Y100.284 E10.86184
G1 X86.807 Y100.316 E10.87863
G1 X87.313 Y100.316 E10.89546
G1 X87.817 Y100.284 E10.91226
G1 X88.318 Y100.221 E10.92906
G1 X88.813 Y100.127 E10.94581
G1 X89.304 Y100.001 E10.96267
G1 X89.784 Y99.844 E10.97947
G1 X90.253 Y99.659 E10.99624
G1 X90.711 Y99.444 E11.01307
G1 X91.153 Y99.2 E11.02986
G1 X91.579 Y98.93 E11.04663
G1 X91.988 Y98.633 E11.06345
G1 X92.377 Y98.311 E11.08024
G1 X92.745 Y97.965 E11.09704
G1 X93.091 Y97.597 E11.11384
G1 X93.413 Y97.208 E11.13064
G1 X93.706 Y96.804 E11.14724
G1 X93.851 Y96.585 E11.15597
G1 X94.106 Y96.153 E11.17266
G1 X94.335 Y95.704 E11.18942
G1 X94.536 Y95.24 E11.20624
G1 X94.705 Y94.769 E11.22288
G1 X94.783 Y94.519 E11.23159
G1 X94.907 Y94.033 E11.24828
G1 X95.001 Y93.538 E11.26503
G1 X95.064 Y93.037 E11.28183
G1 X95.096 Y92.538 E11.29846
G1 X95.1 Y92.275 E11.30721
G1 X95.084 Y91.775 E11.32385
G1 X95.037 Y91.273 E11.34062
G1 X94.958 Y90.774 E11.35742
G1 X94.848 Y90.28 E11.37425
G1 X94.707 Y89.796 E11.39102
G1 X94.536 Y89.32 E11.40784
G1 X94.335 Y88.856 E11.42466
G1 X94.106 Y88.407 E11.44142
G1 X93.849 Y87.972 E11.45823
G1 X93.565 Y87.553 E11.47506
G0 F3600 X93.645 Y87.495
G0 X94.573 Y89.306
G0 X94.997 Y90.767
G0 X95.14 Y92.275
G0 X95.04 Y93.544
G0 X94.742 Y94.781
G0 X94.141 Y96.172
G0 X93.514 Y97.126
G0 X89.472 Y101.717
G0 X89.496 Y101.813
G1 F900 X89.19 Y101.886 E11.48553
G1 X88.873 Y101.951 E11.49629
G1 X88.587 Y102 E11.50594
G1 X88.268 Y102.045 E11.51666
G1 X87.969 Y102.079 E11.52667
G1 X87.668 Y102.101 E11.5367
G1 X87.34 Y102.115 E11.54762
G1 X87.041 Y102.12 E11.55757
G1 X86.735 Y102.114 E11.56775
G1 X86.101 Y102.073 E11.58888
G1 X85.817 Y102.041 E11.59839
G1 X85.187 Y101.94 E11.61961
G1 X84.905 Y101.881 E11.62919
G1 X84.297 Y101.724 E11.65007
G1 X83.692 Y101.525 E11.67126
G1 X83.414 Y101.42 E11.68114
G1 X82.859 Y101.177 E11.70129
G1 X82.571 Y101.036 E11.71196
G1 X82.027 Y100.736 E11.73262
G1 X81.777 Y100.582 E11.74239
G1 X81.271 Y100.236 E11.76277
G1 X80.765 Y99.842 E11.7841
G1 X80.312 Y99.441 E11.80423
G1 X79.907 Y99.037 E11.82325
G1 X79.481 Y98.555 E11.84465
G1 X79.104 Y98.069 E11.86511
G1 X78.759 Y97.563 E11.88548
G1 X78.596 Y97.299 E11.89579
G1 X78.453 Y97.048 E11.9054
G1 X78.299 Y96.758 E11.91632
G1 X78.164 Y96.482 E11.92654
G1 X78.035 Y96.198 E11.93692
G1 X77.918 Y95.918 E11.94701
G1 X77.811 Y95.635 E11.95707
G1 X77.706 Y95.332 E11.96774
G1 X77.615 Y95.038 E11.97798
G1 X77.463 Y94.454 E11.99805
G1 X77.398 Y94.136 E12.00884
G1 X77.345 Y93.833 E12.01907
G1 X77.3 Y93.524 E12.02946
G1 X77.266 Y93.231 E12.03927
G1 X77.242 Y92.918 E12.04971
G1 X77.227 Y92.602 E12.06023
G1 X77.221 Y92.309 E12.06998
G1 X77.224 Y91.991 E12.08056
G1 X77.26 Y91.387 E12.10068
G1 X77.295 Y91.07 E12.11129
G1 X77.392 Y90.448 E12.13223
G1 X77.523 Y89.856 E12.15239
G1 X77.602 Y89.564 E12.16245
G1 X77.797 Y88.959 E12.1836
G1 X77.903 Y88.677 E12.19362
G1 X78.155 Y88.094 E12.21474
G1 X78.278 Y87.84 E12.22413
G1 X78.426 Y87.558 E12.23472
G1 X78.736 Y87.033 E12.255
G1 X78.903 Y86.776 E12.26519
G1 X79.081 Y86.522 E12.27551
G1 X79.457 Y86.033 E12.29602
G1 X79.872 Y85.56 E12.31695
G1 X80.347 Y85.086 E12.33927
G1 X80.795 Y84.692 E12.35912
G1 X81.301 Y84.302 E12.38036
G1 X81.555 Y84.124 E12.39068
G1 X82.074 Y83.797 E12.41108
G1 X82.334 Y83.649 E12.42103
G1 X82.613 Y83.502 E12.43152
G1 X83.171 Y83.243 E12.45198
G1 X83.469 Y83.118 E12.46273
G1 X83.73 Y83.021 E12.47199
G1 X84.347 Y82.821 E12.49357
G1 X84.624 Y82.747 E12.5031
G1 X84.931 Y82.674 E12.5136
G1 X85.247 Y82.609 E12.52433
G1 X85.533 Y82.56 E12.53398
G1 X85.852 Y82.515 E12.54469
G1 X86.151 Y82.481 E12.5547
G1 X86.452 Y82.459 E12.56474
G1 X86.78 Y82.445 E12.57566
G1 X87.079 Y82.44 E12.58561
G1 X87.385 Y82.446 E12.59579
G1 X88.019 Y82.487 E12.61692
G1 X88.304 Y82.519 E12.62645
G1 X88.933 Y82.62 E12.64764
G1 X89.215 Y82.679 E12.65723
G1 X89.823 Y82.836 E12.67811
G1 X90.428 Y83.035 E12.69929
G1 X90.706 Y83.14 E12.70918
G1 X91.261 Y83.383 E12.72933
G1 X91.537 Y83.518 E12.73955
G1 X92.078 Y83.815 E12.76008
G1 X92.342 Y83.978 E12.77039
G1 X92.851 Y84.325 E12.79088
G1 X93.353 Y84.716 E12.81205
G1 X93.807 Y85.118 E12.83222
G1 X94.213 Y85.523 E12.85129
G1 X94.639 Y86.005 E12.87269
G1 X95.016 Y86.491 E12.89314
G1 X95.181 Y86.724 E12.90264
G1 X95.514 Y87.245 E12.9232
G1 X95.812 Y87.784 E12.94369
G1 X95.949 Y88.063 E12.95403
G1 X96.197 Y88.629 E12.97458
G1 X96.307 Y88.919 E12.9849
G1 X96.412 Y89.222 E12.99556
G1 X96.499 Y89.504 E13.00538
G1 X96.582 Y89.805 E13.01576
G1 X96.659 Y90.117 E13.02645
G1 X96.719 Y90.404 E13.0362
G1 X96.819 Y91.03 E13.05729
G1 X96.854 Y91.329 E13.0673
G1 X96.877 Y91.631 E13.07737
G1 X96.893 Y91.953 E13.0881
G1 X96.899 Y92.251 E13.09801
G1 X96.896 Y92.565 E13.10846
G1 X96.86 Y93.173 E13.12871
G1 X96.825 Y93.49 E13.13932
G1 X96.728 Y94.112 E13.16026
G1 X96.597 Y94.704 E13.18042
G1 X96.518 Y94.996 E13.19049
G1 X96.325 Y95.594 E13.21139
G1 X96.218 Y95.879 E13.22151
G1 X95.967 Y96.461 E13.24259
G1 X95.842 Y96.72 E13.25216
G1 X95.694 Y97.001 E13.26272
G1 X95.384 Y97.527 E13.28303
G1 X95.217 Y97.784 E13.29322
G1 X95.039 Y98.038 E13.30354
G1 X94.663 Y98.527 E13.32405
G1 X94.248 Y99 E13.34498
G1 X93.773 Y99.474 E13.3673
G1 X93.325 Y99.868 E13.38714
G1 X92.826 Y100.252 E13.40809
G1 X92.573 Y100.43 E13.41838
G1 X92.042 Y100.765 E13.43926
G1 X91.786 Y100.911 E13.44906
G1 X91.512 Y101.056 E13.45937
G1 X90.94 Y101.321 E13.48034
G1 X90.655 Y101.44 E13.49061
G1 X90.39 Y101.539 E13.50002
G1 X89.773 Y101.739 E13.52159
G1 X89.496 Y101.813 E13.53113
G0 F3600 X89.472 Y101.717
G0 X90.619 Y101.348
G0 X90.806 Y101.81
;TYPE:WALL-OUTER
G1 F900 X90.513 Y101.92 E13.54154
G1 X89.896 Y102.12 E13.56311
G1 X89.589 Y102.202 E13.57368
G1 X89.27 Y102.278 E13.58459
G1 X88.953 Y102.343 E13.59535
G1 X88.643 Y102.396 E13.60581
G1 X88.324 Y102.441 E13.61652
G1 X87.998 Y102.478 E13.62744
G1 X87.685 Y102.501 E13.63787
G1 X87.357 Y102.515 E13.64879
G1 X87.039 Y102.52 E13.65937
G1 X86.723 Y102.514 E13.66988
G1 X86.072 Y102.472 E13.69158
G1 X85.753 Y102.436 E13.70226
G1 X85.124 Y102.335 E13.72345
G1 X84.81 Y102.269 E13.73412
G1 X84.18 Y102.107 E13.75575
G1 X83.567 Y101.905 E13.77722
G1 X83.268 Y101.792 E13.78785
G1 X82.683 Y101.536 E13.80909
G1 X82.389 Y101.392 E13.81998
G1 X81.827 Y101.082 E13.84133
G1 X81.553 Y100.913 E13.85203
G1 X81.029 Y100.555 E13.87314
G1 X80.519 Y100.158 E13.89464
G1 X80.03 Y99.725 E13.91636
G1 X79.615 Y99.311 E13.93586
G1 X79.181 Y98.82 E13.95765
G1 X78.788 Y98.314 E13.97896
G1 X78.606 Y98.057 E13.98944
G1 X78.425 Y97.783 E14.00036
G1 X78.256 Y97.509 E14.01107
G1 X78.1 Y97.236 E14.02153
G1 X77.946 Y96.946 E14.03245
G1 X77.805 Y96.658 E14.04311
G1 X77.671 Y96.364 E14.05386
G1 X77.549 Y96.073 E14.06435
G1 X77.433 Y95.766 E14.07527
G1 X77.328 Y95.463 E14.08593
G1 X77.233 Y95.156 E14.09662
G1 X77.148 Y94.845 E14.10735
G1 X77.072 Y94.535 E14.11796
G1 X77.006 Y94.217 E14.12876
G1 X76.951 Y93.902 E14.1394
G1 X76.904 Y93.582 E14.15016
G1 X76.867 Y93.262 E14.16087
G1 X76.843 Y92.949 E14.17131
G1 X76.827 Y92.621 E14.18223
G1 X76.821 Y92.305 E14.19275
