;FLAVOR:Marlin
;TIME:1549
;Filament used: 0.523581m
;Layer height: 0.12
;Generated with Cura_SteamEngine 3.6.0
M140 S60
M105
M190 S60
M104 S195
M105
M109 S195
M82 ;absolute extrusion mode
G21 ;metric values
G90 ;absolute positioning
M82 ;set extruder to absolute mode
M107 ;start with the fan off
G28 X0 Y0 ;move X/Y to min endstops
G28 Z0 ;move Z to min endstops
G1 Z15.0 F120 ;move the platform down 15mm
G92 E0 ;zero the extruded length
G1 F200 E6 ;extrude 6 mm of feed stock
G92 E0 ;zero the extruded length again
M117 Printing...
G1 F120
G92 E0
G1 F2400 E-2.5
;LAYER_COUNT:75
;LAYER:0
M107
G0 F3600 X77.789 Y81.759 Z0.2
;TYPE:SKIRT
G1 F2400 E0
G1 F900 X78.214 Y81.405 E0.0184
G1 X79.665 Y80.374 E0.0776
G1 X80.042 Y80.14 E0.09236
G1 X80.853 Y79.703 E0.123
G1 X81.202 Y79.538 E0.13584
G1 X82.389 Y79.054 E0.17847
G1 X82.777 Y78.922 E0.1921
G1 X83.687 Y78.667 E0.22354
G1 X84.038 Y78.587 E0.23551
G1 X85.274 Y78.371 E0.27724
G1 X85.723 Y78.321 E0.29227
G1 X87.071 Y78.257 E0.33716
G1 X87.529 Y78.264 E0.35239
G1 X88.79 Y78.365 E0.39447
G1 X89.206 Y78.423 E0.40844
G1 X90.361 Y78.653 E0.44761
G1 X90.881 Y78.798 E0.46556
G1 X92.72 Y79.462 E0.53059
G1 X93.141 Y79.645 E0.54586
G1 X93.885 Y80.027 E0.57368
G1 X94.208 Y80.215 E0.58611
G1 X95.203 Y80.864 E0.62562
G1 X95.418 Y81.016 E0.63437
G1 X99.12 Y83.838 E0.7892
G1 X103.627 Y86.943 E0.97123
G1 X108.294 Y89.782 E1.15292
G1 X113.107 Y92.351 E1.33438
G1 X119.647 Y95.41 E1.57452
G1 X120.088 Y95.655 E1.5913
G1 X121.088 Y96.307 E1.631
G1 X121.409 Y96.543 E1.64425
G1 X122.318 Y97.291 E1.68341
G1 X122.629 Y97.579 E1.69751
G1 X123.454 Y98.439 E1.73714
G1 X123.727 Y98.759 E1.75113
G1 X124.486 Y99.762 E1.79297
G1 X124.734 Y100.136 E1.80789
G1 X125.412 Y101.312 E1.85304
G1 X125.614 Y101.721 E1.86822
G1 X126.113 Y102.914 E1.91123
G1 X126.261 Y103.341 E1.92626
G1 X126.617 Y104.625 E1.97057
G1 X126.71 Y105.066 E1.98556
G1 X126.9 Y106.364 E2.0292
G1 X126.936 Y106.77 E2.04275
G1 X126.966 Y107.709 E2.074
G1 X126.948 Y108.2 E2.09034
G1 X126.741 Y110.172 E2.15629
G1 X126.658 Y110.652 E2.17249
G1 X126.461 Y111.457 E2.20006
G1 X126.331 Y111.875 E2.21462
G1 X125.753 Y113.402 E2.26892
G1 X125.524 Y113.892 E2.28691
G1 X124.714 Y115.333 E2.34189
G1 X124.362 Y115.849 E2.36267
G1 X123.161 Y117.316 E2.42573
G1 X122.71 Y117.776 E2.44715
G1 X121.315 Y118.965 E2.50812
G1 X120.767 Y119.35 E2.53039
G1 X119.034 Y120.341 E2.59679
G1 X118.535 Y120.578 E2.61516
G1 X117.34 Y121.036 E2.65773
G1 X116.793 Y121.197 E2.67669
G1 X114.848 Y121.606 E2.7428
G1 X114.271 Y121.679 E2.76214
G1 X112.892 Y121.742 E2.80806
G1 X112.439 Y121.734 E2.82313
G1 X111.211 Y121.635 E2.8641
G1 X110.798 Y121.578 E2.87797
G1 X109.651 Y121.35 E2.91686
G1 X109.132 Y121.205 E2.93479
G1 X107.277 Y120.536 E3.00037
G1 X106.663 Y120.247 E3.02295
G1 X104.94 Y119.226 E3.08956
G1 X104.592 Y118.992 E3.10351
G1 X100.833 Y116.126 E3.26073
G1 X96.34 Y113.029 E3.44222
G1 X91.682 Y110.192 E3.62362
G1 X86.879 Y107.629 E3.80469
G1 X80.78 Y104.824 E4.02797
G1 X80.463 Y104.658 E4.03987
G1 X79.515 Y104.102 E4.07643
G1 X79.198 Y103.893 E4.08906
G1 X78.262 Y103.202 E4.12775
G1 X77.874 Y102.871 E4.14472
G1 X76.618 Y101.634 E4.20335
G1 X76.272 Y101.24 E4.22079
G1 X75.504 Y100.224 E4.26315
G1 X75.255 Y99.848 E4.27815
G1 X74.586 Y98.685 E4.32277
G1 X74.341 Y98.166 E4.34186
G1 X73.635 Y96.303 E4.40813
G1 X73.479 Y95.771 E4.42657
G1 X73.222 Y94.554 E4.46794
G1 X73.157 Y94.117 E4.48263
G1 X73.049 Y92.856 E4.52472
G1 X73.038 Y92.441 E4.53853
G1 X73.075 Y91.213 E4.57939
G1 X73.131 Y90.677 E4.59732
G1 X73.453 Y88.905 E4.65722
G1 X73.63 Y88.27 E4.67915
G1 X74.347 Y86.383 E4.74629
G1 X74.659 Y85.755 E4.76961
G1 X75.74 Y84.024 E4.83749
G1 X76.013 Y83.644 E4.85305
G1 X76.532 Y83.013 E4.88022
G1 X76.802 Y82.719 E4.8935
G1 X77.789 Y81.759 E4.93929
G0 F3600 X78.068 Y82.046
G1 F900 X78.446 Y81.731 E4.95566
G1 X79.897 Y80.7 E5.01486
G1 X80.232 Y80.492 E5.02798
G1 X81.043 Y80.055 E5.05862
G1 X81.353 Y79.909 E5.07002
G1 X82.54 Y79.425 E5.11265
G1 X82.885 Y79.307 E5.12478
G1 X83.795 Y79.052 E5.15621
G1 X84.107 Y78.981 E5.16685
G1 X85.343 Y78.765 E5.20859
G1 X85.742 Y78.721 E5.22194
G1 X87.09 Y78.657 E5.26682
G1 X87.497 Y78.663 E5.28036
G1 X88.758 Y78.764 E5.32244
G1 X89.128 Y78.816 E5.33486
G1 X90.283 Y79.046 E5.37403
G1 X90.745 Y79.174 E5.38998
G1 X92.584 Y79.838 E5.45501
G1 X92.959 Y80.001 E5.46861
G1 X93.703 Y80.383 E5.49643
G1 X93.989 Y80.55 E5.50744
G1 X94.984 Y81.199 E5.54695
G1 X95.176 Y81.334 E5.55476
G1 X98.901 Y84.174 E5.71055
G1 X103.406 Y87.277 E5.8925
G1 X108.09 Y90.126 E6.07484
G1 X112.921 Y92.705 E6.25698
G1 X119.478 Y95.772 E6.49775
G1 X119.87 Y95.99 E6.51267
G1 X120.87 Y96.642 E6.55237
G1 X121.155 Y96.852 E6.56415
G1 X122.064 Y97.6 E6.6033
G1 X122.34 Y97.856 E6.61582
G1 X123.165 Y98.716 E6.65546
G1 X123.408 Y99 E6.66789
G1 X124.167 Y100.003 E6.70972
G1 X124.387 Y100.336 E6.723
G1 X125.065 Y101.512 E6.76815
G1 X125.245 Y101.875 E6.78162
G1 X125.744 Y103.068 E6.82463
G1 X125.876 Y103.448 E6.83801
G1 X126.232 Y104.732 E6.88233
G1 X126.314 Y105.124 E6.89565
G1 X126.504 Y106.422 E6.93928
G1 X126.536 Y106.783 E6.95134
G1 X126.566 Y107.722 E6.98258
G1 X126.551 Y108.158 E6.99709
G1 X126.344 Y110.13 E7.06304
G1 X126.269 Y110.557 E7.07746
G1 X126.072 Y111.362 E7.10503
G1 X125.957 Y111.734 E7.11798
G1 X125.379 Y113.261 E7.17228
G1 X125.176 Y113.696 E7.18825
G1 X124.366 Y115.137 E7.24323
G1 X124.052 Y115.596 E7.26173
G1 X122.851 Y117.063 E7.32478
G1 X122.451 Y117.471 E7.34379
G1 X121.056 Y118.66 E7.40475
G1 X120.569 Y119.003 E7.42456
G1 X118.836 Y119.994 E7.49096
G1 X118.392 Y120.204 E7.5073
G1 X117.197 Y120.662 E7.54986
G1 X116.711 Y120.806 E7.56672
G1 X114.766 Y121.215 E7.63283
G1 X114.253 Y121.28 E7.65003
G1 X112.874 Y121.343 E7.69594
G1 X112.471 Y121.336 E7.70935
G1 X111.243 Y121.237 E7.75032
G1 X110.876 Y121.186 E7.76265
G1 X109.729 Y120.958 E7.80154
G1 X109.267 Y120.829 E7.8175
G1 X107.412 Y120.16 E7.88308
G1 X106.867 Y119.903 E7.90312
G1 X105.144 Y118.882 E7.96974
G1 X104.835 Y118.674 E7.98213
G1 X101.077 Y115.808 E8.13932
G1 X96.55 Y112.688 E8.32218
G1 X91.886 Y109.847 E8.50382
G1 X87.049 Y107.266 E8.68617
G1 X80.947 Y104.46 E8.90956
G1 X80.665 Y104.313 E8.92013
G1 X79.717 Y103.757 E8.95669
G1 X79.435 Y103.571 E8.96792
G1 X78.499 Y102.88 E9.00662
G1 X78.155 Y102.586 E9.02167
G1 X76.899 Y101.349 E9.0803
G1 X76.591 Y100.999 E9.09581
G1 X75.823 Y99.983 E9.13817
G1 X75.602 Y99.649 E9.15149
G1 X74.933 Y98.486 E9.19611
G1 X74.715 Y98.024 E9.21311
G1 X74.009 Y96.161 E9.27937
G1 X73.87 Y95.688 E9.29577
G1 X73.613 Y94.471 E9.33714
G1 X73.556 Y94.083 E9.35018
G1 X73.448 Y92.822 E9.39227
G1 X73.437 Y92.453 E9.40455
G1 X73.474 Y91.225 E9.44542
G1 X73.525 Y90.749 E9.46134
G1 X73.847 Y88.977 E9.52124
G1 X74.004 Y88.412 E9.54074
G1 X74.721 Y86.525 E9.60788
G1 X74.998 Y85.967 E9.6286
G1 X76.079 Y84.236 E9.69648
G1 X76.322 Y83.898 E9.71033
G1 X76.841 Y83.267 E9.7375
G1 X77.081 Y83.006 E9.74929
G1 X78.068 Y82.046 E9.79509
G1 F2400 E7.29509
;MESH:cust_fidget_ring_v1_5_Ring20190112-61-v3rfqm.stl
G0 F3600 X79.497 Y84.15
G0 X80.081 Y84.813
G0 X80.944 Y87.536
G0 X81.023 Y87.597
;TYPE:WALL-OUTER
G1 F2400 E9.79509
G1 F900 X80.743 Y87.984 E9.81098
G1 X80.608 Y88.187 E9.81909
G1 X80.365 Y88.6 E9.83502
G1 X80.147 Y89.027 E9.85097
G1 X79.956 Y89.467 E9.86692
G1 X79.794 Y89.918 E9.88286
G1 X79.722 Y90.15 E9.89094
G1 X79.604 Y90.614 E9.90686
G1 X79.514 Y91.085 E9.92281
G1 X79.454 Y91.561 E9.93877
G1 X79.424 Y92.04 E9.95473
G1 X79.424 Y92.52 E9.9707
G1 X79.454 Y92.999 E9.98666
G1 X79.514 Y93.475 E10.00262
G1 X79.604 Y93.946 E10.01857
G1 X79.723 Y94.412 E10.03456
G1 X79.872 Y94.868 E10.05052
G1 X80.048 Y95.314 E10.06647
G1 X80.253 Y95.749 E10.08246
G1 X80.484 Y96.169 E10.0984
G1 X80.741 Y96.574 E10.11436
G1 X81.023 Y96.963 E10.13034
G1 X81.329 Y97.332 E10.14628
G1 X81.658 Y97.682 E10.16226
G1 X82.008 Y98.011 E10.17824
G1 X82.377 Y98.317 E10.19418
G1 X82.764 Y98.597 E10.21007
G1 X82.967 Y98.732 E10.21818
G1 X83.38 Y98.975 E10.23411
G1 X83.807 Y99.193 E10.25006
G1 X84.247 Y99.384 E10.26601
G1 X84.698 Y99.546 E10.28195
G1 X84.93 Y99.618 E10.29003
G1 X85.394 Y99.736 E10.30595
G1 X85.865 Y99.826 E10.3219
G1 X86.341 Y99.886 E10.33786
G1 X86.82 Y99.916 E10.35382
G1 X87.3 Y99.916 E10.36979
G1 X87.779 Y99.886 E10.38575
G1 X88.255 Y99.826 E10.40171
G1 X88.726 Y99.736 E10.41766
G1 X89.192 Y99.617 E10.43365
G1 X89.648 Y99.468 E10.44961
G1 X90.094 Y99.292 E10.46556
G1 X90.529 Y99.087 E10.48155
G1 X90.949 Y98.856 E10.49749
G1 X91.354 Y98.599 E10.51345
G1 X91.743 Y98.317 E10.52943
G1 X92.112 Y98.011 E10.54537
G1 X92.462 Y97.682 E10.56135
G1 X92.791 Y97.332 E10.57732
G1 X93.097 Y96.963 E10.59327
G1 X93.377 Y96.576 E10.60916
G1 X93.512 Y96.373 E10.61726
G1 X93.755 Y95.96 E10.6332
G1 X93.973 Y95.533 E10.64915
G1 X94.164 Y95.093 E10.6651
G1 X94.326 Y94.642 E10.68104
G1 X94.398 Y94.41 E10.68912
G1 X94.516 Y93.946 E10.70504
G1 X94.606 Y93.475 E10.72099
G1 X94.666 Y92.999 E10.73695
G1 X94.696 Y92.522 E10.75285
G1 X94.7 Y92.278 E10.76096
G1 X94.685 Y91.8 E10.77687
G1 X94.64 Y91.323 E10.7928
G1 X94.565 Y90.849 E10.80877
G1 X94.46 Y90.38 E10.82475
G1 X94.326 Y89.919 E10.84072
G1 X94.164 Y89.467 E10.85669
G1 X93.973 Y89.027 E10.87264
G1 X93.755 Y88.6 E10.88859
G1 X93.511 Y88.186 E10.90457
G1 X93.241 Y87.789 E10.92054
G1 X92.947 Y87.411 E10.93647
G1 X92.63 Y87.05 E10.95245
G1 X92.29 Y86.71 E10.96844
G1 X91.929 Y86.393 E10.98442
G1 X91.551 Y86.099 E11.00035
G1 X91.154 Y85.829 E11.01631
G1 X90.74 Y85.585 E11.0323
G1 X90.313 Y85.367 E11.04824
G1 X89.873 Y85.176 E11.0642
G1 X89.422 Y85.014 E11.08014
G1 X89.19 Y84.942 E11.08822
G1 X88.726 Y84.824 E11.10414
G1 X88.255 Y84.734 E11.12009
G1 X87.779 Y84.674 E11.13605
G1 X87.3 Y84.644 E11.15201
G1 X86.82 Y84.644 E11.16797
G1 X86.341 Y84.674 E11.18394
G1 X85.865 Y84.734 E11.19989
G1 X85.394 Y84.824 E11.21584
G1 X84.928 Y84.943 E11.23184
G1 X84.472 Y85.092 E11.24779
G1 X84.026 Y85.268 E11.26374
G1 X83.591 Y85.473 E11.27974
G1 X83.171 Y85.704 E11.29568
G1 X82.766 Y85.961 E11.31163
G1 X82.377 Y86.243 E11.32761
G1 X82.008 Y86.549 E11.34356
G1 X81.658 Y86.878 E11.35953
G1 X81.329 Y87.228 E11.37551
G1 X81.023 Y87.597 E11.39145
G0 F3600 X80.906 Y87.759
G0 X80.825 Y87.701
G0 X79.919 Y89.453
G0 X79.565 Y90.606
G0 X79.385 Y92.039
G0 X79.475 Y93.481
G0 X79.835 Y94.881
G0 X80.45 Y96.189
G0 X81.3 Y97.358
G0 X82.353 Y98.348
G0 X83.361 Y99.01
G0 X84.433 Y99.473
G0 X90.77 Y101.718
G0 X90.806 Y101.81
G1 F900 X90.513 Y101.92 E11.40186
G1 X89.896 Y102.12 E11.42344
G1 X89.589 Y102.202 E11.43401
G1 X89.27 Y102.278 E11.44491
G1 X88.953 Y102.343 E11.45567
G1 X88.643 Y102.396 E11.46614
G1 X88.324 Y102.441 E11.47685
G1 X87.998 Y102.478 E11.48776
G1 X87.685 Y102.501 E11.4982
G1 X87.357 Y102.515 E11.50912
G1 X87.039 Y102.52 E11.5197
G1 X86.723 Y102.514 E11.53021
G1 X86.072 Y102.472 E11.55191
G1 X85.753 Y102.436 E11.56259
G1 X85.124 Y102.335 E11.58377
G1 X84.81 Y102.269 E11.59445
G1 X84.18 Y102.107 E11.61608
G1 X83.567 Y101.905 E11.63755
G1 X83.268 Y101.792 E11.64818
G1 X82.683 Y101.536 E11.66942
G1 X82.389 Y101.392 E11.68031
G1 X81.827 Y101.082 E11.70165
G1 X81.553 Y100.913 E11.71236
G1 X81.029 Y100.555 E11.73347
G1 X80.519 Y100.158 E11.75496
G1 X80.03 Y99.725 E11.77669
G1 X79.615 Y99.311 E11.79619
G1 X79.181 Y98.82 E11.81798
G1 X78.788 Y98.314 E11.83929
G1 X78.606 Y98.057 E11.84977
G1 X78.425 Y97.783 E11.86069
G1 X78.256 Y97.509 E11.87139
G1 X78.1 Y97.236 E11.88185
G1 X77.946 Y96.946 E11.89277
G1 X77.805 Y96.658 E11.90344
G1 X77.671 Y96.364 E11.91419
G1 X77.549 Y96.073 E11.92468
G1 X77.433 Y95.766 E11.9356
G1 X77.328 Y95.463 E11.94626
G1 X77.233 Y95.156 E11.95695
G1 X77.148 Y94.845 E11.96767
G1 X77.072 Y94.535 E11.97829
G1 X77.006 Y94.217 E11.98909
G1 X76.951 Y93.902 E11.99973
G1 X76.904 Y93.582 E12.01048
G1 X76.867 Y93.262 E12.0212
G1 X76.843 Y92.949 E12.03164
G1 X76.827 Y92.621 E12.04256
G1 X76.821 Y92.305 E12.05307
G1 X76.824 Y91.987 E12.06365
G1 X76.862 Y91.343 E12.08511
G1 X76.897 Y91.026 E12.09572
G1 X76.998 Y90.378 E12.11753
G1 X77.137 Y89.752 E12.13886
G1 X77.221 Y89.441 E12.14957
G1 X77.416 Y88.836 E12.17071
G1 X77.528 Y88.537 E12.18133
G1 X77.788 Y87.935 E12.20314
G1 X77.924 Y87.654 E12.21353
G1 X78.072 Y87.372 E12.22412
G1 X78.401 Y86.815 E12.24563
G1 X78.576 Y86.546 E12.25631
G1 X78.764 Y86.278 E12.2672
G1 X79.151 Y85.775 E12.2883
G1 X79.577 Y85.29 E12.30977
G1 X79.833 Y85.027 E12.32198
G1 X80.068 Y84.799 E12.33287
G1 X80.546 Y84.379 E12.35404
G1 X81.057 Y83.985 E12.3755
G1 X81.325 Y83.797 E12.38639
G1 X81.864 Y83.457 E12.40758
G1 X82.148 Y83.295 E12.41846
G1 X82.427 Y83.148 E12.42894
G1 X82.717 Y83.008 E12.43966
G1 X83.016 Y82.874 E12.45055
G1 X83.314 Y82.749 E12.4613
G1 X83.607 Y82.64 E12.4717
G1 X84.224 Y82.44 E12.49327
G1 X84.531 Y82.358 E12.50384
G1 X84.85 Y82.282 E12.51475
G1 X85.166 Y82.217 E12.52548
G1 X85.477 Y82.164 E12.53597
G1 X85.796 Y82.119 E12.54669
G1 X86.122 Y82.082 E12.5576
G1 X86.435 Y82.059 E12.56804
G1 X86.763 Y82.045 E12.57896
G1 X87.081 Y82.04 E12.58953
G1 X87.397 Y82.046 E12.60005
G1 X88.048 Y82.088 E12.62174
G1 X88.367 Y82.124 E12.63242
G1 X88.996 Y82.225 E12.65361
G1 X89.31 Y82.291 E12.66428
G1 X89.94 Y82.453 E12.68592
G1 X90.553 Y82.655 E12.70738
G1 X90.852 Y82.768 E12.71801
G1 X91.437 Y83.024 E12.73925
G1 X91.725 Y83.165 E12.74992
G1 X92.015 Y83.319 E12.76084
G1 X92.288 Y83.475 E12.7713
G1 X92.562 Y83.644 E12.78201
G1 X92.836 Y83.825 E12.79293
G1 X93.091 Y84.005 E12.80331
G1 X93.599 Y84.4 E12.82471
G1 X94.09 Y84.835 E12.84653
G1 X94.505 Y85.249 E12.86603
G1 X94.939 Y85.74 E12.88782
G1 X95.332 Y86.246 E12.90913
G1 X95.514 Y86.503 E12.91961
G1 X95.692 Y86.772 E12.93033
G1 X95.861 Y87.046 E12.94104
G1 X96.02 Y87.324 E12.95169
G1 X96.171 Y87.608 E12.96239
G1 X96.313 Y87.897 E12.9731
G1 X96.449 Y88.196 E12.98403
G1 X96.571 Y88.487 E12.99452
G1 X96.685 Y88.788 E13.00523
G1 X96.79 Y89.091 E13.01589
G1 X96.885 Y89.398 E13.02658
G1 X96.971 Y89.71 E13.03734
G1 X97.047 Y90.022 E13.04803
G1 X97.113 Y90.336 E13.0587
G1 X97.168 Y90.653 E13.0694
G1 X97.215 Y90.972 E13.08012
G1 X97.253 Y91.298 E13.09104
G1 X97.277 Y91.611 E13.10148
G1 X97.293 Y91.933 E13.1122
G1 X97.299 Y92.255 E13.12291
G1 X97.296 Y92.573 E13.13349
G1 X97.258 Y93.217 E13.15495
G1 X97.223 Y93.534 E13.16556
G1 X97.122 Y94.182 E13.18737
G1 X96.983 Y94.808 E13.2087
G1 X96.899 Y95.119 E13.21941
G1 X96.704 Y95.724 E13.24055
G1 X96.592 Y96.023 E13.25117
G1 X96.332 Y96.625 E13.27298
G1 X96.196 Y96.906 E13.28337
G1 X96.048 Y97.188 E13.29396
G1 X95.719 Y97.745 E13.31548
G1 X95.544 Y98.014 E13.32615
G1 X95.356 Y98.282 E13.33704
G1 X94.969 Y98.785 E13.35815
G1 X94.543 Y99.27 E13.37962
G1 X94.287 Y99.533 E13.39182
G1 X94.052 Y99.761 E13.40271
G1 X93.574 Y100.181 E13.42388
G1 X93.063 Y100.575 E13.44534
G1 X92.794 Y100.763 E13.45625
G1 X92.256 Y101.103 E13.47742
G1 X91.972 Y101.265 E13.4883
G1 X91.693 Y101.412 E13.49878
G1 X91.403 Y101.552 E13.5095
G1 X91.104 Y101.686 E13.52039
G1 X90.806 Y101.81 E13.53113
G0 F3600 X90.619 Y101.88
G0 X90.392 Y101.549
;TYPE:SKIN
G1 F900 X89.787 Y101.745 E13.55228
G1 X89.18 Y101.898 E13.5731
G1 X88.873 Y101.961 E13.58352
G1 X88.589 Y102.01 E13.59311
G1 X88.28 Y102.053 E13.60349
G1 X87.913 Y102.095 E13.61577
G1 X87.708 Y102.11 E13.62261
G1 X87.041 Y102.13 E13.6448
G1 X86.748 Y102.124 E13.65455
G1 X86.097 Y102.082 E13.67625
G1 X85.805 Y102.049 E13.68602
G1 X85.195 Y101.951 E13.70657
G1 X84.897 Y101.888 E13.7167
G1 X84.281 Y101.73 E13.73785
G1 X83.697 Y101.537 E13.75831
G1 X83.406 Y101.427 E13.76866
G1 X82.855 Y101.185 E13.78867
G1 X82.561 Y101.041 E13.79956
G1 X82.024 Y100.745 E13.81996
G1 X81.765 Y100.585 E13.83008
G1 X81.265 Y100.245 E13.85019
G1 X80.767 Y99.856 E13.87121
G1 X80.297 Y99.44 E13.89209
G1 X79.89 Y99.034 E13.91121
G1 X79.489 Y98.58 E13.93135
G1 X79.096 Y98.074 E13.95266
G1 X78.751 Y97.568 E13.97303
G1 X78.592 Y97.31 E13.98311
G1 X78.439 Y97.043 E13.99335
G1 X78.156 Y96.486 E14.01413
G1 X78.026 Y96.202 E14.02452
G1 X77.914 Y95.935 E14.03415
G1 X77.798 Y95.628 E14.04506
G1 X77.697 Y95.336 E14.05534
G1 X77.605 Y95.041 E14.06562
G1 X77.525 Y94.747 E14.07575
G1 X77.453 Y94.449 E14.08595
G1 X77.388 Y94.137 E14.09655
G1 X77.335 Y93.835 E14.10674
G1 X77.29 Y93.526 E14.11713
