;FLAVOR:Marlin
;TIME:740
;Filament used: 0.267343m
;Layer height: 0.12
;Generated with Cura_SteamEngine 3.6.0
M140 S60
M105
M190 S60
M104 S200
M105
M109 S200
M82 ;absolute extrusion mode
G21 ;metric values
G90 ;absolute positioning
M82 ;set extruder to absolute mode
M107 ;start with the fan off
G28 X0 Y0 ;move X/Y to min endstops
G28 Z0 ;move Z to min endstops
G1 Z15.0 F120 ;move the platform down 15mm
G92 E0 ;zero the extruded length
G1 F200 E6 ;extrude 6 mm of feed stock
G92 E0 ;zero the extruded length again
M117 Printing...
G1 F120
G92 E0
G1 F2400 E-2.5
;LAYER_COUNT:54
;LAYER:0
M107
G0 F3600 X89.116 Y89.073 Z0.2
;TYPE:SKIRT
G1 F2400 E0
G1 F900 X90.198 Y88.093 E0.04855
G1 X90.595 Y87.777 E0.06543
G1 X91.764 Y86.962 E0.11283
G1 X92.187 Y86.704 E0.12931
G1 X93.468 Y86.029 E0.17747
G1 X93.93 Y85.822 E0.19431
G1 X95.249 Y85.328 E0.24115
G1 X95.719 Y85.184 E0.2575
G1 X97.099 Y84.853 E0.3047
G1 X97.576 Y84.769 E0.32081
G1 X98.909 Y84.616 E0.36544
G1 X99.41 Y84.59 E0.38212
G1 X100.937 Y84.607 E0.43291
G1 X101.442 Y84.645 E0.44976
G1 X102.804 Y84.834 E0.49549
G1 X103.189 Y84.907 E0.50853
G1 X104.004 Y85.103 E0.53641
G1 X104.437 Y85.233 E0.55144
G1 X106.086 Y85.833 E0.60981
G1 X106.595 Y86.06 E0.62834
G1 X107.869 Y86.737 E0.67633
G1 X108.304 Y87.005 E0.69332
G1 X109.494 Y87.848 E0.74183
G1 X109.882 Y88.161 E0.75841
G1 X110.927 Y89.117 E0.80551
G1 X111.267 Y89.468 E0.82177
G1 X112.159 Y90.511 E0.86741
G1 X112.456 Y90.906 E0.88385
G1 X113.249 Y92.106 E0.93169
G1 X113.555 Y92.66 E0.95274
G1 X114.46 Y94.657 E1.02566
G1 X114.679 Y95.266 E1.04719
G1 X115.066 Y96.7 E1.09659
G1 X115.165 Y97.186 E1.11309
G1 X115.351 Y98.511 E1.15759
G1 X115.389 Y98.991 E1.1736
G1 X115.416 Y100.411 E1.22084
G1 X115.379 Y101.038 E1.24173
G1 X115.078 Y103.203 E1.31443
G1 X114.941 Y103.821 E1.33549
G1 X114.518 Y105.205 E1.38362
G1 X114.336 Y105.687 E1.40076
G1 X113.734 Y107.015 E1.44925
G1 X113.547 Y107.378 E1.46283
G1 X113.047 Y108.236 E1.49586
G1 X112.785 Y108.631 E1.51163
G1 X111.849 Y109.872 E1.56333
G1 X111.52 Y110.254 E1.5801
G1 X110.544 Y111.256 E1.62662
G1 X110.175 Y111.591 E1.64319
G1 X109.063 Y112.479 E1.69053
G1 X108.653 Y112.766 E1.70717
G1 X107.416 Y113.522 E1.75539
G1 X106.967 Y113.759 E1.77228
G1 X105.625 Y114.361 E1.8212
G1 X105.141 Y114.541 E1.83837
G1 X103.753 Y114.959 E1.88658
G1 X103.285 Y115.07 E1.90258
G1 X101.984 Y115.296 E1.9465
G1 X101.506 Y115.35 E1.9625
G1 X100.096 Y115.423 E2.00946
G1 X99.594 Y115.417 E2.02616
G1 X98.134 Y115.309 E2.07485
G1 X97.737 Y115.26 E2.08816
G1 X96.934 Y115.119 E2.11527
G1 X96.57 Y115.037 E2.12768
G1 X95.284 Y114.685 E2.17203
G1 X94.823 Y114.528 E2.18823
G1 X93.491 Y113.982 E2.23611
G1 X93.029 Y113.757 E2.2532
G1 X91.752 Y113.03 E2.30207
G1 X91.345 Y112.764 E2.31824
G1 X90.247 Y111.948 E2.36374
G1 X89.865 Y111.626 E2.38036
G1 X88.827 Y110.631 E2.42818
G1 X88.486 Y110.259 E2.44497
G1 X87.569 Y109.126 E2.49345
G1 X87.278 Y108.717 E2.51014
G1 X86.529 Y107.508 E2.55745
G1 X86.293 Y107.069 E2.57402
G1 X85.697 Y105.77 E2.62156
G1 X85.483 Y105.185 E2.64228
G1 X84.909 Y103.145 E2.71276
G1 X84.786 Y102.524 E2.73382
G1 X84.615 Y101.052 E2.78311
G1 X84.588 Y100.544 E2.80003
G1 X84.605 Y99.076 E2.84886
G1 X84.663 Y98.442 E2.87003
G1 X85.029 Y96.32 E2.94165
G1 X85.19 Y95.695 E2.96312
G1 X85.685 Y94.261 E3.01357
G1 X85.881 Y93.792 E3.03048
G1 X86.497 Y92.547 E3.07668
G1 X86.744 Y92.118 E3.09314
G1 X87.536 Y90.918 E3.14097
G1 X87.835 Y90.52 E3.15752
G1 X88.762 Y89.437 E3.20494
G1 X89.116 Y89.073 E3.22183
G0 F3600 X89.384 Y89.37
G1 F900 X90.466 Y88.39 E3.27038
G1 X90.824 Y88.105 E3.2856
G1 X91.993 Y87.29 E3.333
G1 X92.374 Y87.058 E3.34783
G1 X93.655 Y86.383 E3.39599
G1 X94.07 Y86.197 E3.41112
G1 X95.389 Y85.703 E3.45796
G1 X95.812 Y85.573 E3.47268
G1 X97.192 Y85.242 E3.51988
G1 X97.621 Y85.166 E3.53437
G1 X98.954 Y85.013 E3.579
G1 X99.405 Y84.99 E3.59402
G1 X100.932 Y85.007 E3.64481
G1 X101.387 Y85.041 E3.65999
G1 X102.749 Y85.23 E3.70572
G1 X103.096 Y85.296 E3.71747
G1 X103.911 Y85.492 E3.74535
G1 X104.3 Y85.609 E3.75886
G1 X105.949 Y86.209 E3.81723
G1 X106.407 Y86.413 E3.8339
G1 X107.681 Y87.09 E3.88189
G1 X108.073 Y87.331 E3.89719
G1 X109.263 Y88.174 E3.9457
G1 X109.612 Y88.456 E3.96062
G1 X110.657 Y89.412 E4.00773
G1 X110.963 Y89.728 E4.02236
G1 X111.855 Y90.771 E4.068
G1 X112.122 Y91.126 E4.08278
G1 X112.915 Y92.326 E4.13062
G1 X113.191 Y92.825 E4.14958
G1 X114.096 Y94.822 E4.22251
G1 X114.293 Y95.37 E4.24187
G1 X114.68 Y96.804 E4.29128
G1 X114.769 Y97.242 E4.30614
G1 X114.955 Y98.567 E4.35064
G1 X114.989 Y98.999 E4.36506
G1 X115.016 Y100.419 E4.41229
G1 X114.983 Y100.983 E4.43108
G1 X114.682 Y103.148 E4.50379
G1 X114.559 Y103.704 E4.52272
G1 X114.136 Y105.088 E4.57086
G1 X113.972 Y105.522 E4.58629
G1 X113.37 Y106.85 E4.63479
G1 X113.201 Y107.177 E4.64703
G1 X112.701 Y108.035 E4.68006
G1 X112.465 Y108.39 E4.69424
G1 X111.529 Y109.631 E4.74594
G1 X111.234 Y109.975 E4.76101
G1 X110.258 Y110.977 E4.80753
G1 X109.925 Y111.278 E4.82246
G1 X108.813 Y112.166 E4.86979
G1 X108.444 Y112.425 E4.88479
G1 X107.207 Y113.181 E4.93301
G1 X106.803 Y113.394 E4.9482
G1 X105.461 Y113.996 E4.99712
G1 X105.026 Y114.158 E5.01255
G1 X103.638 Y114.576 E5.06077
G1 X103.216 Y114.676 E5.07519
G1 X101.915 Y114.902 E5.11911
G1 X101.485 Y114.95 E5.1335
G1 X100.075 Y115.023 E5.18046
G1 X99.623 Y115.018 E5.1955
G1 X98.163 Y114.91 E5.24419
G1 X97.806 Y114.866 E5.25615
G1 X97.003 Y114.725 E5.28327
G1 X96.676 Y114.651 E5.29442
G1 X95.39 Y114.299 E5.33877
G1 X94.975 Y114.158 E5.35334
G1 X93.643 Y113.612 E5.40122
G1 X93.227 Y113.41 E5.41661
G1 X91.95 Y112.683 E5.46548
G1 X91.584 Y112.443 E5.48004
G1 X90.486 Y111.627 E5.52554
G1 X90.142 Y111.337 E5.5405
G1 X89.104 Y110.342 E5.58832
G1 X88.797 Y110.008 E5.60341
G1 X87.88 Y108.875 E5.65189
G1 X87.618 Y108.506 E5.66695
G1 X86.869 Y107.297 E5.71425
G1 X86.657 Y106.902 E5.72916
G1 X86.061 Y105.603 E5.77669
G1 X85.868 Y105.077 E5.79533
G1 X85.294 Y103.037 E5.86581
G1 X85.183 Y102.477 E5.8848
G1 X85.012 Y101.005 E5.93409
G1 X84.988 Y100.548 E5.94931
G1 X85.005 Y99.08 E5.99814
G1 X85.057 Y98.51 E6.01718
G1 X85.423 Y96.388 E6.0888
G1 X85.568 Y95.825 E6.10813
G1 X86.063 Y94.391 E6.15859
G1 X86.239 Y93.97 E6.17377
G1 X86.855 Y92.725 E6.21997
G1 X87.077 Y92.338 E6.23481
G1 X87.869 Y91.138 E6.28263
G1 X88.139 Y90.78 E6.29754
G1 X89.066 Y89.697 E6.34496
G1 X89.384 Y89.37 E6.36013
G0 F3600 X89.653 Y89.666
G1 F900 X90.735 Y88.686 E6.40868
G1 X91.053 Y88.433 E6.4222
G1 X92.222 Y87.618 E6.4696
G1 X92.56 Y87.412 E6.48276
G1 X93.841 Y86.737 E6.53092
G1 X94.211 Y86.571 E6.54441
G1 X95.53 Y86.077 E6.59125
G1 X95.906 Y85.962 E6.60433
G1 X97.286 Y85.631 E6.65153
G1 X97.667 Y85.564 E6.6644
G1 X99 Y85.411 E6.70903
G1 X99.401 Y85.39 E6.72238
G1 X100.928 Y85.407 E6.77317
G1 X101.332 Y85.437 E6.78665
G1 X102.694 Y85.626 E6.83238
G1 X103.002 Y85.685 E6.84281
G1 X103.817 Y85.881 E6.87069
G1 X104.163 Y85.985 E6.88271
G1 X105.812 Y86.585 E6.94107
G1 X106.22 Y86.766 E6.95592
G1 X107.494 Y87.443 E7.0039
G1 X107.842 Y87.658 E7.01751
G1 X109.032 Y88.501 E7.06601
G1 X109.342 Y88.751 E7.07926
G1 X110.387 Y89.707 E7.12636
G1 X110.659 Y89.988 E7.13937
G1 X111.551 Y91.031 E7.18502
G1 X111.789 Y91.347 E7.19818
G1 X112.582 Y92.547 E7.24602
G1 X112.827 Y92.99 E7.26285
G1 X113.732 Y94.987 E7.33578
G1 X113.906 Y95.474 E7.35298
G1 X114.293 Y96.908 E7.40238
G1 X114.373 Y97.297 E7.41559
G1 X114.559 Y98.622 E7.46009
G1 X114.589 Y99.006 E7.4729
G1 X114.616 Y100.426 E7.52014
G1 X114.587 Y100.928 E7.53686
G1 X114.286 Y103.093 E7.60956
G1 X114.176 Y103.587 E7.6264
G1 X113.753 Y104.971 E7.67453
G1 X113.608 Y105.357 E7.68824
G1 X113.006 Y106.685 E7.73674
G1 X112.856 Y106.975 E7.7476
G1 X112.356 Y107.833 E7.78063
G1 X112.146 Y108.149 E7.79325
G1 X111.21 Y109.39 E7.84495
G1 X110.947 Y109.696 E7.85837
G1 X109.971 Y110.698 E7.90489
G1 X109.676 Y110.966 E7.91815
G1 X108.564 Y111.854 E7.96548
G1 X108.236 Y112.083 E7.97878
G1 X106.999 Y112.839 E8.027
G1 X106.64 Y113.029 E8.04051
G1 X105.298 Y113.631 E8.08943
G1 X104.911 Y113.775 E8.10317
G1 X103.523 Y114.193 E8.15138
G1 X103.148 Y114.282 E8.1642
G1 X101.847 Y114.508 E8.20812
G1 X101.464 Y114.551 E8.22094
G1 X100.054 Y114.624 E8.2679
G1 X99.653 Y114.619 E8.28123
G1 X98.193 Y114.511 E8.32993
G1 X97.876 Y114.472 E8.34055
G1 X97.073 Y114.331 E8.36767
G1 X96.781 Y114.265 E8.37762
G1 X95.495 Y113.913 E8.42197
G1 X95.126 Y113.788 E8.43493
G1 X93.794 Y113.242 E8.48281
G1 X93.425 Y113.062 E8.49646
G1 X92.148 Y112.335 E8.54534
G1 X91.822 Y112.122 E8.55829
G1 X90.724 Y111.306 E8.60379
G1 X90.419 Y111.048 E8.61708
G1 X89.381 Y110.053 E8.6649
G1 X89.108 Y109.756 E8.67832
G1 X88.191 Y108.623 E8.7268
G1 X87.958 Y108.295 E8.74018
G1 X87.209 Y107.086 E8.78748
G1 X87.021 Y106.735 E8.80072
G1 X86.425 Y105.436 E8.84826
G1 X86.253 Y104.969 E8.86481
G1 X85.679 Y102.929 E8.9353
G1 X85.58 Y102.431 E8.95218
G1 X85.409 Y100.959 E9.00147
G1 X85.388 Y100.553 E9.01499
G1 X85.405 Y99.085 E9.06382
G1 X85.452 Y98.578 E9.08076
G1 X85.818 Y96.456 E9.15238
G1 X85.946 Y95.956 E9.16955
G1 X86.441 Y94.522 E9.22
G1 X86.598 Y94.147 E9.23352
G1 X87.214 Y92.902 E9.27972
G1 X87.411 Y92.558 E9.29291
G1 X88.203 Y91.358 E9.34073
G1 X88.443 Y91.04 E9.35398
G1 X89.37 Y89.957 E9.4014
G1 X89.653 Y89.666 E9.4149
G1 F2400 E6.9149
;MESH:cust_fidget_ring_v1_5_Spinner20190112-61-17caevj.stl
G0 F3600 X90.931 Y91.983
G0 X91.577 Y92.588
G0 X91.716 Y93.981
G0 X91.796 Y94.039
;TYPE:WALL-OUTER
G1 F2400 E9.4149
G1 F900 X91.439 Y94.566 E9.43607
G1 X91.271 Y94.839 E9.44673
G1 X90.965 Y95.395 E9.46784
G1 X90.825 Y95.683 E9.47849
G1 X90.694 Y95.973 E9.48907
G1 X90.572 Y96.267 E9.49966
G1 X90.46 Y96.565 E9.51025
G1 X90.357 Y96.866 E9.52083
G1 X90.263 Y97.171 E9.53144
G1 X90.178 Y97.478 E9.54204
G1 X90.104 Y97.788 E9.55264
G1 X90.04 Y98.099 E9.5632
G1 X89.984 Y98.414 E9.57384
G1 X89.94 Y98.729 E9.58442
G1 X89.905 Y99.046 E9.59503
G1 X89.88 Y99.364 E9.60564
G1 X89.865 Y99.682 E9.61623
G1 X89.86 Y100 E9.6268
G1 X89.865 Y100.32 E9.63745
G1 X89.905 Y100.952 E9.65851
G1 X89.985 Y101.588 E9.67983
G1 X90.103 Y102.21 E9.70089
G1 X90.179 Y102.523 E9.7116
G1 X90.357 Y103.134 E9.73277
G1 X90.572 Y103.733 E9.75393
G1 X90.824 Y104.316 E9.77506
G1 X90.965 Y104.605 E9.78575
G1 X91.271 Y105.161 E9.80686
G1 X91.439 Y105.434 E9.81752
G1 X91.796 Y105.961 E9.8387
G1 X92.187 Y106.464 E9.85988
G1 X92.607 Y106.94 E9.881
G1 X92.83 Y107.17 E9.89165
G1 X93.059 Y107.392 E9.90226
G1 X93.538 Y107.814 E9.92349
G1 X94.039 Y108.204 E9.94461
G1 X94.566 Y108.561 E9.96578
G1 X94.839 Y108.729 E9.97644
G1 X95.395 Y109.035 E9.99755
G1 X95.683 Y109.175 E10.0082
G1 X95.973 Y109.306 E10.01879
G1 X96.267 Y109.428 E10.02937
G1 X96.565 Y109.54 E10.03996
G1 X96.866 Y109.643 E10.05054
G1 X97.171 Y109.737 E10.06116
G1 X97.478 Y109.822 E10.07175
G1 X97.788 Y109.896 E10.08235
G1 X98.099 Y109.96 E10.09291
G1 X98.414 Y110.016 E10.10356
G1 X98.729 Y110.06 E10.11413
G1 X99.046 Y110.095 E10.12474
G1 X99.364 Y110.12 E10.13535
G1 X99.682 Y110.135 E10.14594
G1 X100 Y110.14 E10.15652
G1 X100.32 Y110.135 E10.16716
G1 X100.952 Y110.095 E10.18823
G1 X101.588 Y110.015 E10.20955
G1 X102.21 Y109.897 E10.2306
G1 X102.523 Y109.821 E10.24131
G1 X103.134 Y109.643 E10.26248
G1 X103.733 Y109.428 E10.28365
G1 X104.316 Y109.176 E10.30477
G1 X104.605 Y109.035 E10.31547
G1 X105.161 Y108.729 E10.33658
G1 X105.434 Y108.561 E10.34724
G1 X105.961 Y108.204 E10.36841
G1 X106.464 Y107.813 E10.3896
G1 X106.94 Y107.393 E10.41071
G1 X107.17 Y107.17 E10.42137
G1 X107.392 Y106.941 E10.43198
G1 X107.814 Y106.462 E10.45321
G1 X108.204 Y105.961 E10.47433
G1 X108.561 Y105.434 E10.4955
G1 X108.728 Y105.162 E10.50611
G1 X108.886 Y104.885 E10.51672
G1 X109.035 Y104.604 E10.5273
G1 X109.175 Y104.317 E10.53792
G1 X109.306 Y104.027 E10.5485
G1 X109.429 Y103.731 E10.55916
G1 X109.644 Y103.134 E10.58027
G1 X109.821 Y102.523 E10.60143
G1 X109.896 Y102.212 E10.61207
G1 X109.96 Y101.901 E10.62263
G1 X110.016 Y101.586 E10.63327
G1 X110.06 Y101.271 E10.64385
G1 X110.095 Y100.954 E10.65445
G1 X110.12 Y100.636 E10.66506
G1 X110.135 Y100.318 E10.67565
G1 X110.14 Y100 E10.68623
G1 X110.135 Y99.68 E10.69688
G1 X110.095 Y99.048 E10.71794
G1 X110.015 Y98.412 E10.73926
G1 X109.897 Y97.79 E10.76031
G1 X109.821 Y97.477 E10.77103
G1 X109.644 Y96.866 E10.79219
G1 X109.428 Y96.267 E10.81336
G1 X109.176 Y95.684 E10.83449
G1 X109.035 Y95.396 E10.84515
G1 X108.728 Y94.838 E10.86634
G1 X108.561 Y94.566 E10.87695
G1 X108.204 Y94.039 E10.89812
G1 X107.813 Y93.536 E10.91931
G1 X107.393 Y93.06 E10.94043
G1 X107.17 Y92.83 E10.95108
G1 X106.941 Y92.608 E10.96169
G1 X106.462 Y92.186 E10.98292
G1 X105.961 Y91.796 E11.00404
G1 X105.434 Y91.439 E11.02521
G1 X105.161 Y91.271 E11.03587
G1 X104.604 Y90.965 E11.05701
G1 X104.029 Y90.694 E11.07815
G1 X103.732 Y90.572 E11.08883
G1 X103.435 Y90.46 E11.09939
G1 X103.134 Y90.357 E11.10997
G1 X102.829 Y90.263 E11.12058
G1 X102.522 Y90.178 E11.13118
G1 X102.212 Y90.104 E11.14178
G1 X101.901 Y90.04 E11.15234
G1 X101.586 Y89.984 E11.16298
G1 X101.271 Y89.94 E11.17356
G1 X100.954 Y89.905 E11.18417
G1 X100.636 Y89.88 E11.19478
G1 X100.318 Y89.865 E11.20537
G1 X100 Y89.86 E11.21594
G1 X99.68 Y89.865 E11.22659
G1 X99.048 Y89.905 E11.24765
G1 X98.412 Y89.985 E11.26897
G1 X97.79 Y90.103 E11.29003
G1 X97.477 Y90.179 E11.30074
G1 X96.866 Y90.357 E11.32191
G1 X96.269 Y90.571 E11.343
G1 X95.971 Y90.694 E11.35372
G1 X95.396 Y90.965 E11.37487
G1 X94.839 Y91.271 E11.396
G1 X94.566 Y91.439 E11.40667
G1 X94.039 Y91.796 E11.42784
G1 X93.536 Y92.187 E11.44903
G1 X93.06 Y92.607 E11.47014
G1 X92.83 Y92.83 E11.4808
G1 X92.608 Y93.059 E11.4914
G1 X92.186 Y93.538 E11.51264
G1 X91.796 Y94.039 E11.53375
G0 F3600 X91.684 Y94.204
G0 X91.603 Y94.147
G0 X90.658 Y95.958
G0 X90.14 Y97.469
G0 X89.866 Y99.043
G0 X89.826 Y100.321
G0 X89.946 Y101.594
G0 X90.319 Y103.146
G0 X90.93 Y104.623
G0 X91.764 Y105.984
G0 X92.802 Y107.198
G0 X94.016 Y108.236
G0 X95.377 Y109.07
G0 X96.854 Y109.681
G0 X98.408 Y110.055
G0 X100 Y110.18
G0 X101.594 Y110.054
G0 X102.85 Y109.753
G0 X107.628 Y108.119
G0 X107.696 Y108.191
G1 F900 X107.43 Y108.433 E11.54571
G1 X107.167 Y108.659 E11.55725
G1 X106.892 Y108.879 E11.56896
G1 X106.609 Y109.091 E11.58072
G1 X106.315 Y109.298 E11.59268
G1 X106.025 Y109.489 E11.60423
G1 X105.728 Y109.671 E11.61581
G1 X105.432 Y109.839 E11.62713
G1 X105.106 Y110.014 E11.63944
G1 X104.783 Y110.171 E11.65139
G1 X104.466 Y110.315 E11.66297
G1 X104.134 Y110.452 E11.67491
G1 X103.776 Y110.587 E11.68764
G1 X103.476 Y110.689 E11.69818
G1 X103.139 Y110.793 E11.70991
G1 X102.799 Y110.886 E11.72163
G1 X102.449 Y110.969 E11.73359
G1 X102.101 Y111.041 E11.74541
G1 X101.755 Y111.102 E11.7571
G1 X101.412 Y111.151 E11.76862
G1 X101.055 Y111.19 E11.78057
G1 X100.709 Y111.217 E11.79211
G1 X100.35 Y111.234 E11.80407
G1 X100 Y111.24 E11.81571
G1 X99.65 Y111.234 E11.82735
G1 X99.291 Y111.217 E11.8393
G1 X98.945 Y111.19 E11.85085
G1 X98.588 Y111.151 E11.86279
G1 X98.245 Y111.102 E11.87432
G1 X97.899 Y111.041 E11.886
G1 X97.201 Y110.886 E11.90978
G1 X96.848 Y110.789 E11.92196
G1 X96.209 Y110.581 E11.94431
G1 X95.854 Y110.447 E11.95693
G1 X95.522 Y110.309 E11.96889
G1 X94.894 Y110.013 E11.99198
G1 X94.582 Y109.847 E12.00373
G1 X94.28 Y109.675 E12.01529
G1 X93.975 Y109.488 E12.02719
G1 X93.655 Y109.278 E12.03992
G1 X93.368 Y109.074 E12.05163
G1 X93.084 Y108.86 E12.06346
G1 X92.821 Y108.649 E12.07468
G1 X92.57 Y108.433 E12.08569
G1 X92.308 Y108.194 E12.09749
G1 X92.06 Y107.955 E12.10894
G1 X91.805 Y107.692 E12.12112
G1 X91.567 Y107.43 E12.1329
G1 X91.337 Y107.162 E12.14464
G1 X91.117 Y106.887 E12.15636
G1 X90.905 Y106.604 E12.16812
G1 X90.697 Y106.308 E12.18015
G1 X90.508 Y106.02 E12.19161
G1 X90.329 Y105.726 E12.20306
G1 X90.135 Y105.386 E12.21608
G1 X89.974 Y105.079 E12.22761
G1 X89.828 Y104.783 E12.23858
G1 X89.685 Y104.466 E12.25015
G1 X89.548 Y104.134 E12.2621
G1 X89.421 Y103.799 E12.27401
G1 X89.303 Y103.451 E12.28623
G1 X89.207 Y103.139 E12.29709
G1 X89.112 Y102.792 E12.30906
G1 X89.031 Y102.45 E12.32075
G1 X88.959 Y102.103 E12.33253
G1 X88.898 Y101.755 E12.34428
G1 X88.847 Y101.394 E12.35641
G1 X88.809 Y101.059 E12.36762
G1 X88.781 Y100.69 E12.37993
G1 X88.766 Y100.352 E12.39119
